%
O00001001
(T10  D=6. CR=0. - ZMIN=54. - FLAT END MILL)
G90 G94 G17
G21
G91
G28 Z0.
G90
(?3)
T10 M6
S10000 M3
G54
G0 X105.928 Y-49.753
G43 Z72. H10
G0 Z62.
G1 Z54.6 F1440.
G18 G3 X105.328 Z54. I-0.6
G1 X102.028
X-97.972
G17 G2 Y-44.278 J2.738
G1 X102.028
G3 Y-38.802 J2.738
G1 X-97.972
G2 Y-33.326 J2.738
G1 X102.028
G3 Y-27.851 J2.738
G1 X-97.972
G2 Y-22.375 J2.738
G1 X102.028
G3 Y-16.9 J2.738
G1 X-97.972
G2 Y-11.424 J2.738
G1 X102.028
G3 Y-5.949 J2.738
G1 X-97.972
G2 Y-0.473 J2.738
G1 X102.028
G3 Y5.003 J2.738
G1 X-97.972
G2 Y10.478 J2.738
G1 X102.028
G3 Y15.954 J2.738
G1 X-97.972
G2 Y21.429 J2.738
G1 X102.028
G3 Y26.905 J2.738
G1 X-97.972
G2 Y32.38 J2.738
G1 X102.028
G3 Y37.856 J2.738
G1 X-97.972
G2 Y43.332 J2.738
G1 X102.028
G3 Y48.807 J2.738
G1 X-97.972
G18 G3 X-98.572 Z54.6 K0.6
G0 Z72.
G17
G91
G28 Z0.
G90
M5
G91
G28 X0. Y0.
G90
M30
%
