%
O00001001
(T5  D=6. CR=3. - ZMIN=26.6 - BALL END MILL)
G90 G94 G17
G21
G91
G28 Z0.
G90
(???1)
T5 M6
S15000 M3
G54
G0 X44.223 Y-15.156
G43 Z72. H5
G0 Z49.368
G1 Z48.7 F1440.
G3 X43.685 Y-14.187 I-0.47 J0.373
G1 X43.66 Y-14.189
X43.492 Y-14.208
X43.325 Y-14.222
X43.158 Y-14.235
X42.99 Y-14.247
X42.823 Y-14.26
X42.656 Y-14.272
X42.488 Y-14.282
X42.321 Y-14.289
X42.154 Y-14.295
X41.986 Y-14.301
X41.819 Y-14.308
X41.652 Y-14.314
X41.484 Y-14.316
X40.815 Y-14.319
X40.648 Y-14.317
X40.48 Y-14.312
X40.313 Y-14.307
X40.146 Y-14.302
X39.978 Y-14.297
X39.811 Y-14.292
X39.644 Y-14.281
X39.476 Y-14.27
X39.309 Y-14.258
X39.225 Y-14.253
X39.168 Y-14.249
G3 X38.528 Y-14.806 I-0.042 J-0.599
G2 X37.701 Y-15.319 I-0.599 J0.042
G1 X35.477 Y-14.407
S10000
X35.476 Z48.692
Z48.684
X35.474 Y-14.408 Z48.676
X35.472 Y-14.409 Z48.668
X35.47 Y-14.411 Z48.661
X35.467 Y-14.413 Z48.653
X35.463 Y-14.415 Z48.646
X35.459 Y-14.417 Z48.64
X35.455 Y-14.42 Z48.633
X35.45 Y-14.423 Z48.628
X35.445 Y-14.426 Z48.622
X35.44 Y-14.43 Z48.617
X35.434 Y-14.434 Z48.613
X35.428 Y-14.438 Z48.609
X35.422 Y-14.442 Z48.606
X35.416 Y-14.447 Z48.604
X35.41 Y-14.452 Z48.602
X35.403 Y-14.456 Z48.601
X35.397 Y-14.461 Z48.6
G3 X36.324 Y-15.64 Z48.518 I0.464 J-0.589
X36.589 Y-15.229 Z48.5 I-0.464 J0.589
G1 X36.594 Y-15.209
S15000
X36.658 Y-14.911
G3 X36.079 Y-14.014 I-0.738 J0.159
G1 X36.073 Y-14.012
X36.064 Y-14.01
X36.03 Y-14.003
X35.837 Y-13.959
X35.816 Y-13.955
G3 X35.089 Y-14.468 I-0.132 J-0.585
X35.673 Y-15.14 I0.596 J-0.072
G1 X45.524 Y-15.332
G3 X46.134 Y-14.681 I0.012 J0.6
X45.423 Y-14.143 I-0.598 J-0.051
G1 X45.417 Y-14.144
X45.333 Y-14.16
X45.176 Y-14.185
X45.166 Y-14.186
X44.998 Y-14.211
X44.831 Y-14.235
X44.664 Y-14.259
X44.496 Y-14.283
X44.329 Y-14.304
X43.492 Y-14.393
X43.325 Y-14.406
X42.656 Y-14.454
X42.488 Y-14.464
X41.819 Y-14.49
X41.652 Y-14.496
X41.484 Y-14.498
X40.815 Y-14.501
X40.648 Y-14.499
X39.978 Y-14.479
X39.811 Y-14.474
X39.644 Y-14.464
X38.974 Y-14.422
X38.807 Y-14.408
X38.305 Y-14.36
X38.222 Y-14.352
X38.138 Y-14.344
X37.97 Y-14.327
X37.803 Y-14.305
X37.636 Y-14.281
X37.468 Y-14.258
X37.437 Y-14.253
G3 X36.751 Y-14.828 I-0.086 J-0.594
X37.4 Y-15.445 I0.6 J-0.019
G1 X46.192 Y-14.725
S10000
Y-14.726 Z48.492
X46.191 Z48.484
X46.19 Y-14.728 Z48.476
X46.189 Y-14.73 Z48.468
X46.187 Y-14.732 Z48.461
X46.185 Y-14.735 Z48.453
X46.183 Y-14.738 Z48.446
X46.181 Y-14.742 Z48.44
X46.178 Y-14.747 Z48.433
X46.175 Y-14.751 Z48.428
X46.172 Y-14.756 Z48.422
X46.169 Y-14.762 Z48.417
X46.165 Y-14.768 Z48.413
X46.161 Y-14.774 Z48.409
X46.158 Y-14.781 Z48.406
X46.154 Y-14.787 Z48.404
X46.15 Y-14.794 Z48.402
X46.147 Y-14.801 Z48.401
X46.143 Y-14.809 Z48.4
G3 X47.484 Y-15.481 Z48.318 I0.671 J-0.336
X47.549 Y-14.996 Z48.3 I-0.671 J0.336
G1 X47.544 Y-14.975
S15000
X47.475 Y-14.678
G3 X46.57 Y-14.113 I-0.736 J-0.17
G1 X46.546 Y-14.118
X46.504 Y-14.128
X46.337 Y-14.166
X46.251 Y-14.185
X46.17 Y-14.202
X46.002 Y-14.231
X45.835 Y-14.261
X45.305 Y-14.352
X45.166 Y-14.373
X44.496 Y-14.466
X44.329 Y-14.488
X44.162 Y-14.506
X43.66 Y-14.559
X43.492 Y-14.577
X43.325 Y-14.59
X43.158 Y-14.602
X42.99 Y-14.614
X42.823 Y-14.625
X42.656 Y-14.637
X42.488 Y-14.646
X42.321 Y-14.652
X42.154 Y-14.659
X41.986 Y-14.665
X41.819 Y-14.671
X41.652 Y-14.677
X41.484 Y-14.678
X40.815 Y-14.682
X40.648 Y-14.68
X40.48 Y-14.676
X40.313 Y-14.671
X40.146 Y-14.667
X39.978 Y-14.662
X39.811 Y-14.657
X39.644 Y-14.647
X39.476 Y-14.637
X39.309 Y-14.627
X39.142 Y-14.616
X38.974 Y-14.606
X38.807 Y-14.592
X38.057 Y-14.519
X37.97 Y-14.51
X37.134 Y-14.402
X36.966 Y-14.376
X36.819 Y-14.352
X36.799 Y-14.349
X36.632 Y-14.32
X36.464 Y-14.291
X36.297 Y-14.261
X36.263 Y-14.255
X36.255 Y-14.253
X36.213 Y-14.245
X36.13 Y-14.229
X36.124 Y-14.228
X36.119 Y-14.227
X36.109 Y-14.225
X36.088 Y-14.22
X35.293 Y-14.042
X35.187 Y-14.018
X35.126 Y-14.002
X34.958 Y-13.958
X34.914 Y-13.946
X34.912
G3 X34.162 Y-14.451 I-0.155 J-0.58
X34.764 Y-15.125 I0.595 J-0.075
G1 X48.007 Y-14.969
G3 X48.594 Y-14.285 I-0.007 J0.6
X47.842 Y-13.79 I-0.594 J-0.083
G1 X47.822 Y-13.796
X47.801 Y-13.801
X47.759 Y-13.813
X47.174 Y-13.971
X47.132 Y-13.982
X47.121 Y-13.984
X47.112 Y-13.987
G3 X47.395 Y-15.153 I0.142 J-0.583
X47.667 Y-15.004 I-0.142 J0.583
G1 X48.305 Y-14.398
S10000
Z48.292
X48.304 Y-14.399 Z48.284
Y-14.4 Z48.276
X48.303 Y-14.402 Z48.268
X48.301 Y-14.405 Z48.261
X48.3 Y-14.408 Z48.253
X48.298 Y-14.411 Z48.246
X48.295 Y-14.415 Z48.24
X48.293 Y-14.42 Z48.233
X48.29 Y-14.425 Z48.228
X48.288 Y-14.43 Z48.222
X48.285 Y-14.436 Z48.217
X48.282 Y-14.442 Z48.213
X48.279 Y-14.449 Z48.209
X48.276 Y-14.456 Z48.206
X48.273 Y-14.463 Z48.204
X48.269 Y-14.47 Z48.202
X48.266 Y-14.477 Z48.201
X48.263 Y-14.485 Z48.2
G3 X49.654 Y-15.047 Z48.118 I0.695 J-0.281
X49.679 Y-14.558 Z48.1 I-0.695 J0.281
G1 X49.673 Y-14.538
S15000
X49.581 Y-14.248
G3 X48.633 Y-13.757 I-0.719 J-0.229
G1 X48.617 Y-13.762
X48.596 Y-13.769
X48.512 Y-13.795
X48.178 Y-13.898
X48.01 Y-13.948
X47.843 Y-13.993
X47.508 Y-14.084
X47.341 Y-14.129
X47.174 Y-14.172
X47.124 Y-14.185
X47.006 Y-14.211
X46.839 Y-14.246
X46.323 Y-14.352
X46.17 Y-14.384
X46.002 Y-14.413
X45.333 Y-14.528
X45.166 Y-14.555
X44.998 Y-14.578
X44.831 Y-14.6
X44.664 Y-14.622
X44.496 Y-14.644
X44.329 Y-14.664
X44.162 Y-14.681
X43.492 Y-14.745
X43.325 Y-14.758
X42.656 Y-14.801
X42.488 Y-14.811
X41.819 Y-14.835
X41.652 Y-14.841
X41.484 Y-14.842
X40.815 Y-14.846
X40.648 Y-14.844
X39.978 Y-14.828
X39.811 Y-14.822
X39.142 Y-14.786
X38.974 Y-14.777
X38.807 Y-14.764
X38.64 Y-14.75
X38.472 Y-14.735
X38.305 Y-14.721
X38.138 Y-14.707
X37.97 Y-14.689
X37.948 Y-14.687
X37.803 Y-14.669
X37.636 Y-14.648
X37.468 Y-14.626
X37.301 Y-14.604
X37.134 Y-14.583
X36.966 Y-14.556
X36.297 Y-14.447
X36.13 Y-14.418
X35.962 Y-14.386
X35.794 Y-14.352
X35.628 Y-14.318
X35.46 Y-14.282
X35.293 Y-14.245
X35.126 Y-14.203
X34.416 Y-14.018
X34.289 Y-13.984
X34.122 Y-13.934
X34.112 Y-13.931
G3 X33.402 Y-14.782 I-0.179 J-0.573
G0 Z62.
X50.108 Y-14.537
Z48.576
G1 Z47.9 F1440.
G3 X49.357 Y-13.72 I-0.544 J0.253
G1 X49.349 Y-13.723
X49.182 Y-13.783
X49.014 Y-13.841
X48.987 Y-13.85
X48.847 Y-13.895
X48.345 Y-14.049
X48.178 Y-14.101
X48.01 Y-14.151
X47.878 Y-14.185
X47.843 Y-14.194
X47.676 Y-14.234
X47.174 Y-14.354
X47.006 Y-14.393
X46.337 Y-14.531
X46.17 Y-14.564
X46.002 Y-14.594
X45.835 Y-14.62
X45.668 Y-14.647
X45.333 Y-14.699
X45.166 Y-14.723
X44.496 Y-14.807
X44.329 Y-14.828
X44.162 Y-14.845
X43.492 Y-14.909
X43.325 Y-14.922
X42.99 Y-14.944
X42.823 Y-14.955
X42.656 Y-14.966
X42.488 Y-14.976
X42.321 Y-14.982
X42.154 Y-14.987
X41.986 Y-14.993
X41.819 Y-14.999
X41.652 Y-15.005
X41.484 Y-15.006
X40.815 Y-15.01
X40.648 Y-15.008
X40.48 Y-15.004
X40.313 Y-15.
X40.146 Y-14.996
X39.978 Y-14.992
X39.811 Y-14.987
X39.142 Y-14.95
X38.974 Y-14.941
X38.807 Y-14.927
X38.138 Y-14.871
X37.972 Y-14.854
X37.301 Y-14.778
X37.134 Y-14.758
X36.966 Y-14.733
X36.799 Y-14.708
X36.659 Y-14.687
X36.632 Y-14.682
X36.464 Y-14.656
X36.297 Y-14.628
X36.13 Y-14.598
X35.46 Y-14.467
X35.293 Y-14.434
X35.126 Y-14.396
X34.958 Y-14.357
X34.936 Y-14.352
X34.791 Y-14.317
X34.624 Y-14.274
X34.456 Y-14.231
X34.289 Y-14.185
X33.727 Y-14.018
X33.62 Y-13.986
X33.536 Y-13.96
X33.494 Y-13.947
X33.473 Y-13.941
G3 X32.763 Y-14.792 I-0.179 J-0.573
G0 Z62.
X50.82 Y-14.462
Z48.376
G1 Z47.7 F1440.
G3 X50.035 Y-13.679 I-0.555 J0.229
G1 X50.018 Y-13.686
X49.851 Y-13.752
X49.684 Y-13.811
X49.014 Y-14.042
X48.847 Y-14.098
X48.68 Y-14.147
X48.549 Y-14.185
X48.512 Y-14.195
X48.345 Y-14.241
X48.01 Y-14.332
X47.935 Y-14.352
X47.843 Y-14.374
X47.235 Y-14.519
X47.174 Y-14.534
X47.006 Y-14.572
X46.839 Y-14.605
X46.672 Y-14.637
X46.17 Y-14.729
X46.002 Y-14.758
X45.333 Y-14.862
X45.166 Y-14.887
X44.998 Y-14.908
X44.831 Y-14.929
X44.664 Y-14.95
X44.496 Y-14.97
X44.329 Y-14.99
X44.162 Y-15.006
X43.989 Y-15.021
X43.492 Y-15.065
X43.325 Y-15.078
X42.656 Y-15.118
X42.488 Y-15.128
X41.986 Y-15.145
X41.819 Y-15.15
X41.652 Y-15.156
X41.484 Y-15.157
X40.815 Y-15.161
X40.648 Y-15.159
X39.978 Y-15.145
X39.811 Y-15.14
X39.142 Y-15.108
X38.974 Y-15.099
X38.807 Y-15.087
X38.64 Y-15.074
X38.472 Y-15.061
X38.305 Y-15.048
X38.138 Y-15.034
X38.012 Y-15.021
X37.97 Y-15.017
X37.803 Y-14.998
X37.301 Y-14.94
X37.134 Y-14.92
X36.464 Y-14.824
X36.297 Y-14.8
X36.13 Y-14.771
X35.962 Y-14.742
X35.795 Y-14.711
X35.665 Y-14.687
X35.628 Y-14.679
X35.46 Y-14.647
X35.293 Y-14.612
X34.456 Y-14.422
X34.289 Y-14.38
X34.187 Y-14.352
X34.122 Y-14.334
X33.954 Y-14.286
X33.787 Y-14.236
X33.616 Y-14.185
X33.452 Y-14.136
X33.285 Y-14.081
X33.095 Y-14.018
X32.95 Y-13.969
X32.867 Y-13.94
X32.825 Y-13.925
X32.81 Y-13.919
G3 X32.064 Y-14.739 I-0.203 J-0.565
G0 Z62.
X51.352 Y-14.456
Z48.165
G1 Z47.5 F1440.
G3 X50.567 Y-13.674 I-0.555 J0.229
G1 X50.563 Y-13.676
X50.545 Y-13.683
X50.52 Y-13.693
X50.353 Y-13.76
X50.186 Y-13.824
X49.851 Y-13.951
X49.684 Y-14.011
X49.516 Y-14.069
X49.349 Y-14.125
X49.182 Y-14.18
X49.165 Y-14.185
X49.014 Y-14.231
X48.847 Y-14.282
X48.68 Y-14.328
X48.01 Y-14.51
X47.974 Y-14.519
X47.843 Y-14.553
X47.676 Y-14.591
X47.508 Y-14.627
X47.006 Y-14.735
X46.839 Y-14.767
X46.17 Y-14.891
X46.002 Y-14.92
X45.835 Y-14.945
X45.668 Y-14.97
X45.5 Y-14.994
X45.311 Y-15.021
X45.166 Y-15.042
X44.998 Y-15.062
X44.329 Y-15.139
X44.162 Y-15.155
X43.492 Y-15.214
X43.325 Y-15.227
X42.823 Y-15.258
X42.656 Y-15.268
X42.488 Y-15.277
X42.321 Y-15.283
X42.154 Y-15.288
X41.986 Y-15.294
X41.819 Y-15.299
X41.652 Y-15.305
X41.484 Y-15.306
X40.815 Y-15.311
X40.648 Y-15.309
X40.48 Y-15.305
X40.313 Y-15.302
X40.146 Y-15.298
X39.978 Y-15.295
X39.811 Y-15.289
X39.142 Y-15.257
X38.974 Y-15.248
X38.191 Y-15.189
X38.138 Y-15.185
X37.97 Y-15.168
X37.468 Y-15.116
X37.301 Y-15.099
X37.134 Y-15.079
X36.966 Y-15.056
X36.799 Y-15.033
X36.719 Y-15.021
X36.464 Y-14.985
X36.297 Y-14.96
X35.962 Y-14.902
X35.46 Y-14.816
X35.293 Y-14.784
X35.126 Y-14.749
X34.958 Y-14.713
X34.84 Y-14.687
X34.791 Y-14.676
X34.624 Y-14.638
X34.456 Y-14.599
X34.289 Y-14.556
X33.787 Y-14.426
X33.62 Y-14.381
X33.514 Y-14.352
X33.452 Y-14.333
X33.285 Y-14.278
X32.616 Y-14.055
X32.506 Y-14.018
X32.448 Y-13.997
X32.281 Y-13.932
X32.197 Y-13.898
X32.183 Y-13.892
G3 X31.401 Y-14.678 I-0.228 J-0.555
G0 Z62.
X51.968 Y-14.375
Z47.976
G1 Z47.3 F1440.
G3 X51.15 Y-13.628 I-0.564 J0.204
G1 X51.11 Y-13.646
X51.03 Y-13.683
X51.022 Y-13.686
X50.855 Y-13.759
X50.688 Y-13.828
X50.631 Y-13.85
X50.186 Y-14.02
X50.018 Y-14.084
X49.851 Y-14.145
X49.737 Y-14.185
X49.684 Y-14.202
X49.516 Y-14.253
X48.847 Y-14.456
X48.68 Y-14.504
X48.623 Y-14.519
X48.512 Y-14.549
X48.345 Y-14.591
X48.178 Y-14.632
X47.954 Y-14.687
X47.843 Y-14.714
X47.676 Y-14.75
X47.006 Y-14.893
X46.839 Y-14.927
X46.672 Y-14.956
X46.504 Y-14.985
X46.289 Y-15.021
X46.17 Y-15.042
X46.002 Y-15.069
X45.835 Y-15.093
X45.164 Y-15.189
X44.998 Y-15.209
X44.831 Y-15.228
X44.664 Y-15.247
X44.496 Y-15.266
X44.329 Y-15.285
X44.162 Y-15.301
X43.994 Y-15.315
X43.49 Y-15.356
X43.325 Y-15.368
X42.656 Y-15.407
X42.488 Y-15.416
X42.321 Y-15.421
X41.819 Y-15.437
X41.652 Y-15.442
X41.484 Y-15.444
X40.815 Y-15.448
X40.648 Y-15.446
X39.978 Y-15.434
X39.811 Y-15.429
X39.142 Y-15.4
X38.974 Y-15.391
X38.807 Y-15.379
X38.64 Y-15.368
X38.471 Y-15.356
X38.305 Y-15.344
X38.138 Y-15.331
X37.97 Y-15.314
X37.301 Y-15.246
X37.134 Y-15.225
X36.464 Y-15.139
X36.297 Y-15.115
X36.13 Y-15.088
X35.962 Y-15.061
X35.795 Y-15.032
X35.628 Y-15.003
X35.46 Y-14.974
X35.293 Y-14.941
X34.624 Y-14.806
X34.456 Y-14.77
X34.289 Y-14.729
X34.123 Y-14.687
X33.62 Y-14.556
X33.489 Y-14.519
X33.285 Y-14.46
X33.118 Y-14.411
X32.95 Y-14.36
X32.925 Y-14.352
X32.783 Y-14.306
X32.616 Y-14.251
X32.448 Y-14.19
X31.983 Y-14.018
X31.946 Y-14.004
X31.779 Y-13.939
X31.695 Y-13.906
X31.682 Y-13.9
G3 X30.9 Y-14.686 I-0.228 J-0.555
G0 Z62.
X30.616 Y-14.759
Z47.771
G1 Z47.1 F1440.
G3 X30.677 Y-13.652 I-0.199 J0.566
G1 X30.675 Y-13.651
X30.608 Y-13.618
X30.44 Y-13.532
X30.425 Y-13.524
G3 X29.571 Y-14.23 I-0.281 J-0.53
G0 Z62.
X60.005 Y-1.512
Z43.768
G1 Z43.1 F1440.
G3 X59.178 Y-2.251 I-0.26 J-0.541
G1 X59.183 Y-2.265
X59.198 Y-2.307
X59.222 Y-2.374
X59.256 Y-2.474
X59.311 Y-2.641
X59.404 Y-2.93
X59.411 Y-2.953
X59.415 Y-2.965
X59.416 Y-2.967
G3 X60.519 Y-3.073 I0.574 J0.176
G0 Z62.
X38.541 Y20.305
Z41.369
G1 Z40.7 F1440.
G3 X39.098 Y19.347 I0.477 J-0.364
G1 X39.142 Y19.353
X39.309 Y19.372
X39.476 Y19.388
X39.644 Y19.404
X39.811 Y19.419
X39.978 Y19.431
X40.169 Y19.442
X40.313 Y19.45
X40.48 Y19.459
X40.648 Y19.463
X40.982 Y19.47
X41.15 Y19.473
X41.317 Y19.471
X41.484 Y19.469
X41.652 Y19.467
X41.819 Y19.462
X41.986 Y19.454
X42.154 Y19.446
X42.24 Y19.442
X42.321 Y19.437
X42.488 Y19.426
X42.656 Y19.411
X42.739 Y19.403
X42.789 Y19.399
G3 X43.442 Y20.013 I0.054 J0.598
X42.757 Y20.59 I-0.6 J-0.016
G1 X38.018 Y19.905
S10000
Y19.906 Z40.692
Z40.684
X38.019 Y19.908 Z40.676
X38.021 Y19.91 Z40.668
X38.022 Y19.912 Z40.661
X38.024 Y19.915 Z40.653
X38.027 Y19.918 Z40.646
X38.029 Y19.922 Z40.64
X38.032 Y19.926 Z40.633
X38.035 Y19.931 Z40.628
X38.038 Y19.936 Z40.622
X38.042 Y19.942 Z40.617
X38.045 Y19.948 Z40.613
X38.049 Y19.954 Z40.609
X38.053 Y19.96 Z40.606
X38.056 Y19.967 Z40.604
X38.06 Y19.974 Z40.602
X38.064 Y19.981 Z40.601
X38.068 Y19.988 Z40.6
G3 X36.738 Y20.682 Z40.518 I-0.665 J0.347
X36.665 Y20.198 Z40.5 I0.665 J-0.347
G1 X36.67 Y20.178
S15000
X36.733 Y19.879
G3 X37.63 Y19.299 I0.738 J0.158
G1 X37.636 Y19.301
X37.803 Y19.336
X37.97 Y19.37
X38.138 Y19.398
X38.305 Y19.425
X38.407 Y19.442
X38.472 Y19.452
X38.64 Y19.477
X38.807 Y19.498
X38.974 Y19.518
X39.142 Y19.538
X39.309 Y19.556
X39.476 Y19.571
X39.644 Y19.585
X39.811 Y19.598
X39.973 Y19.609
X40.146 Y19.618
X40.313 Y19.626
X40.48 Y19.635
X40.648 Y19.639
X40.982 Y19.645
X41.15 Y19.648
X41.317 Y19.646
X41.484 Y19.645
X41.652 Y19.643
X41.819 Y19.639
X41.986 Y19.632
X42.154 Y19.625
X42.321 Y19.618
X42.472 Y19.609
X42.488 Y19.608
X42.656 Y19.595
X42.823 Y19.582
X42.99 Y19.569
X43.158 Y19.551
X43.492 Y19.513
X43.66 Y19.492
X43.827 Y19.467
X43.988 Y19.442
X43.994 Y19.441
X44.162 Y19.413
X44.329 Y19.384
X44.36 Y19.377
G3 X45.081 Y19.931 I0.122 J0.587
X44.428 Y20.562 I-0.599 J0.034
G1 X36.922 Y19.878
S10000
X36.923 Z40.492
Y19.879 Z40.484
X36.924 Y19.88 Z40.476
X36.925 Y19.882 Z40.468
X36.926 Y19.885 Z40.461
X36.928 Y19.888 Z40.453
X36.93 Y19.891 Z40.446
X36.932 Y19.895 Z40.44
X36.935 Y19.9 Z40.433
X36.938 Y19.905 Z40.428
X36.94 Y19.91 Z40.422
X36.943 Y19.916 Z40.417
X36.946 Y19.922 Z40.413
X36.95 Y19.929 Z40.409
X36.953 Y19.935 Z40.406
X36.956 Y19.942 Z40.404
X36.959 Y19.949 Z40.402
X36.963 Y19.957 Z40.401
X36.966 Y19.964 Z40.4
G3 X35.584 Y20.549 Z40.318 I-0.691 J0.292
X35.551 Y20.061 Z40.3 I0.691 J-0.292
G1 X35.557 Y20.041
S15000
X35.644 Y19.749
G3 X36.585 Y19.243 I0.723 J0.217
G1 X36.59 Y19.244
X36.632 Y19.257
X36.691 Y19.274
X36.799 Y19.303
X36.966 Y19.344
X37.134 Y19.384
X37.301 Y19.422
X37.391 Y19.442
X37.468 Y19.456
X37.636 Y19.488
X37.803 Y19.519
X37.97 Y19.55
X38.138 Y19.576
X38.305 Y19.6
X38.371 Y19.609
X38.472 Y19.623
X38.64 Y19.646
X38.807 Y19.664
X38.974 Y19.682
X39.142 Y19.699
X39.309 Y19.715
X39.476 Y19.727
X39.811 Y19.752
X39.978 Y19.762
X40.146 Y19.769
X40.313 Y19.777
X40.48 Y19.785
X40.648 Y19.789
X40.982 Y19.795
X41.15 Y19.798
X41.317 Y19.796
X41.484 Y19.795
X41.652 Y19.794
X41.819 Y19.791
X41.986 Y19.785
X42.321 Y19.773
X42.488 Y19.764
X42.656 Y19.754
X42.823 Y19.743
X42.99 Y19.732
X43.158 Y19.716
X43.325 Y19.7
X43.492 Y19.684
X43.66 Y19.666
X43.827 Y19.644
X43.994 Y19.621
X44.08 Y19.609
X44.162 Y19.597
X44.329 Y19.57
X44.496 Y19.54
X44.664 Y19.51
X44.831 Y19.478
X44.998 Y19.442
X45.
X45.166 Y19.402
X45.249 Y19.382
X45.291 Y19.371
X45.307 Y19.367
G3 X45.598 Y20.532 I0.146 J0.582
X45.405 Y20.548 I-0.146 J-0.582
G1 X35.957 Y19.798
S10000
Y19.799 Z40.292
X35.958 Z40.284
X35.959 Y19.801 Z40.276
X35.96 Y19.803 Z40.268
X35.961 Y19.805 Z40.261
X35.963 Y19.808 Z40.253
X35.964 Y19.812 Z40.246
X35.967 Y19.816 Z40.24
X35.969 Y19.821 Z40.233
X35.971 Y19.826 Z40.228
X35.974 Y19.831 Z40.222
X35.977 Y19.837 Z40.217
X35.979 Y19.843 Z40.213
X35.982 Y19.85 Z40.209
X35.985 Y19.857 Z40.206
X35.988 Y19.864 Z40.204
X35.991 Y19.871 Z40.202
X35.994 Y19.879 Z40.201
X35.997 Y19.886 Z40.2
G3 X34.593 Y20.414 Z40.118 I-0.702 J0.264
X34.579 Y19.925 Z40.1 I0.702 J-0.264
G1 X34.586 Y19.905
S15000
X34.686 Y19.617
G3 X35.646 Y19.15 I0.714 J0.247
G1 X35.669 Y19.158
X35.711 Y19.172
X35.795 Y19.201
X35.962 Y19.257
X36.013 Y19.274
X36.13 Y19.311
X36.297 Y19.358
X36.464 Y19.402
X36.616 Y19.442
X36.632 Y19.446
X36.799 Y19.488
X36.966 Y19.524
X37.134 Y19.559
X37.301 Y19.593
X37.381 Y19.609
X37.468 Y19.624
X37.636 Y19.652
X37.803 Y19.678
X37.97 Y19.705
X38.138 Y19.728
X38.305 Y19.749
X38.472 Y19.77
X38.522 Y19.776
X38.64 Y19.79
X38.807 Y19.807
X38.974 Y19.823
X39.142 Y19.838
X39.309 Y19.853
X39.476 Y19.864
X39.644 Y19.875
X39.811 Y19.886
X39.978 Y19.895
X40.146 Y19.902
X40.313 Y19.909
X40.48 Y19.916
X40.648 Y19.919
X40.982 Y19.925
X41.15 Y19.928
X41.317 Y19.927
X41.484 Y19.926
X41.652
X41.819 Y19.923
X41.986 Y19.918
X42.154 Y19.914
X42.321 Y19.909
X42.488 Y19.901
X42.656 Y19.892
X42.823 Y19.883
X42.99 Y19.873
X43.158 Y19.859
X43.325 Y19.846
X43.492 Y19.832
X43.66 Y19.815
X43.827 Y19.796
X43.997 Y19.776
X44.162 Y19.757
X44.329 Y19.733
X44.496 Y19.708
X44.664 Y19.681
X44.831 Y19.654
X44.998 Y19.621
X45.057 Y19.609
X45.166 Y19.586
X45.333 Y19.55
X45.5 Y19.514
X45.668 Y19.471
X45.778 Y19.442
X45.835 Y19.426
X46.002 Y19.379
X46.17 Y19.329
X46.334 Y19.274
X46.34 Y19.272
G3 X46.728 Y20.408 I0.194 J0.568
X46.498 Y20.439 I-0.194 J-0.568
G1 X35.257 Y19.769
S10000
Y19.77 Z40.092
X35.258 Y19.771 Z40.084
Y19.772 Z40.076
X35.259 Y19.774 Z40.068
X35.26 Y19.777 Z40.061
X35.262 Y19.78 Z40.053
X35.264 Y19.784 Z40.046
X35.265 Y19.788 Z40.04
X35.267 Y19.792 Z40.033
X35.27 Y19.798 Z40.028
X35.272 Y19.803 Z40.022
X35.275 Y19.809 Z40.017
X35.277 Y19.816 Z40.013
X35.28 Y19.822 Z40.009
X35.282 Y19.829 Z40.006
X35.285 Y19.836 Z40.004
X35.288 Y19.844 Z40.002
X35.29 Y19.851 Z40.001
X35.293 Y19.859 Z40.
G3 X33.867 Y20.325 Z39.918 I-0.713 J0.233
X33.875 Y19.836 Z39.9 I0.713 J-0.233
G1 X33.882 Y19.816
S15000
X33.994 Y19.532
G3 X34.974 Y19.108 I0.702 J0.278
G1 X34.991 Y19.115
X35.01 Y19.122
X35.049 Y19.137
X35.126 Y19.167
X35.293 Y19.23
X35.413 Y19.274
X35.46 Y19.291
X35.628 Y19.346
X35.795 Y19.396
X35.962 Y19.445
X36.13 Y19.493
X36.297 Y19.535
X36.464 Y19.574
X36.616 Y19.609
X36.632 Y19.612
X36.799 Y19.649
X36.966 Y19.681
X37.134 Y19.711
X37.301 Y19.741
X37.468 Y19.77
X37.511 Y19.776
X37.636 Y19.794
X37.803 Y19.818
X37.97 Y19.841
X38.138 Y19.862
X38.305 Y19.881
X38.472 Y19.899
X38.64 Y19.917
X38.807 Y19.932
X38.953 Y19.943
X38.974 Y19.945
X39.142 Y19.958
X39.309 Y19.972
X39.476 Y19.981
X39.644 Y19.991
X39.811 Y20.
X39.978 Y20.009
X40.48 Y20.027
X40.648 Y20.031
X40.982 Y20.037
X41.15 Y20.039
X41.652 Y20.038
X41.819 Y20.036
X41.986 Y20.032
X42.154 Y20.029
X42.321 Y20.025
X42.488 Y20.018
X42.656 Y20.011
X42.823 Y20.004
X42.99 Y19.995
X43.158 Y19.984
X43.325 Y19.973
X43.492 Y19.961
X43.66 Y19.946
X43.69 Y19.943
X43.827 Y19.93
X43.994 Y19.914
X44.162 Y19.897
X44.329 Y19.875
X44.496 Y19.853
X44.664 Y19.83
X44.831 Y19.805
X44.998 Y19.777
X45.005 Y19.776
X45.166 Y19.748
X45.333 Y19.718
X45.5 Y19.685
X45.668 Y19.647
X45.831 Y19.609
X45.835 Y19.608
X46.002 Y19.567
X46.17 Y19.523
X46.337 Y19.474
X46.445 Y19.442
X46.504 Y19.423
X46.672 Y19.369
X46.839 Y19.31
X46.935 Y19.274
X47.006 Y19.247
X47.012 Y19.245
G3 X47.45 Y20.362 I0.219 J0.558
X47.199 Y20.402 I-0.219 J-0.558
G1 X34.619 Y19.734
S10000
Z39.892
X34.62 Y19.735 Z39.884
Y19.737 Z39.876
X34.621 Y19.739 Z39.868
X34.622 Y19.741 Z39.861
X34.624 Y19.745 Z39.853
X34.625 Y19.748 Z39.846
X34.627 Y19.753 Z39.84
X34.629 Y19.757 Z39.833
X34.631 Y19.763 Z39.828
X34.633 Y19.768 Z39.822
X34.635 Y19.774 Z39.817
X34.637 Y19.781 Z39.813
X34.639 Y19.788 Z39.809
X34.642 Y19.795 Z39.806
X34.644 Y19.802 Z39.804
X34.646 Y19.81 Z39.802
X34.649 Y19.817 Z39.801
X34.651 Y19.825 Z39.8
G3 X33.205 Y20.224 Z39.718 I-0.723 J0.2
X33.236 Y19.736 Z39.7 I0.723 J-0.2
G1 X33.244 Y19.717
S15000
X33.369 Y19.439
G3 X34.367 Y19.06 I0.689 J0.31
G1 X34.373 Y19.062
X34.456 Y19.099
X34.473 Y19.107
X34.624 Y19.171
X34.791 Y19.24
X34.876 Y19.274
X34.958 Y19.305
X35.126 Y19.362
X35.293 Y19.417
X35.37 Y19.442
X35.46 Y19.47
X35.628 Y19.521
X35.795 Y19.565
X35.962 Y19.608
X35.967 Y19.609
X36.13 Y19.649
X36.297 Y19.687
X36.464 Y19.721
X36.632 Y19.755
X36.74 Y19.776
X36.799 Y19.787
X36.966 Y19.817
X37.134 Y19.843
X37.301 Y19.869
X37.468 Y19.895
X37.636 Y19.916
X37.803 Y19.937
X37.859 Y19.943
X37.97 Y19.957
X38.138 Y19.976
X38.305 Y19.991
X38.472 Y20.007
X38.64 Y20.023
X38.807 Y20.037
X38.974 Y20.049
X39.142 Y20.061
X39.309 Y20.073
X39.476 Y20.082
X39.644 Y20.09
X39.811 Y20.099
X39.978 Y20.106
X40.146 Y20.112
X40.313 Y20.117
X40.48 Y20.123
X40.648 Y20.126
X40.982 Y20.132
X41.15 Y20.134
X41.484
X41.652 Y20.135
X41.819 Y20.133
X41.986 Y20.13
X42.154 Y20.127
X42.321 Y20.124
X42.488 Y20.118
X42.656 Y20.112
X42.703 Y20.111
X42.823 Y20.106
X42.99 Y20.099
X43.158 Y20.089
X43.325 Y20.08
X43.492 Y20.07
X43.66 Y20.057
X43.827 Y20.044
X43.994 Y20.03
X44.162 Y20.015
X44.329 Y19.997
X44.496 Y19.979
X44.664 Y19.96
X44.791 Y19.943
X44.831 Y19.938
X44.998 Y19.913
X45.166 Y19.888
X45.333 Y19.862
X45.5 Y19.831
X45.668 Y19.799
X45.782 Y19.776
X45.835 Y19.765
X46.002 Y19.731
X46.17 Y19.691
X46.337 Y19.648
X46.484 Y19.609
X46.504 Y19.603
X46.672 Y19.556
X46.839 Y19.504
X47.006 Y19.448
X47.026 Y19.442
X47.174 Y19.389
X47.341 Y19.327
X47.472 Y19.274
X47.508 Y19.259
X47.592 Y19.222
X47.613 Y19.213
X47.619 Y19.21
G3 X48.425 Y19.972 I0.245 J0.548
G0 Z62.
X32.976 Y19.729
Z40.165
G1 Z39.5 F1440.
G3 X33.818 Y19.008 I0.57 J-0.186
G1 X33.829 Y19.013
X33.871 Y19.034
X33.954 Y19.075
X34.021 Y19.107
X34.122 Y19.153
X34.289 Y19.229
X34.399 Y19.274
X34.456 Y19.296
X34.624 Y19.359
X34.791 Y19.419
X34.854 Y19.442
X34.958 Y19.478
X35.126 Y19.529
X35.293 Y19.578
X35.404 Y19.609
X35.46 Y19.624
X35.628 Y19.669
X35.795 Y19.708
X35.962 Y19.746
X36.099 Y19.776
X36.13 Y19.783
X36.297 Y19.818
X36.464 Y19.848
X36.632 Y19.877
X36.799 Y19.905
X36.966 Y19.931
X37.055 Y19.943
X37.134 Y19.954
X37.301 Y19.977
X37.468 Y19.999
X37.636 Y20.019
X37.803 Y20.037
X37.97 Y20.054
X38.138 Y20.072
X38.305 Y20.086
X38.472 Y20.1
X38.609 Y20.111
X38.64 Y20.113
X38.807 Y20.125
X38.974 Y20.136
X39.142 Y20.146
X39.309 Y20.156
X39.476 Y20.164
X39.644 Y20.172
X39.811 Y20.179
X39.978 Y20.186
X40.146 Y20.191
X40.313 Y20.196
X40.48 Y20.201
X40.648 Y20.204
X40.982 Y20.21
X41.15 Y20.212
X41.484 Y20.213
X41.652
X41.819 Y20.212
X41.986 Y20.21
X42.154 Y20.208
X42.321 Y20.206
X42.488 Y20.201
X42.656 Y20.197
X42.823 Y20.192
X42.99 Y20.186
X43.158 Y20.178
X43.325 Y20.171
X43.492 Y20.162
X43.66 Y20.151
X43.827 Y20.14
X43.994 Y20.129
X44.162 Y20.115
X44.21 Y20.111
X44.329 Y20.1
X44.496 Y20.084
X44.664 Y20.067
X44.831 Y20.048
X44.998 Y20.028
X45.166 Y20.007
X45.333 Y19.984
X45.5 Y19.957
X45.585 Y19.943
X45.668 Y19.929
X45.835 Y19.9
X46.002 Y19.869
X46.17 Y19.833
X46.337 Y19.796
X46.427 Y19.776
X46.504 Y19.758
X46.672 Y19.717
X46.839 Y19.67
X47.006 Y19.621
X47.046 Y19.609
X47.174 Y19.569
X47.341 Y19.515
X47.508 Y19.454
X47.54 Y19.442
X47.676 Y19.389
X47.843 Y19.321
X47.954 Y19.274
X48.01 Y19.249
X48.178 Y19.167
X48.297 Y19.106
G3 X49.138 Y19.829 I0.27 J0.536
G0 Z62.
X32.295 Y19.561
Z39.959
G1 Z39.3 F1440.
G3 X33.173 Y18.884 I0.579 J-0.157
G1 X33.176 Y18.885
X33.195 Y18.896
X33.273 Y18.94
X33.285 Y18.946
X33.452 Y19.039
X33.584 Y19.107
X33.62 Y19.125
X33.787 Y19.205
X33.946 Y19.274
X33.954 Y19.278
X34.122 Y19.347
X34.289 Y19.412
X34.366 Y19.442
X34.456 Y19.474
X34.624 Y19.529
X34.791 Y19.582
X34.879 Y19.609
X34.958 Y19.632
X35.126 Y19.679
X35.293 Y19.722
X35.46 Y19.763
X35.516 Y19.776
X35.628 Y19.802
X35.795 Y19.838
X35.962 Y19.871
X36.13 Y19.902
X36.297 Y19.932
X36.364 Y19.943
X36.464 Y19.959
X36.632 Y19.984
X36.799 Y20.009
X36.966 Y20.033
X37.134 Y20.053
X37.301 Y20.073
X37.468 Y20.092
X37.636 Y20.109
X37.649 Y20.111
X37.803 Y20.125
X37.97 Y20.14
X38.138 Y20.154
X38.305 Y20.167
X38.472 Y20.179
X38.64 Y20.19
X38.807 Y20.201
X38.974 Y20.21
X39.142 Y20.218
X39.309 Y20.227
X39.476 Y20.234
X39.644 Y20.24
X39.811 Y20.247
X39.978 Y20.253
X40.146 Y20.257
X40.313 Y20.262
X40.48 Y20.266
X40.648 Y20.269
X40.982 Y20.274
X41.15 Y20.276
X41.489 Y20.278
X41.652 Y20.279
X41.819 Y20.278
X41.986 Y20.277
X42.154 Y20.276
X42.321 Y20.274
X42.488 Y20.271
X42.656 Y20.268
X42.823 Y20.265
X42.99 Y20.26
X43.158 Y20.254
X43.325 Y20.248
X43.492 Y20.241
X43.66 Y20.233
X43.827 Y20.224
X43.994 Y20.215
X44.162 Y20.203
X44.329 Y20.191
X44.496 Y20.178
X44.664 Y20.164
X44.831 Y20.147
X44.998 Y20.13
X45.166 Y20.111
X45.172
X45.333 Y20.091
X45.5 Y20.069
X45.668 Y20.045
X45.835 Y20.021
X46.002 Y19.993
X46.17 Y19.963
X46.273 Y19.943
X46.337 Y19.931
X46.504 Y19.898
X46.672 Y19.86
X46.839 Y19.819
X47.006 Y19.777
X47.011 Y19.776
X47.174 Y19.733
X47.341 Y19.683
X47.508 Y19.629
X47.57 Y19.609
X47.676 Y19.573
X47.843 Y19.515
X48.01 Y19.449
X48.027 Y19.442
X48.178 Y19.377
X48.345 Y19.302
X48.406 Y19.274
X48.512 Y19.224
X48.68 Y19.136
X48.734 Y19.107
X48.79 Y19.075
X48.819 Y19.059
X48.824 Y19.056
G3 X49.702 Y19.732 I0.299 J0.52
G0 Z62.
X52.73 Y-13.976
Z47.977
G1 Z47.3 F1440.
G3 X51.875 Y-13.271 I-0.574 J0.175
G1 X51.869 Y-13.273
X51.859 Y-13.279
X51.793 Y-13.314
X51.759 Y-13.331
X51.743 Y-13.34
X51.735 Y-13.344
G3 X51.825 Y-14.449 I0.274 J-0.534
G0 Z62.
X53.163 Y-13.971
Z47.771
G1 Z47.1 F1440.
G3 X52.307 Y-13.266 I-0.574 J0.175
G1 X52.298 Y-13.271
X52.277 Y-13.282
X51.692 Y-13.59
X51.524 Y-13.671
X51.497 Y-13.683
X51.357 Y-13.744
X51.19 Y-13.814
X50.688 Y-14.024
X50.52 Y-14.089
X50.353 Y-14.15
X50.254 Y-14.185
X50.186 Y-14.208
X49.757 Y-14.352
X49.684 Y-14.377
X49.516 Y-14.428
X49.349 Y-14.479
X49.215 Y-14.519
X49.182 Y-14.529
X49.014 Y-14.578
X48.847 Y-14.624
X48.68 Y-14.668
X48.605 Y-14.687
X47.843 Y-14.872
X47.676 Y-14.909
X47.508 Y-14.944
X47.341 Y-14.977
X47.006 Y-15.043
X46.839 Y-15.075
X46.165 Y-15.189
X46.002 Y-15.216
X45.835 Y-15.24
X45.668 Y-15.263
X45.5 Y-15.286
X45.333 Y-15.308
X45.166 Y-15.33
X44.998 Y-15.35
X44.329 Y-15.421
X44.162 Y-15.438
X43.492 Y-15.493
X43.325 Y-15.506
X42.656 Y-15.544
X42.488 Y-15.553
X42.321 Y-15.558
X42.154 Y-15.564
X41.986 Y-15.569
X41.819 Y-15.574
X41.652 Y-15.579
X41.484 Y-15.581
X40.815 Y-15.586
X40.648 Y-15.584
X40.48 Y-15.581
X40.313 Y-15.578
X40.146 Y-15.574
X39.978 Y-15.571
X39.811 Y-15.566
X39.142 Y-15.537
X38.974 Y-15.527
X38.305 Y-15.481
X38.138 Y-15.469
X37.468 Y-15.406
X37.301 Y-15.391
X37.134 Y-15.37
X37.017 Y-15.356
X36.966 Y-15.35
X36.799 Y-15.328
X36.464 Y-15.285
X36.297 Y-15.26
X35.628 Y-15.156
X35.46 Y-15.129
X35.293 Y-15.097
X35.126 Y-15.065
X34.958 Y-15.031
X34.624 Y-14.964
X34.456 Y-14.926
X33.954 Y-14.811
X33.787 Y-14.772
X33.62 Y-14.73
X33.47 Y-14.687
X32.783 Y-14.487
X32.616 Y-14.436
X32.448 Y-14.381
X32.366 Y-14.352
X32.281 Y-14.322
X32.114 Y-14.26
X31.779 Y-14.136
X31.612 Y-14.072
X31.476 Y-14.018
X31.444 Y-14.004
X31.277 Y-13.933
X31.193 Y-13.895
X31.151 Y-13.876
X31.129 Y-13.866
G3 X30.311 Y-14.614 I-0.254 J-0.544
G0 Z62.
X53.72 Y-13.867
Z47.573
G1 Z46.9 F1440.
G3 X52.829 Y-13.207 I-0.582 J0.146
G1 X52.821 Y-13.212
X52.779 Y-13.236
X52.696 Y-13.284
X52.582 Y-13.348
X52.528 Y-13.377
X52.194 Y-13.553
X52.026 Y-13.64
X51.939 Y-13.683
X51.859 Y-13.721
X51.692 Y-13.798
X51.576 Y-13.85
X51.524 Y-13.873
X51.357 Y-13.943
X51.178 Y-14.018
X51.022 Y-14.082
X50.855 Y-14.149
X50.76 Y-14.185
X50.688 Y-14.212
X50.52 Y-14.272
X50.282 Y-14.352
X50.018 Y-14.441
X49.851 Y-14.497
X49.782 Y-14.519
X49.684 Y-14.551
X49.516 Y-14.601
X49.349 Y-14.646
X48.68 Y-14.828
X48.579 Y-14.854
X48.512 Y-14.87
X48.345 Y-14.91
X48.178 Y-14.949
X48.01 Y-14.987
X47.843 Y-15.024
X47.676 Y-15.06
X47.006 Y-15.191
X46.839 Y-15.223
X46.672 Y-15.251
X46.504 Y-15.278
X46.337 Y-15.304
X46.002 Y-15.356
X45.835 Y-15.38
X45.166 Y-15.468
X44.998 Y-15.489
X44.831 Y-15.507
X44.676 Y-15.523
X44.664 Y-15.525
X44.496 Y-15.542
X44.329 Y-15.559
X44.162 Y-15.576
X43.994 Y-15.588
X43.492 Y-15.627
X43.325 Y-15.64
X43.158 Y-15.649
X42.656 Y-15.676
X42.488 Y-15.684
X42.321 Y-15.69
X41.819 Y-15.705
X41.652 Y-15.71
X41.484 Y-15.712
X40.815 Y-15.716
X40.648 Y-15.714
X39.978 Y-15.704
X39.811 Y-15.698
X39.142 Y-15.672
X38.974 Y-15.663
X38.807 Y-15.652
X38.64 Y-15.642
X38.472 Y-15.631
X38.305 Y-15.62
X38.138 Y-15.607
X37.97 Y-15.591
X37.468 Y-15.545
X37.301 Y-15.528
X36.632 Y-15.449
X36.464 Y-15.429
X36.297 Y-15.406
X36.13 Y-15.381
X35.962 Y-15.356
X35.795 Y-15.33
X35.628 Y-15.304
X35.46 Y-15.275
X34.791 Y-15.153
X34.624 Y-15.122
X34.456 Y-15.085
X34.289 Y-15.047
X33.787 Y-14.932
X33.62 Y-14.89
X33.452 Y-14.847
X33.285 Y-14.804
X33.118 Y-14.759
X32.95 Y-14.712
X32.865 Y-14.687
X32.783 Y-14.663
X32.616 Y-14.61
X32.114 Y-14.448
X31.946 Y-14.392
X31.83 Y-14.352
X31.779 Y-14.334
X31.612 Y-14.267
X31.11 Y-14.064
X30.996 Y-14.018
X30.942 Y-13.995
X30.775 Y-13.923
X30.628 Y-13.85
X30.106 Y-13.583
X30.042 Y-13.55
X30.01 Y-13.533
X30.006 Y-13.531
G3 X29.151 Y-14.236 I-0.281 J-0.53
G0 Z62.
X54.11 Y-13.864
Z47.367
G1 Z46.7 F1440.
G3 X53.22 Y-13.204 I-0.582 J0.146
G1 X53.212 Y-13.208
X53.198 Y-13.217
X53.03 Y-13.313
X52.672 Y-13.516
X52.528 Y-13.597
X52.361 Y-13.683
X52.194 Y-13.761
X51.627 Y-14.018
X51.524 Y-14.064
X51.357 Y-14.134
X51.223 Y-14.185
X51.19 Y-14.197
X50.855 Y-14.32
X50.52 Y-14.443
X50.353 Y-14.5
X50.294 Y-14.519
X50.186 Y-14.554
X50.018 Y-14.606
X49.684 Y-14.706
X49.516 Y-14.756
X49.349 Y-14.802
X49.157 Y-14.854
X49.014 Y-14.893
X48.847 Y-14.937
X48.68 Y-14.978
X48.512 Y-15.018
X47.744 Y-15.189
X47.676 Y-15.204
X47.508 Y-15.236
X47.341 Y-15.267
X47.174 Y-15.297
X46.839 Y-15.358
X46.672 Y-15.386
X46.002 Y-15.49
X45.835 Y-15.515
X45.771 Y-15.523
X45.668 Y-15.536
X45.5 Y-15.557
X45.333 Y-15.578
X45.166 Y-15.599
X44.998 Y-15.619
X44.278 Y-15.691
X44.162 Y-15.702
X43.994 Y-15.715
X43.492 Y-15.753
X43.325 Y-15.766
X43.158 Y-15.775
X42.656 Y-15.802
X42.488 Y-15.811
X42.321 Y-15.816
X42.154 Y-15.822
X41.986 Y-15.827
X41.819 Y-15.832
X41.652 Y-15.837
X41.484 Y-15.838
X40.982 Y-15.842
X40.815 Y-15.843
X40.648 Y-15.841
X40.48 Y-15.838
X40.313 Y-15.836
X39.978 Y-15.83
X39.811 Y-15.824
X39.142 Y-15.798
X38.974 Y-15.789
X38.305 Y-15.747
X38.138 Y-15.734
X37.468 Y-15.677
X37.301 Y-15.661
X37.134 Y-15.642
X36.966 Y-15.623
X36.799 Y-15.603
X36.632 Y-15.583
X36.464 Y-15.563
X35.795 Y-15.467
X35.628 Y-15.443
X35.46 Y-15.416
X35.293 Y-15.387
X35.126 Y-15.357
X34.791 Y-15.296
X34.624 Y-15.264
X34.122 Y-15.159
X33.954 Y-15.124
X33.787 Y-15.087
X33.62 Y-15.044
X32.885 Y-14.854
X32.783 Y-14.826
X32.616 Y-14.777
X32.448 Y-14.725
X32.329 Y-14.687
X31.946 Y-14.563
X31.813 Y-14.519
X31.779 Y-14.507
X31.612 Y-14.448
X31.444 Y-14.387
X31.354 Y-14.352
X31.277 Y-14.321
X30.939 Y-14.185
X30.775 Y-14.116
X30.608 Y-14.043
X30.551 Y-14.018
X30.44 Y-13.967
X30.273 Y-13.885
X30.205 Y-13.85
X29.878 Y-13.683
X29.771 Y-13.627
X29.604 Y-13.534
X29.572 Y-13.516
X29.538 Y-13.496
X29.521 Y-13.486
X29.51 Y-13.479
G3 X28.619 Y-14.139 I-0.309 J-0.514
G0 Z62.
X54.63 Y-13.744
Z47.172
G1 Z46.5 F1440.
G3 X53.704 Y-13.134 I-0.589 J0.113
G1 X53.7 Y-13.137
X53.634 Y-13.181
X53.532 Y-13.246
X53.365 Y-13.345
X53.03 Y-13.534
X52.863 Y-13.628
X52.759 Y-13.683
X52.696 Y-13.716
X52.528 Y-13.798
X52.421 Y-13.85
X52.361 Y-13.879
X52.194 Y-13.955
X52.026 Y-14.03
X51.859 Y-14.105
X51.692 Y-14.175
X51.667 Y-14.185
X51.524 Y-14.242
X51.357 Y-14.308
X51.236 Y-14.352
X51.022 Y-14.431
X50.855 Y-14.492
X50.779 Y-14.519
X50.688 Y-14.551
X50.52 Y-14.607
X50.353 Y-14.661
X49.684 Y-14.862
X49.516 Y-14.911
X49.349 Y-14.956
X48.847 Y-15.08
X48.68 Y-15.122
X48.512 Y-15.163
X48.397 Y-15.189
X48.345 Y-15.2
X48.178 Y-15.236
X48.01 Y-15.271
X47.676 Y-15.34
X47.595 Y-15.356
X47.508 Y-15.372
X46.839 Y-15.493
X46.672 Y-15.521
X46.658 Y-15.523
X46.504 Y-15.546
X46.337 Y-15.571
X46.002 Y-15.619
X45.835 Y-15.643
X45.166 Y-15.726
X44.998 Y-15.746
X44.831 Y-15.763
X44.664 Y-15.78
X44.496 Y-15.796
X44.329 Y-15.813
X44.162 Y-15.829
X43.994 Y-15.841
X43.492 Y-15.877
X43.325 Y-15.889
X43.158 Y-15.898
X42.656 Y-15.924
X42.488 Y-15.932
X42.321 Y-15.938
X41.819 Y-15.952
X41.652 Y-15.957
X41.484 Y-15.959
X40.982 Y-15.963
X40.815 Y-15.964
X40.648 Y-15.962
X40.146 Y-15.955
X39.978 Y-15.952
X39.811 Y-15.947
X39.309 Y-15.929
X39.142 Y-15.923
X38.974 Y-15.914
X38.807 Y-15.904
X38.64 Y-15.895
X38.472 Y-15.885
X38.305 Y-15.874
X38.138 Y-15.861
X37.468 Y-15.804
X37.301 Y-15.787
X36.632 Y-15.715
X36.464 Y-15.694
X36.434 Y-15.691
X36.297 Y-15.672
X36.13 Y-15.65
X35.962 Y-15.626
X35.795 Y-15.602
X35.628 Y-15.577
X34.958 Y-15.466
X34.791 Y-15.438
X34.624 Y-15.406
X34.456 Y-15.372
X33.954 Y-15.268
X33.787 Y-15.231
X33.603 Y-15.189
X33.452 Y-15.153
X33.285 Y-15.113
X33.118 Y-15.07
X32.95 Y-15.027
X32.929 Y-15.021
X32.783 Y-14.98
X32.281 Y-14.836
X32.114 Y-14.787
X31.946 Y-14.735
X31.808 Y-14.687
X31.277 Y-14.499
X31.11 Y-14.44
X30.942 Y-14.377
X30.882 Y-14.352
X30.775 Y-14.306
X30.273 Y-14.085
X30.119 Y-14.018
X30.106 Y-14.011
X29.938 Y-13.933
X29.784 Y-13.85
X29.436 Y-13.659
X29.269 Y-13.566
X29.181 Y-13.516
X29.141 Y-13.492
X29.131 Y-13.486
G3 X28.24 Y-14.146 I-0.309 J-0.514
G0 Z62.
X54.985 Y-13.741
Z46.968
G1 Z46.3 F1440.
G3 X54.059 Y-13.132 I-0.589 J0.113
G1 X54.055 Y-13.134
X54.034 Y-13.148
X53.985 Y-13.181
X53.867 Y-13.255
X53.714 Y-13.348
X53.438 Y-13.516
X53.365 Y-13.56
X53.198 Y-13.654
X53.141 Y-13.683
X53.03 Y-13.739
X52.863 Y-13.821
X52.46 Y-14.018
X52.361 Y-14.066
X52.194 Y-14.14
X52.084 Y-14.185
X52.026 Y-14.208
X51.357 Y-14.475
X51.238 Y-14.519
X51.19 Y-14.536
X51.022 Y-14.593
X50.52 Y-14.758
X50.353 Y-14.813
X50.218 Y-14.854
X50.186 Y-14.864
X50.018 Y-14.913
X49.851 Y-14.96
X49.516 Y-15.051
X49.349 Y-15.096
X49.014 Y-15.179
X48.977 Y-15.189
X48.847 Y-15.22
X48.68 Y-15.259
X48.512 Y-15.298
X48.345 Y-15.333
X47.676 Y-15.471
X47.508 Y-15.504
X47.396 Y-15.523
X47.341 Y-15.533
X47.174 Y-15.561
X46.839 Y-15.617
X46.672 Y-15.645
X46.504 Y-15.67
X46.002 Y-15.743
X45.835 Y-15.767
X45.668 Y-15.788
X45.5 Y-15.808
X45.333 Y-15.827
X44.998 Y-15.866
X44.831 Y-15.882
X44.162 Y-15.945
X43.994 Y-15.958
X43.325 Y-16.006
X43.158 Y-16.015
X42.488 Y-16.049
X42.321 Y-16.055
X41.986 Y-16.065
X41.819 Y-16.07
X41.652 Y-16.074
X41.484 Y-16.076
X40.982 Y-16.08
X40.815 Y-16.081
X40.648 Y-16.079
X40.146 Y-16.072
X39.978 Y-16.069
X39.811 Y-16.064
X39.309 Y-16.046
X39.142 Y-16.04
X38.974 Y-16.03
X38.472 Y-16.002
X38.305 Y-15.992
X38.138 Y-15.979
X37.636 Y-15.94
X37.468 Y-15.926
X37.301 Y-15.91
X37.134 Y-15.892
X36.966 Y-15.874
X36.632 Y-15.838
X36.464 Y-15.817
X35.795 Y-15.729
X35.628 Y-15.705
X35.53 Y-15.691
X35.46 Y-15.68
X35.293 Y-15.653
X35.126 Y-15.625
X34.958 Y-15.597
X34.791 Y-15.568
X34.289 Y-15.473
X34.122 Y-15.441
X33.954 Y-15.408
X33.787 Y-15.37
X33.118 Y-15.214
X33.009 Y-15.189
X32.95 Y-15.174
X32.783 Y-15.13
X32.616 Y-15.083
X32.114 Y-14.939
X31.946 Y-14.889
X31.835 Y-14.854
X31.779 Y-14.836
X31.612 Y-14.782
X31.444 Y-14.724
X31.11 Y-14.606
X30.942 Y-14.544
X30.775 Y-14.48
X30.608 Y-14.415
X30.458 Y-14.352
X30.44 Y-14.344
X30.273 Y-14.271
X30.077 Y-14.185
X29.938 Y-14.122
X29.771 Y-14.043
X29.719 Y-14.018
X29.604 Y-13.96
X29.436 Y-13.87
X29.097 Y-13.683
X28.934 Y-13.593
X28.807 Y-13.516
X28.767 Y-13.49
X28.683 Y-13.435
X28.673 Y-13.428
X28.666 Y-13.423
G3 X27.738 Y-14.03 I-0.338 J-0.496
G0 Z62.
X27.684 Y-14.246
Z46.764
G1 Z46.1 F1440.
G3 X27.944 Y-13.168 I-0.093 J0.593
G1 X27.938 Y-13.164
X27.93 Y-13.158
X27.847 Y-13.096
X27.805 Y-13.064
X27.784 Y-13.048
X27.773 Y-13.04
X27.771 Y-13.038
G3 X26.807 Y-13.586 I-0.369 J-0.473
G0 Z62.
X-20.07 Y-5.576
Z45.772
G1 Z45.1 F1440.
G3 X-21.148 Y-5.836 I-0.485 J-0.353
G1 Y-5.841
X-21.152 Y-5.862
X-21.176 Y-6.004
G3 X-21.073 Y-6.452 I0.592 J-0.1
G2 X-20.987 Y-6.915 I-0.455 J-0.324
G1 X-21.331 Y-8.253
G2 X-21.628 Y-8.617 I-0.541 J0.139
G3 X-21.933 Y-8.96 I0.262 J-0.54
G1 X-21.935 Y-8.967
X-21.946 Y-8.999
X-22.057 Y-9.315
G3 X-21.231 Y-10.054 I0.566 J-0.198
G0 Z62.
X-20.613 Y-8.897
Z45.562
G1 Z44.9 F1440.
G3 X-21.719 Y-8.963 I-0.539 J-0.263
G1 X-21.721 Y-8.967
X-21.724 Y-8.978
X-21.907 Y-9.501
X-21.935 Y-9.579
X-21.969 Y-9.668
X-22.158 Y-10.17
X-22.223 Y-10.337
X-22.27 Y-10.454
X-22.29 Y-10.504
X-22.307 Y-10.546
G3 X-21.946 Y-11.338 I0.556 J-0.225
X-21.174 Y-10.938 I0.196 J0.567
G1 X-19.773 Y-6.098
G3 X-20.219 Y-5.345 I-0.576 J0.167
X-20.942 Y-5.838 I-0.13 J-0.586
G1 X-20.943 Y-5.841
X-20.946 Y-5.862
X-20.995 Y-6.155
X-21.026 Y-6.322
X-21.058 Y-6.489
X-21.091 Y-6.657
X-21.126 Y-6.824
X-21.163 Y-6.991
X-21.203 Y-7.158
X-21.285 Y-7.493
X-21.326 Y-7.66
X-21.372 Y-7.828
X-21.419 Y-7.995
X-21.433 Y-8.043
X-21.45 Y-8.103
X-21.455 Y-8.12
G3 X-20.586 Y-8.808 I0.577 J-0.164
G0 Z62.
X-26.136 Y11.115
Z47.167
G1 Z46.5 F1440.
G3 X-26.527 Y10.077 I0.019 J-0.6
G1 X-26.522 Y10.073
X-26.453 Y10.008
X-26.227 Y9.795
X-26.213 Y9.781
X-26.209 Y9.777
G3 X-25.831 Y9.631 I0.365 J0.383
X-25.494 Y10.538 I-0.013 J0.52
G1 X-26.508 Y11.454
G3 X-27.376 Y11.027 I-0.349 J-0.386
X-27.191 Y10.665 I0.528 J0.042
G1 X-27.183 Y10.658
X-27.163 Y10.641
X-26.84 Y10.362
X-26.814 Y10.34
X-26.809 Y10.335
G3 X-26.422 Y10.203 I0.353 J0.401
X-26.118 Y11.13 I-0.033 J0.524
G1 X-27.175 Y12.016
G3 X-28.034 Y11.551 I-0.337 J-0.403
X-27.833 Y11.194 I0.531 J0.064
G1 X-27.818 Y11.182
X-27.792 Y11.161
X-27.686 Y11.077
X-27.625 Y11.027
X-27.616 Y11.02
X-27.609 Y11.015
G3 X-26.851 Y11.945 I0.379 J0.465
X-27.206 Y12.079 I-0.379 J-0.465
G1 X-27.846 Y12.105
S10000
Z46.492
X-27.845 Z46.484
X-27.843 Z46.476
X-27.841 Y12.106 Z46.468
X-27.838 Z46.461
X-27.835 Z46.453
X-27.831 Y12.107 Z46.446
X-27.826 Y12.108 Z46.44
X-27.821 Z46.433
X-27.815 Y12.109 Z46.428
X-27.809 Y12.11 Z46.422
X-27.803 Y12.111 Z46.417
X-27.796 Y12.112 Z46.413
X-27.789 Y12.114 Z46.409
X-27.782 Y12.115 Z46.406
X-27.774 Y12.117 Z46.404
X-27.767 Y12.119 Z46.402
X-27.759 Y12.12 Z46.401
X-27.751 Y12.122 Z46.4
G3 X-28.115 Y13.578 Z46.318 I-0.182 J0.728
X-28.525 Y13.311 Z46.3 I0.182 J-0.728
G1 X-28.537 Y13.294
S15000
X-28.718 Y13.048
G3 X-28.557 Y11.993 I0.608 J-0.447
G1 X-28.545 Y11.984
X-28.461 Y11.922
X-28.176 Y11.709
X-28.151 Y11.691
X-28.139 Y11.681
X-28.13 Y11.674
X-28.127 Y11.672
X-28.006 Y11.579
X-27.959 Y11.543
X-27.949 Y11.535
X-27.939 Y11.527
X-27.918 Y11.51
X-27.877 Y11.477
X-27.375 Y11.077
X-27.29 Y11.008
X-27.175 Y10.909
X-26.788 Y10.575
X-26.621 Y10.429
X-26.597 Y10.408
X-26.453 Y10.277
X-26.059 Y9.906
X-25.951 Y9.802
X-25.887 Y9.738
X-25.861 Y9.712
X-25.857 Y9.708
G3 X-24.985 Y9.718 I0.432 J0.417
X-25.044 Y10.588 I-0.441 J0.407
G1 X-28.418 Y13.368
G3 X-29.278 Y13.267 I-0.382 J-0.463
X-29.142 Y12.412 I0.478 J-0.362
G1 X-29.138 Y12.41
X-29.131 Y12.404
X-29.047 Y12.346
X-29.026 Y12.331
X-29.017 Y12.324
G3 X-28.18 Y12.468 I0.346 J0.49
G2 X-27.233 Y12.51 I0.49 J-0.346
G1 X-24.07 Y8.788
S10000
X-24.069 Z46.292
X-24.068 Z46.284
X-24.067 Z46.276
X-24.065 Y8.787 Z46.268
X-24.062 Z46.261
X-24.058 Z46.253
X-24.054 Y8.786 Z46.246
X-24.05 Z46.24
X-24.044 Z46.233
X-24.039 Y8.785 Z46.228
X-24.033 Z46.222
X-24.026 Y8.784 Z46.217
X-24.02 Z46.213
X-24.012 Z46.209
X-24.005 Y8.783 Z46.206
X-23.997 Z46.204
X-23.989 Z46.202
X-23.981 Z46.201
X-23.973 Z46.2
G3 X-23.99 Y10.283 Z46.118 I-0.009 J0.75
X-24.451 Y10.118 Z46.1 I0.009 J-0.75
G1 X-24.467 Y10.105
S15000
X-24.7 Y9.908
G3 X-24.787 Y8.843 I0.488 J-0.576
G1 X-24.78 Y8.835
X-24.696 Y8.735
X-24.613 Y8.635
X-24.557 Y8.567
X-24.555 Y8.565
G3 X-23.49 Y8.872 I0.469 J0.374
G0 Z62.
X-63.195 Y-7.338
Z45.769
G1 Z45.1 F1440.
G3 X-62.279 Y-6.713 I0.328 J0.502
G1 X-62.361 Y-6.322
X-62.365 Y-6.301
X-62.367 Y-6.291
X-62.368 Y-6.287
G3 X-63.074 Y-5.815 I-0.588 J-0.117
G2 X-63.764 Y-5.051 I-0.117 J0.588
G1 X-63.385 Y-3.815
S10000
Y-3.814 Z45.092
X-63.386 Z45.084
X-63.387 Y-3.813 Z45.076
X-63.389 Y-3.811 Z45.068
X-63.391 Y-3.809 Z45.061
X-63.394 Y-3.807 Z45.053
X-63.397 Y-3.804 Z45.046
X-63.4 Y-3.801 Z45.04
X-63.404 Y-3.798 Z45.033
X-63.408 Y-3.794 Z45.028
X-63.413 Y-3.79 Z45.022
X-63.418 Y-3.786 Z45.017
X-63.423 Y-3.781 Z45.013
X-63.429 Y-3.777 Z45.009
X-63.434 Y-3.772 Z45.006
X-63.44 Y-3.767 Z45.004
X-63.447 Y-3.763 Z45.002
X-63.453 Y-3.758 Z45.001
X-63.46 Y-3.753 Z45.
G3 X-64.338 Y-4.969 Z44.918 I-0.439 J-0.608
X-63.87 Y-5.111 Z44.9 I0.439 J0.608
G1 X-63.849 Y-5.109
S15000
X-63.545 Y-5.089
G3 X-62.841 Y-4.286 I-0.05 J0.753
G1 X-62.851 Y-4.147
X-62.862 Y-3.98
X-62.871 Y-3.813
X-62.886 Y-3.478
X-62.89 Y-3.311
X-62.894 Y-3.143
X-62.897 Y-2.976
X-62.899 Y-2.641
X-62.897 Y-2.474
X-62.892 Y-2.14
X-62.887 Y-1.972
X-62.86 Y-1.303
X-62.852 Y-1.136
X-62.818 Y-0.634
X-62.807 Y-0.467
X-62.796 Y-0.299
X-62.782 Y-0.132
X-62.763 Y0.085
G3 X-63.359 Y0.738 I-0.598 J0.053
X-63.958 Y0.088 I-0.001 J-0.6
G1 X-63.228 Y-8.602
G3 X-62.515 Y-9.14 I0.598 J0.05
X-62.058 Y-8.373 I-0.115 J0.589
G1 X-62.071 Y-8.33
X-62.095 Y-8.251
X-62.12 Y-8.162
X-62.263 Y-7.653
X-62.303 Y-7.493
X-62.385 Y-7.158
X-62.427 Y-6.991
X-62.43 Y-6.978
X-62.463 Y-6.824
X-62.568 Y-6.322
X-62.576 Y-6.283
G3 X-63.31 Y-5.822 I-0.588 J-0.121
X-63.739 Y-6.575 I0.146 J-0.582
G1 X-62.454 Y-10.879
G3 X-61.684 Y-11.275 I0.575 J0.172
X-61.32 Y-10.49 I-0.194 J0.568
G1 X-61.33 Y-10.463
X-61.346 Y-10.421
X-61.426 Y-10.214
X-61.443 Y-10.17
X-61.505 Y-10.002
X-61.567 Y-9.835
X-61.672 Y-9.542
X-61.676 Y-9.532
X-61.678 Y-9.525
G3 X-62.785 Y-9.464 I-0.566 J-0.199
G0 Z62.
X-56.98 Y11.383
Z47.371
G1 Z46.7 F1440.
G3 X-56.009 Y10.849 I0.596 J-0.066
G1 X-56.002 Y10.854
X-55.893 Y10.941
X-55.888 Y10.945
G3 X-56.194 Y12.011 I-0.373 J0.47
G0 Z62.
X-57.294 Y11.39
Z47.16
G1 Z46.5 F1440.
G3 X-56.323 Y10.855 I0.596 J-0.066
G1 X-56.311 Y10.864
X-55.761 Y11.303
X-55.757 Y11.307
G3 X-56.062 Y12.372 I-0.373 J0.47
G0 Z62.
X-56.451 Y12.074
Z47.165
G1 Z46.5 F1440.
G3 X-55.5 Y11.505 I0.594 J-0.087
G1 X-55.496 Y11.508
X-55.486 Y11.515
X-55.12 Y11.784
X-55.107 Y11.794
X-55.102 Y11.798
G3 X-55.363 Y12.875 I-0.354 J0.485
G0 Z62.
X-55.551 Y12.741
Z47.171
G1 Z46.5 F1440.
G3 X-54.62 Y12.14 I0.59 J-0.108
G1 X-54.617 Y12.142
X-54.6 Y12.154
X-54.489 Y12.23
X-54.476 Y12.239
G3 X-54.359 Y13.125 I-0.339 J0.495
X-55.253 Y13.144 I-0.455 J-0.391
G1 X-57.274 Y10.984
S10000
Z46.492
Y10.985 Z46.484
Y10.987 Z46.476
Y10.989 Z46.468
X-57.273 Y10.992 Z46.461
Y10.996 Z46.453
Y11. Z46.446
Y11.004 Z46.44
Y11.009 Z46.433
X-57.272 Y11.015 Z46.428
Y11.021 Z46.422
Y11.028 Z46.417
Y11.034 Z46.413
Y11.042 Z46.409
Y11.049 Z46.406
X-57.273 Y11.057 Z46.404
Y11.065 Z46.402
Y11.073 Z46.401
X-57.274 Y11.081 Z46.4
G3 X-58.771 Y10.986 Z46.318 I-0.749 J-0.047
X-58.582 Y10.535 Z46.3 I0.749 J0.047
G1 X-58.568 Y10.519
S15000
X-58.359 Y10.297
G3 X-57.292 Y10.265 I0.55 J0.518
G1 X-57.29 Y10.267
X-57.28 Y10.276
X-57.243 Y10.311
X-57.135 Y10.408
X-57.075 Y10.461
X-56.949 Y10.575
X-56.908 Y10.611
X-56.87 Y10.644
X-56.688 Y10.802
X-56.683 Y10.807
X-56.678 Y10.811
X-56.657 Y10.829
X-56.573 Y10.899
X-56.357 Y11.077
X-56.239 Y11.174
X-56.15 Y11.244
X-55.904 Y11.441
X-55.737 Y11.571
X-55.726 Y11.579
X-55.569 Y11.697
X-55.048 Y12.081
X-54.9 Y12.186
X-54.398 Y12.531
X-54.36 Y12.557
X-54.358 Y12.558
G3 X-54.215 Y13.413 I-0.338 J0.496
X-55.074 Y13.52 I-0.481 J-0.359
G1 X-58.661 Y10.603
G3 X-58.725 Y9.734 I0.379 J-0.466
X-57.854 Y9.718 I0.443 J0.404
G1 X-57.833 Y9.738
X-57.745 Y9.826
X-57.665 Y9.906
X-57.621 Y9.949
G3 X-58.035 Y10.977 I-0.42 J0.428
G0 Z62.
X-45.157 Y16.406
Z47.775
G1 Z47.1 F1440.
G3 X-44.612 Y15.441 I0.473 J-0.369
G1 X-44.525 Y15.452
X-44.358 Y15.469
X-44.191 Y15.486
X-44.023 Y15.503
X-43.689 Y15.53
X-43.584 Y15.539
X-43.574 Y15.54
G3 X-43.165 Y15.749 I-0.048 J0.598
G2 X-42.694 Y15.961 I0.457 J-0.389
G1 X-40.128 Y15.903
G2 X-39.672 Y15.676 I-0.014 J-0.6
G3 X-39.27 Y15.454 I0.47 J0.373
G1 X-39.265 Y15.453
X-39.254 Y15.452
X-39.171 Y15.442
X-38.836 Y15.4
X-38.669 Y15.377
X-38.501 Y15.353
X-38.408 Y15.34
G3 X-37.842 Y16.293 I0.086 J0.594
G0 Z62.
X-39.59 Y16.726
Z47.565
G1 Z46.9 F1440.
G3 X-39.286 Y15.66 I0.373 J-0.47
G1 X-39.275 Y15.659
X-39.254 Y15.656
X-38.836 Y15.605
X-38.757 Y15.594
X-38.501 Y15.557
X-38.334 Y15.533
X-38.167 Y15.505
X-37.999 Y15.478
X-37.832 Y15.45
X-37.497 Y15.388
X-37.33 Y15.356
X-37.163 Y15.322
X-37.079 Y15.304
X-37.032 Y15.295
G3 X-36.312 Y15.815 I0.123 J0.587
X-36.899 Y16.482 I-0.596 J0.067
G1 X-46.096 Y16.63
G3 X-46.703 Y15.978 I-0.01 J-0.6
X-45.993 Y15.441 I0.598 J0.051
G1 X-45.989
X-45.948 Y15.449
X-45.864 Y15.463
X-45.697 Y15.491
X-45.529 Y15.518
X-45.362 Y15.543
X-45.011 Y15.594
X-44.86 Y15.613
X-44.525 Y15.654
X-44.358 Y15.672
X-44.191 Y15.689
X-44.023 Y15.706
X-43.856 Y15.72
X-43.563 Y15.745
X-43.551 Y15.746
G3 X-43.01 Y16.456 I-0.048 J0.598
X-43.775 Y16.918 I-0.589 J-0.112
G1 X-46.624 Y16.05
S10000
X-46.623 Z46.892
Y16.051 Z46.884
X-46.622 Y16.053 Z46.876
X-46.621 Y16.055 Z46.868
X-46.619 Y16.057 Z46.861
X-46.617 Y16.06 Z46.853
X-46.615 Y16.063 Z46.846
X-46.613 Y16.067 Z46.84
X-46.61 Y16.072 Z46.833
X-46.607 Y16.076 Z46.828
X-46.604 Y16.081 Z46.822
X-46.6 Y16.087 Z46.817
X-46.597 Y16.093 Z46.813
X-46.593 Y16.099 Z46.809
X-46.59 Y16.106 Z46.806
X-46.586 Y16.112 Z46.804
X-46.582 Y16.119 Z46.802
X-46.579 Y16.127 Z46.801
X-46.575 Y16.134 Z46.8
G3 X-47.919 Y16.8 Z46.718 I-0.672 J0.333
X-47.982 Y16.315 Z46.7 I0.672 J-0.333
G1 X-47.977 Y16.294
S15000
X-47.907 Y15.998
G3 X-46.999 Y15.436 I0.735 J0.174
G1 X-46.993 Y15.438
X-46.952 Y15.447
X-46.868 Y15.466
X-46.701 Y15.501
X-46.533 Y15.535
X-46.366 Y15.568
X-46.031 Y15.63
X-45.864 Y15.66
X-45.529 Y15.715
X-45.362 Y15.741
X-45.027 Y15.789
X-44.86 Y15.811
X-44.693 Y15.832
X-44.525 Y15.852
X-44.358 Y15.87
X-44.191 Y15.887
X-44.023 Y15.903
X-43.856 Y15.916
X-43.689 Y15.929
X-43.521 Y15.941
X-43.354 Y15.95
X-43.187 Y15.959
X-43.019 Y15.968
X-42.685 Y15.979
X-42.517 Y15.984
X-42.183 Y15.99
X-42.015
X-41.346 Y15.983
X-41.179 Y15.981
X-41.011 Y15.975
X-40.844 Y15.968
X-40.677 Y15.961
X-40.342 Y15.942
X-40.175 Y15.931
X-39.84 Y15.906
X-39.673 Y15.892
X-39.505 Y15.876
X-39.338 Y15.86
X-39.171 Y15.842
X-39.003 Y15.822
X-38.836 Y15.803
X-38.669 Y15.78
X-38.536 Y15.761
X-38.501 Y15.756
X-38.334 Y15.732
X-37.999 Y15.677
X-37.832 Y15.648
X-37.497 Y15.586
X-37.33 Y15.554
X-36.995 Y15.485
X-36.828 Y15.449
X-36.493 Y15.373
X-36.326 Y15.333
X-36.159 Y15.292
X-36.029 Y15.259
X-36.024 Y15.258
G3 X-35.278 Y15.774 I0.149 J0.581
X-35.895 Y16.439 I-0.596 J0.065
G1 X-47.523 Y16.055
S10000
Z46.692
Y16.056 Z46.684
X-47.522 Y16.058 Z46.676
X-47.521 Y16.06 Z46.668
X-47.519 Y16.062 Z46.661
X-47.517 Y16.065 Z46.653
X-47.515 Y16.069 Z46.646
X-47.513 Y16.073 Z46.64
X-47.51 Y16.077 Z46.633
X-47.508 Y16.082 Z46.628
X-47.505 Y16.087 Z46.622
X-47.502 Y16.093 Z46.617
X-47.499 Y16.099 Z46.613
X-47.495 Y16.105 Z46.609
X-47.492 Y16.112 Z46.606
X-47.489 Y16.119 Z46.604
X-47.485 Y16.126 Z46.602
X-47.482 Y16.133 Z46.601
X-47.479 Y16.141 Z46.6
G3 X-48.852 Y16.745 Z46.518 I-0.686 J0.302
X-48.892 Y16.258 Z46.5 I0.686 J-0.302
G1 X-48.886 Y16.238
S15000
X-48.803 Y15.944
G3 X-47.87 Y15.425 I0.726 J0.207
G1 X-47.865 Y15.426
X-47.705 Y15.469
X-47.537 Y15.51
X-47.37 Y15.551
X-47.203 Y15.589
X-46.868 Y15.664
X-46.701 Y15.698
X-46.366 Y15.767
X-46.199 Y15.798
X-46.031 Y15.828
X-45.864 Y15.859
X-45.697 Y15.886
X-45.529 Y15.913
X-45.428 Y15.928
X-45.362 Y15.938
X-45.195 Y15.96
X-45.027 Y15.981
X-44.86 Y16.001
X-44.525 Y16.038
X-44.358 Y16.055
X-44.023 Y16.085
X-43.888 Y16.096
X-43.521 Y16.122
X-43.354 Y16.131
X-43.187 Y16.14
X-43.019 Y16.149
X-42.852 Y16.155
X-42.685 Y16.16
X-42.517 Y16.165
X-42.35 Y16.167
X-42.183 Y16.17
X-42.015
X-41.346 Y16.163
X-41.179 Y16.161
X-41.011 Y16.155
X-40.844 Y16.148
X-40.677 Y16.142
X-40.509 Y16.132
X-40.342 Y16.123
X-40.175 Y16.113
X-40.007 Y16.1
X-39.943 Y16.096
X-39.84 Y16.088
X-39.673 Y16.073
X-39.505 Y16.058
X-39.338 Y16.042
X-39.171 Y16.024
X-39.003 Y16.005
X-38.836 Y15.986
X-38.501 Y15.942
X-38.396 Y15.928
X-38.334 Y15.919
X-37.999 Y15.87
X-37.832 Y15.843
X-37.665 Y15.815
X-37.497 Y15.786
X-37.366 Y15.761
X-37.33 Y15.754
X-37.163 Y15.72
X-36.995 Y15.685
X-36.828 Y15.649
X-36.493 Y15.573
X-36.326 Y15.532
X-36.159 Y15.491
X-35.991 Y15.45
X-35.903 Y15.426
X-35.657 Y15.361
X-35.489 Y15.316
X-35.322 Y15.268
X-35.292 Y15.259
X-35.223 Y15.239
X-35.189 Y15.228
X-35.172 Y15.223
X-35.157 Y15.218
G3 X-34.408 Y15.618 I0.175 J0.574
G2 X-33.345 Y15.791 I0.574 J-0.175
G1 X-32.878 Y15.135
S10000
Z46.492
X-32.877 Y15.136 Z46.484
X-32.876 Z46.476
X-32.873 Y15.137 Z46.468
X-32.871 Y15.138 Z46.461
X-32.868 Y15.14 Z46.453
X-32.864 Y15.141 Z46.446
X-32.86 Y15.143 Z46.44
X-32.855 Y15.145 Z46.433
X-32.85 Y15.147 Z46.428
X-32.844 Y15.149 Z46.422
X-32.838 Y15.152 Z46.417
X-32.832 Y15.155 Z46.413
X-32.825 Y15.158 Z46.409
X-32.819 Y15.161 Z46.406
X-32.812 Y15.165 Z46.404
X-32.805 Y15.168 Z46.402
X-32.798 Y15.172 Z46.401
X-32.791 Y15.176 Z46.4
G3 X-33.504 Y16.495 Z46.318 I-0.357 J0.66
X-33.835 Y16.135 Z46.3 I0.357 J-0.66
G1 X-33.843 Y16.115
S15000
X-33.957 Y15.832
G3 X-33.539 Y14.85 I0.7 J-0.282
G1 X-33.534 Y14.848
X-33.523 Y14.844
X-33.167 Y14.698
X-33.152 Y14.692
G3 X-32.37 Y15.477 I0.228 J0.555
G0 Z62.
X-49.285 Y16.275
Z46.97
G1 Z46.3 F1440.
G3 X-48.577 Y15.422 I0.531 J-0.28
G1 X-48.563 Y15.426
X-48.541 Y15.433
X-48.374 Y15.483
X-48.207 Y15.53
X-47.872 Y15.618
X-47.705 Y15.661
X-47.292 Y15.761
X-47.203 Y15.781
X-46.868 Y15.856
X-46.701 Y15.892
X-46.533 Y15.925
X-46.517 Y15.928
X-46.366 Y15.957
X-46.199 Y15.986
X-46.031 Y16.013
X-45.864 Y16.041
X-45.697 Y16.066
X-45.362 Y16.114
X-45.195 Y16.136
X-45.027 Y16.157
X-44.86 Y16.177
X-44.693 Y16.195
X-44.525 Y16.212
X-44.358 Y16.228
X-44.023 Y16.255
X-43.928 Y16.263
X-43.856 Y16.268
X-43.521 Y16.289
X-43.354 Y16.298
X-43.187 Y16.306
X-43.019 Y16.314
X-42.852 Y16.32
X-42.685 Y16.325
X-42.517 Y16.329
X-42.183 Y16.334
X-42.015 Y16.335
X-41.346 Y16.327
X-41.179 Y16.325
X-41.011 Y16.319
X-40.844 Y16.313
X-40.677 Y16.306
X-40.342 Y16.288
X-40.175 Y16.278
X-39.84 Y16.254
X-39.673 Y16.24
X-39.505 Y16.226
X-39.338 Y16.211
X-39.171 Y16.193
X-39.003 Y16.176
X-38.836 Y16.158
X-38.669 Y16.137
X-38.501 Y16.117
X-38.339 Y16.096
X-38.334 Y16.095
X-38.167 Y16.071
X-37.999 Y16.046
X-37.832 Y16.02
X-37.497 Y15.964
X-37.33 Y15.933
X-37.163 Y15.902
X-36.995 Y15.871
X-36.828 Y15.837
X-36.661 Y15.802
X-36.493 Y15.767
X-36.47 Y15.761
X-36.326 Y15.727
X-36.159 Y15.686
X-35.991 Y15.644
X-35.657 Y15.555
X-35.489 Y15.509
X-35.155 Y15.413
X-34.987 Y15.364
X-34.82 Y15.313
X-34.653 Y15.261
X-34.646 Y15.259
X-34.485 Y15.206
X-34.402 Y15.177
X-34.396 Y15.175
G3 X-33.63 Y15.539 I0.201 J0.565
G2 X-32.717 Y15.826 I0.565 J-0.201
G1 X-29.114 Y13.263
S10000
Z46.292
X-29.113 Y13.264 Z46.284
X-29.111 Z46.276
X-29.109 Z46.268
X-29.106 Y13.265 Z46.261
X-29.103 Z46.253
X-29.099 Y13.266 Z46.246
X-29.094 Y13.267 Z46.24
X-29.089 Y13.268 Z46.233
X-29.084 Y13.269 Z46.228
X-29.078 Y13.27 Z46.222
X-29.071 Y13.272 Z46.217
X-29.065 Y13.273 Z46.213
X-29.058 Y13.275 Z46.209
X-29.051 Y13.277 Z46.206
X-29.043 Y13.279 Z46.204
X-29.036 Y13.281 Z46.202
X-29.028 Y13.283 Z46.201
X-29.02 Y13.285 Z46.2
G3 X-29.456 Y14.721 Z46.118 I-0.218 J0.718
X-29.852 Y14.434 Z46.1 I0.218 J-0.718
G1 X-29.864 Y14.416
S15000
X-30.032 Y14.162
G3 X-29.818 Y13.116 I0.63 J-0.416
G1 X-29.552 Y12.94
G3 X-28.633 Y13.561 I0.331 J0.501
G0 Z62.
X-29.012 Y13.818
Z46.767
G1 Z46.1 F1440.
G3 X-29.249 Y12.735 I0.106 J-0.591
G1 X-29.244 Y12.732
X-29.236 Y12.725
X-28.794 Y12.415
X-28.629 Y12.298
X-28.113 Y11.913
X-27.959 Y11.796
X-27.895 Y11.746
X-27.792 Y11.666
X-27.682 Y11.579
X-27.472 Y11.411
X-27.457 Y11.399
X-27.29 Y11.262
X-27.065 Y11.077
X-26.955 Y10.985
X-26.867 Y10.909
X-26.788 Y10.84
X-26.677 Y10.742
X-26.286 Y10.393
X-26.119 Y10.24
X-25.947 Y10.073
X-25.775 Y9.906
X-25.617 Y9.751
X-25.604 Y9.738
X-25.449 Y9.578
X-25.443 Y9.571
X-25.115 Y9.22
X-25.046 Y9.145
X-25.037 Y9.135
G3 X-23.989 Y9.495 I0.45 J0.397
G0 Z62.
X-50.659 Y15.762
Z46.975
G1 Z46.3 F1440.
G3 X-49.89 Y14.963 I0.55 J-0.24
G1 X-49.88 Y14.967
X-49.713 Y15.029
X-49.311 Y15.175
G3 X-49.721 Y16.303 I-0.205 J0.564
X-50.08 Y15.944 I0.205 J-0.564
G1 X-50.198 Y15.619
S10000
Z46.292
Y15.62 Z46.284
X-50.197 Y15.621 Z46.276
X-50.196 Y15.623 Z46.268
X-50.195 Y15.626 Z46.261
X-50.194 Y15.629 Z46.253
X-50.192 Y15.633 Z46.246
X-50.19 Y15.637 Z46.24
X-50.188 Y15.642 Z46.233
X-50.186 Y15.647 Z46.228
X-50.184 Y15.653 Z46.222
X-50.182 Y15.659 Z46.217
X-50.179 Y15.665 Z46.213
X-50.177 Y15.672 Z46.209
X-50.174 Y15.679 Z46.206
X-50.172 Y15.686 Z46.204
X-50.169 Y15.694 Z46.202
X-50.167 Y15.701 Z46.201
X-50.164 Y15.709 Z46.2
G3 X-51.6 Y16.142 Z46.118 I-0.718 J0.217
X-51.581 Y15.654 Z46.1 I0.718 J-0.217
G1 X-51.574 Y15.634
S15000
X-51.455 Y15.353
G3 X-50.466 Y14.951 I0.696 J0.293
G1 X-50.455 Y14.956
X-50.382 Y14.986
X-50.215 Y15.053
X-49.88 Y15.182
X-49.713 Y15.246
X-49.677 Y15.259
X-49.378 Y15.368
X-49.215 Y15.426
X-49.211 Y15.428
X-49.043 Y15.482
X-48.876 Y15.534
X-48.709 Y15.584
X-48.676 Y15.594
X-48.374 Y15.679
X-48.207 Y15.726
X-48.075 Y15.761
X-47.872 Y15.815
X-47.705 Y15.858
X-47.537 Y15.899
X-47.416 Y15.928
X-47.37 Y15.939
X-47.203 Y15.977
X-47.035 Y16.011
X-46.868 Y16.044
X-46.701 Y16.077
X-46.366 Y16.137
X-46.199 Y16.166
X-46.031 Y16.193
X-45.864 Y16.22
X-45.697 Y16.244
X-45.529 Y16.266
X-45.362 Y16.288
X-45.195 Y16.308
X-44.86 Y16.347
X-44.693 Y16.364
X-44.525 Y16.38
X-44.358 Y16.396
X-44.191 Y16.41
X-44.023 Y16.423
X-43.937 Y16.43
X-43.856 Y16.436
X-43.689 Y16.446
X-43.521 Y16.456
X-43.354 Y16.464
X-43.187 Y16.472
X-43.019 Y16.479
X-42.852 Y16.484
X-42.685 Y16.488
X-42.517 Y16.492
X-42.183 Y16.496
X-42.015 Y16.497
X-41.346 Y16.489
X-41.179 Y16.487
X-41.011 Y16.481
X-40.844 Y16.475
X-40.677 Y16.469
X-40.342 Y16.452
X-40.175 Y16.442
X-39.84 Y16.419
X-39.673 Y16.406
X-39.505 Y16.392
X-39.338 Y16.378
X-39.171 Y16.362
X-39.003 Y16.345
X-38.836 Y16.326
X-38.669 Y16.306
X-38.501 Y16.286
X-38.334 Y16.264
X-37.999 Y16.217
X-37.832 Y16.192
X-37.665 Y16.166
X-37.497 Y16.14
X-37.33 Y16.111
X-37.241 Y16.096
X-37.163 Y16.082
X-36.995 Y16.051
X-36.828 Y16.018
X-36.661 Y15.984
X-36.493 Y15.948
X-36.159 Y15.874
X-35.991 Y15.835
X-35.824 Y15.795
X-35.687 Y15.761
X-35.657 Y15.753
X-35.489 Y15.708
X-35.322 Y15.66
X-35.155 Y15.613
X-35.09 Y15.594
X-34.653 Y15.46
X-34.549 Y15.426
X-34.151 Y15.297
X-34.041 Y15.259
X-33.983 Y15.239
X-33.816 Y15.178
X-33.774 Y15.162
X-33.753 Y15.154
X-33.735 Y15.147
X-33.732 Y15.146
X-33.649 Y15.114
X-33.621 Y15.103
X-33.611 Y15.099
X-33.607 Y15.097
X-33.594 Y15.092
X-33.314 Y14.977
X-33.147 Y14.909
X-32.979 Y14.837
X-32.645 Y14.693
X-32.561 Y14.656
X-32.54 Y14.646
X-32.524 Y14.638
X-32.523
G3 X-31.701 Y15.382 I0.257 J0.542
G0 Z62.
X-31.477 Y15.495
Z46.565
G1 Z45.9 F1440.
G3 X-31.586 Y14.392 I0.174 J-0.574
G1 X-31.578 Y14.388
X-31.473 Y14.331
X-31.139 Y14.151
X-31.023 Y14.088
X-30.997 Y14.073
X-30.989 Y14.068
G3 X-30.109 Y14.743 I0.3 J0.52
G0 Z62.
X-30.316 Y14.868
Z46.57
G1 Z45.9 F1440.
G3 X-30.489 Y13.772 I0.14 J-0.583
G1 X-30.48 Y13.767
X-30.093 Y13.529
X-30.08 Y13.521
X-30.072 Y13.516
X-30.051 Y13.503
X-29.967 Y13.45
X-29.92 Y13.419
X-29.912 Y13.414
X-29.413 Y13.084
X-29.298 Y13.007
X-29.167 Y12.917
X-29.131 Y12.891
X-28.929 Y12.75
X-28.796 Y12.656
X-28.693 Y12.582
X-28.461 Y12.414
X-28.294 Y12.291
X-28.235 Y12.248
X-28.127 Y12.165
X-27.583 Y11.746
X-27.457 Y11.646
X-26.955 Y11.232
X-26.788 Y11.091
X-26.771 Y11.077
X-26.621 Y10.946
X-26.392 Y10.742
X-26.286 Y10.648
X-26.206 Y10.575
X-26.023 Y10.408
X-25.951 Y10.341
X-25.845 Y10.24
X-25.673 Y10.073
X-25.617 Y10.018
X-25.504 Y9.906
X-25.449 Y9.851
X-25.337 Y9.738
X-25.282 Y9.68
X-24.947 Y9.322
X-24.869 Y9.236
X-24.78 Y9.137
X-24.723 Y9.069
X-24.443 Y8.735
X-24.305 Y8.567
X-24.298 Y8.559
X-24.291 Y8.55
X-24.278 Y8.534
X-24.227 Y8.467
X-24.203 Y8.433
X-24.197 Y8.425
X-24.19 Y8.417
X-24.178 Y8.4
X-23.903 Y8.024
X-23.888 Y8.003
X-23.881 Y7.992
X-23.876 Y7.986
G3 X-22.796 Y8.235 I0.488 J0.349
G0 Z62.
X-39.638 Y-21.644
Z47.772
G1 Z47.1 F1440.
G3 X-40.131 Y-20.651 I-0.452 J0.394
G1 X-40.175 Y-20.654
X-40.342 Y-20.666
X-40.509 Y-20.674
X-40.677 Y-20.682
X-40.844 Y-20.689
X-41.011 Y-20.694
X-41.179 Y-20.699
X-41.346 Y-20.702
X-41.681 Y-20.705
X-41.848 Y-20.704
X-42.685 Y-20.684
X-42.852 Y-20.677
X-43.187 Y-20.659
X-43.354 Y-20.647
X-43.521 Y-20.634
X-43.689 Y-20.622
X-43.856 Y-20.606
X-44.023 Y-20.59
X-44.072 Y-20.586
G3 X-44.729 Y-21.184 I-0.057 J-0.597
X-44.069 Y-21.78 I0.6 J0.001
G1 X-38.733 Y-21.241
S10000
Z47.092
X-38.734 Y-21.242 Z47.084
X-38.735 Y-21.243 Z47.076
X-38.736 Y-21.245 Z47.068
X-38.738 Y-21.247 Z47.061
X-38.74 Y-21.25 Z47.053
X-38.743 Y-21.253 Z47.046
X-38.745 Y-21.257 Z47.04
X-38.749 Y-21.261 Z47.033
X-38.752 Y-21.265 Z47.028
X-38.755 Y-21.27 Z47.022
X-38.759 Y-21.276 Z47.017
X-38.763 Y-21.281 Z47.013
X-38.767 Y-21.287 Z47.009
X-38.771 Y-21.293 Z47.006
X-38.775 Y-21.3 Z47.004
X-38.78 Y-21.306 Z47.002
X-38.784 Y-21.313 Z47.001
X-38.788 Y-21.32 Z47.
G3 X-37.501 Y-22.091 Z46.918 I0.643 J-0.385
X-37.4 Y-21.613 Z46.9 I-0.643 J0.385
G1 X-37.403 Y-21.592
S15000
X-37.45 Y-21.29
G3 X-38.31 Y-20.659 I-0.746 J-0.115
G1 X-38.334 Y-20.662
X-38.501 Y-20.687
X-38.68 Y-20.709
X-38.836 Y-20.729
X-39.003 Y-20.75
X-39.338 Y-20.786
X-39.505 Y-20.802
X-39.84 Y-20.831
X-40.007 Y-20.844
X-40.342 Y-20.866
X-40.509 Y-20.875
X-40.677 Y-20.883
X-40.844 Y-20.891
X-41.011 Y-20.895
X-41.179 Y-20.9
X-41.346 Y-20.904
X-41.681 Y-20.906
X-41.848
X-42.685 Y-20.886
X-42.852 Y-20.879
X-43.187 Y-20.86
X-43.354 Y-20.848
X-43.521 Y-20.836
X-43.689 Y-20.823
X-43.856 Y-20.808
X-44.023 Y-20.792
X-44.191 Y-20.775
X-44.525 Y-20.737
X-44.693 Y-20.716
X-45.027 Y-20.671
X-45.195 Y-20.647
X-45.529 Y-20.594
X-45.697 Y-20.566
X-45.832 Y-20.542
X-45.864 Y-20.536
X-45.886 Y-20.532
G3 X-46.584 Y-21.016 I-0.107 J-0.59
G2 X-47.484 Y-21.422 I-0.59 J0.107
G1 X-49.154 Y-20.414
S10000
Y-20.415 Z46.892
X-49.155 Z46.884
X-49.156 Y-20.416 Z46.876
X-49.158 Y-20.417 Z46.868
X-49.161 Y-20.418 Z46.861
X-49.164 Y-20.419 Z46.853
X-49.168 Y-20.421 Z46.846
X-49.172 Y-20.423 Z46.84
X-49.176 Y-20.426 Z46.833
X-49.181 Y-20.428 Z46.828
X-49.187 Y-20.431 Z46.822
X-49.193 Y-20.434 Z46.817
X-49.199 Y-20.438 Z46.813
X-49.205 Y-20.441 Z46.809
X-49.211 Y-20.445 Z46.806
X-49.218 Y-20.449 Z46.804
X-49.225 Y-20.453 Z46.802
X-49.231 Y-20.457 Z46.801
X-49.238 Y-20.461 Z46.8
G3 X-48.428 Y-21.724 Z46.718 I0.405 J-0.631
X-48.125 Y-21.34 Z46.7 I-0.405 J0.631
G1 X-48.118 Y-21.32
S15000
X-48.026 Y-21.029
G3 X-48.516 Y-20.081 I-0.719 J0.229
G1 X-48.52 Y-20.08
X-48.541 Y-20.073
X-48.876 Y-19.965
X-49.043 Y-19.91
X-49.152 Y-19.873
X-49.181 Y-19.863
X-49.203 Y-19.855
X-49.207 Y-19.854
G3 X-49.993 Y-20.3 I-0.198 J-0.566
X-49.445 Y-21.019 I0.588 J-0.12
G1 X-37.096 Y-21.847
G3 X-36.457 Y-21.21 I0.04 J0.599
X-37.172 Y-20.66 I-0.599 J-0.038
G1 X-37.204 Y-20.666
X-37.246 Y-20.674
X-37.33 Y-20.691
X-37.429 Y-20.709
X-37.497 Y-20.722
X-37.665 Y-20.751
X-37.832 Y-20.779
X-37.999 Y-20.807
X-38.167 Y-20.832
X-38.47 Y-20.877
X-38.501 Y-20.881
X-38.669 Y-20.902
X-38.836 Y-20.924
X-39.003 Y-20.945
X-39.338 Y-20.981
X-39.505 Y-20.998
X-39.84 Y-21.027
X-40.007 Y-21.04
X-40.342 Y-21.062
X-40.509 Y-21.071
X-40.844 Y-21.087
X-41.011 Y-21.092
X-41.179 Y-21.097
X-41.346 Y-21.101
X-41.513 Y-21.102
X-41.681 Y-21.103
X-41.848
X-42.685 Y-21.083
X-42.852 Y-21.076
X-43.187 Y-21.057
X-43.354 Y-21.045
X-43.521 Y-21.033
X-43.689 Y-21.02
X-43.856 Y-21.004
X-44.023 Y-20.988
X-44.191 Y-20.972
X-44.525 Y-20.933
X-44.693 Y-20.912
X-45.027 Y-20.867
X-45.195 Y-20.842
X-45.529 Y-20.79
X-45.697 Y-20.761
X-46.031 Y-20.702
X-46.199 Y-20.67
X-46.366 Y-20.637
X-46.533 Y-20.604
X-46.701 Y-20.568
X-46.82 Y-20.542
X-46.868 Y-20.532
X-47.035 Y-20.494
X-47.056 Y-20.489
X-47.074 Y-20.484
G3 X-47.802 Y-20.921 I-0.145 J-0.582
G2 X-48.932 Y-21.02 I-0.582 J0.145
G1 X-49.1 Y-20.643
S10000
Z46.692
X-49.101 Z46.684
X-49.103 Y-20.644 Z46.676
X-49.105 Y-20.645 Z46.668
X-49.107 Y-20.646 Z46.661
X-49.111 Y-20.648 Z46.653
X-49.114 Y-20.65 Z46.646
X-49.118 Y-20.652 Z46.64
X-49.123 Y-20.654 Z46.633
X-49.128 Y-20.657 Z46.628
X-49.133 Y-20.66 Z46.622
X-49.139 Y-20.663 Z46.617
X-49.145 Y-20.666 Z46.613
X-49.151 Y-20.67 Z46.609
X-49.158 Y-20.673 Z46.606
X-49.164 Y-20.677 Z46.604
X-49.171 Y-20.681 Z46.602
X-49.178 Y-20.685 Z46.601
X-49.184 Y-20.69 Z46.6
G3 X-48.374 Y-21.952 Z46.518 I0.405 J-0.631
X-48.071 Y-21.568 Z46.5 I-0.405 J0.631
G1 X-48.064 Y-21.548
S15000
X-47.972 Y-21.257
G3 X-48.463 Y-20.309 I-0.72 J0.229
G1 X-48.468 Y-20.307
X-48.479 Y-20.304
X-48.876 Y-20.176
X-49.043 Y-20.12
X-49.378 Y-20.005
X-49.545 Y-19.946
X-49.745 Y-19.873
X-49.812 Y-19.848
X-49.846 Y-19.836
X-49.863 Y-19.829
X-49.874 Y-19.825
G3 X-50.631 Y-20.635 I-0.211 J-0.562
G0 Z62.
X-59.679 Y9.535
Z46.76
G1 Z46.1 F1440.
G3 X-58.63 Y9.174 I0.599 J0.036
G1 X-58.626 Y9.179
X-58.617 Y9.189
X-58.574 Y9.236
X-58.247 Y9.599
X-58.118 Y9.738
X-58.079 Y9.777
X-57.611 Y10.24
X-57.577 Y10.273
X-57.432 Y10.408
X-57.06 Y10.742
X-56.908 Y10.877
X-56.869 Y10.909
X-56.741 Y11.017
X-56.239 Y11.431
X-56.071 Y11.564
X-55.569 Y11.946
X-55.402 Y12.071
X-55.389 Y12.081
X-55.235 Y12.193
X-54.9 Y12.431
X-54.733 Y12.547
X-54.565 Y12.662
X-54.437 Y12.75
X-54.398 Y12.776
X-54.231 Y12.888
X-54.208 Y12.903
X-54.197 Y12.91
X-54.19 Y12.914
G3 X-54.012 Y13.744 I-0.326 J0.504
G2 X-53.43 Y14.665 I0.504 J0.326
G1 X-52.835 Y14.586
S10000
Z46.092
X-52.834 Y14.587 Z46.084
Y14.589 Z46.076
X-52.833 Y14.591 Z46.068
X-52.832 Y14.594 Z46.061
X-52.831 Y14.597 Z46.053
X-52.83 Y14.601 Z46.046
X-52.829 Y14.605 Z46.04
X-52.828 Y14.61 Z46.033
X-52.827 Y14.616 Z46.028
X-52.825 Y14.622 Z46.022
X-52.824 Y14.628 Z46.017
X-52.822 Y14.635 Z46.013
X-52.821 Y14.642 Z46.009
X-52.819 Y14.649 Z46.006
X-52.818 Y14.656 Z46.004
X-52.817 Y14.664 Z46.002
X-52.815 Y14.672 Z46.001
X-52.814 Y14.68 Z46.
G3 X-54.297 Y14.907 Z45.918 I-0.741 J0.113
X-54.209 Y14.426 Z45.9 I0.741 J-0.113
G1 X-54.198 Y14.408
S15000
X-54.042 Y14.146
G3 X-53.006 Y13.887 I0.647 J0.388
G1 X-53.004 Y13.888
X-52.949 Y13.921
X-52.92 Y13.937
X-52.906 Y13.945
X-52.897 Y13.95
G3 X-53.033 Y15.051 I-0.296 J0.522
G0 Z62.
X-52.869 Y15.147
Z46.57
G1 Z45.9 F1440.
G3 X-52.019 Y14.435 I0.572 J-0.18
G1 X-52.014 Y14.438
X-52.005 Y14.443
X-51.966 Y14.463
X-51.888 Y14.503
X-51.804 Y14.546
X-51.783 Y14.556
X-51.773 Y14.561
X-51.765 Y14.565
G3 X-51.836 Y15.671 I-0.265 J0.538
G0 Z62.
X-51.802 Y15.694
Z46.569
G1 Z45.9 F1440.
G3 X-50.993 Y14.936 I0.562 J-0.211
G1 X-50.985 Y14.94
X-50.951 Y14.955
X-50.884 Y14.984
X-50.717 Y15.056
X-50.63 Y15.092
X-50.215 Y15.261
X-50.047 Y15.326
X-49.88 Y15.39
X-49.786 Y15.426
X-49.713 Y15.454
X-49.545 Y15.512
X-49.378 Y15.566
X-49.211 Y15.62
X-49.043 Y15.671
X-48.709 Y15.773
X-48.541 Y15.821
X-48.374 Y15.869
X-48.207 Y15.916
X-48.162 Y15.928
X-48.039 Y15.96
X-47.872 Y16.001
X-47.705 Y16.04
X-47.537 Y16.077
X-47.203 Y16.15
X-47.035 Y16.183
X-46.868 Y16.216
X-46.701 Y16.248
X-46.613 Y16.263
X-46.533 Y16.276
X-46.366 Y16.304
X-46.199 Y16.331
X-46.031 Y16.356
X-45.864 Y16.381
X-45.697 Y16.405
X-45.507 Y16.43
X-45.362 Y16.449
X-45.195 Y16.469
X-45.027 Y16.487
X-44.86 Y16.505
X-44.693 Y16.52
X-44.525 Y16.535
X-44.358 Y16.55
X-44.191 Y16.563
X-44.023 Y16.575
X-43.856 Y16.587
X-43.521 Y16.606
X-43.354 Y16.615
X-43.019 Y16.629
X-42.852 Y16.634
X-42.685 Y16.639
X-42.517 Y16.643
X-42.35 Y16.645
X-42.183 Y16.647
X-42.015 Y16.648
X-41.346 Y16.64
X-41.179 Y16.637
X-41.011 Y16.632
X-40.844 Y16.626
X-40.677 Y16.619
X-40.509 Y16.611
X-40.342 Y16.602
X-40.25 Y16.597
X-40.175 Y16.593
X-39.84 Y16.57
X-39.673 Y16.557
X-39.505 Y16.543
X-39.338 Y16.529
X-39.003 Y16.496
X-38.836 Y16.479
X-38.501 Y16.441
X-38.411 Y16.43
X-38.167 Y16.399
X-37.999 Y16.377
X-37.832 Y16.353
X-37.665 Y16.328
X-37.497 Y16.302
X-37.33 Y16.273
X-37.163 Y16.244
X-36.995 Y16.214
X-36.661 Y16.151
X-36.493 Y16.118
X-36.386 Y16.096
X-36.326 Y16.083
X-36.159 Y16.048
X-35.991 Y16.009
X-35.824 Y15.969
X-35.657 Y15.929
X-35.655 Y15.928
X-35.489 Y15.886
X-35.322 Y15.843
X-35.155 Y15.799
X-35.019 Y15.761
X-34.987 Y15.752
X-34.82 Y15.703
X-34.653 Y15.651
X-34.318 Y15.542
X-34.151 Y15.487
X-33.816 Y15.371
X-33.649 Y15.313
X-33.502 Y15.259
X-33.481 Y15.251
X-33.314 Y15.188
X-33.147 Y15.12
X-32.693 Y14.925
X-32.645 Y14.903
X-32.477 Y14.827
X-32.31 Y14.751
X-32.143 Y14.675
X-32.059 Y14.635
X-32.017 Y14.614
X-32.001 Y14.606
X-31.997 Y14.604
G3 X-31.156 Y15.326 I0.271 J0.535
G0 Z62.
X-60.025 Y9.397
Z46.574
G1 Z45.9 F1440.
G3 X-58.959 Y9.09 I0.596 J0.067
G1 X-58.954 Y9.097
X-58.946 Y9.106
X-58.916 Y9.143
X-58.836 Y9.236
X-58.749 Y9.335
X-58.687 Y9.404
X-58.536 Y9.571
X-58.414 Y9.706
X-58.383 Y9.738
X-58.247 Y9.878
X-58.079 Y10.048
X-58.055 Y10.073
X-57.912 Y10.215
X-57.887 Y10.24
X-57.745 Y10.375
X-57.41 Y10.685
X-57.348 Y10.742
X-57.243 Y10.837
X-57.158 Y10.909
X-56.741 Y11.263
X-56.573 Y11.403
X-56.564 Y11.411
X-56.406 Y11.54
X-56.071 Y11.802
X-55.928 Y11.913
X-55.708 Y12.081
X-55.569 Y12.185
X-55.402 Y12.308
X-55.253 Y12.415
X-54.9 Y12.666
X-54.782 Y12.75
X-54.733 Y12.784
X-54.565 Y12.897
X-54.147 Y13.176
X-54.105 Y13.204
X-54.084 Y13.218
X-54.071 Y13.226
X-53.913 Y13.328
X-53.896 Y13.339
X-53.769 Y13.419
X-53.561 Y13.55
X-53.503 Y13.586
X-53.487 Y13.596
G3 X-53.29 Y14.421 I-0.314 J0.511
G2 X-52.393 Y15.194 I0.511 J0.314
G1 X-52.288 Y15.106
S10000
X-52.287 Z45.892
Y15.107 Z45.884
Y15.109 Z45.876
X-52.286 Y15.111 Z45.868
X-52.285 Y15.114 Z45.861
X-52.284 Y15.117 Z45.853
X-52.283 Y15.121 Z45.846
X-52.282 Y15.125 Z45.84
X-52.28 Y15.13 Z45.833
X-52.279 Y15.136 Z45.828
X-52.277 Y15.141 Z45.822
X-52.275 Y15.148 Z45.817
X-52.274 Y15.154 Z45.813
X-52.272 Y15.161 Z45.809
X-52.27 Y15.169 Z45.806
X-52.269 Y15.176 Z45.804
X-52.267 Y15.184 Z45.802
X-52.266 Y15.192 Z45.801
X-52.264 Y15.2 Z45.8
G3 X-53.739 Y15.471 Z45.718 I-0.738 J0.136
X-53.666 Y14.988 Z45.7 I0.738 J-0.136
G1 X-53.656 Y14.969
S15000
X-53.507 Y14.703
G3 X-52.48 Y14.413 I0.659 J0.368
G1 X-52.474 Y14.416
X-52.462 Y14.423
X-52.39 Y14.462
X-52.223 Y14.551
X-51.721 Y14.807
X-51.679 Y14.828
X-51.667 Y14.834
X-51.495 Y14.918
X-51.481 Y14.925
X-51.386 Y14.97
X-51.219 Y15.046
X-51.114 Y15.092
X-50.717 Y15.262
X-50.549 Y15.332
X-50.382 Y15.4
X-50.317 Y15.426
X-50.215 Y15.467
X-50.047 Y15.529
X-49.88 Y15.586
X-49.713 Y15.643
X-49.545 Y15.699
X-49.211 Y15.807
X-49.043 Y15.86
X-48.876 Y15.911
X-48.817 Y15.928
X-48.709 Y15.96
X-48.541 Y16.007
X-48.374 Y16.05
X-48.191 Y16.096
X-48.039 Y16.133
X-47.872 Y16.172
X-47.705 Y16.211
X-47.537 Y16.248
X-47.466 Y16.263
X-47.37 Y16.282
X-47.203 Y16.315
X-47.035 Y16.347
X-46.701 Y16.408
X-46.572 Y16.43
X-46.533 Y16.437
X-46.366 Y16.464
X-46.199 Y16.491
X-46.031 Y16.514
X-45.864 Y16.537
X-45.697 Y16.559
X-45.529 Y16.579
X-45.362 Y16.599
X-45.195 Y16.619
X-44.86 Y16.654
X-44.693 Y16.67
X-44.525 Y16.685
X-44.358 Y16.699
X-44.191 Y16.711
X-44.023 Y16.723
X-43.856 Y16.734
X-43.689 Y16.742
X-43.521 Y16.751
X-43.354 Y16.759
X-43.019 Y16.772
X-42.852 Y16.776
X-42.685 Y16.78
X-42.517 Y16.784
X-42.35 Y16.786
X-42.183 Y16.787
X-42.015 Y16.788
X-41.346 Y16.78
X-41.179 Y16.777
X-41.011 Y16.772
X-40.799 Y16.765
X-40.677 Y16.76
X-40.342 Y16.744
X-40.175 Y16.734
X-40.007 Y16.724
X-39.84 Y16.714
X-39.673 Y16.701
X-39.505 Y16.688
X-39.338 Y16.675
X-39.171 Y16.659
X-39.003 Y16.644
X-38.836 Y16.628
X-38.669 Y16.61
X-38.558 Y16.597
X-38.501 Y16.591
X-38.334 Y16.57
X-38.167 Y16.549
X-37.999 Y16.527
X-37.665 Y16.479
X-37.497 Y16.454
X-37.163 Y16.4
X-36.995 Y16.372
X-36.828 Y16.343
X-36.661 Y16.312
X-36.493 Y16.279
X-36.326 Y16.245
X-36.159 Y16.21
X-35.991 Y16.173
X-35.824 Y16.135
X-35.657 Y16.098
X-35.648 Y16.096
X-35.489 Y16.057
X-35.322 Y16.016
X-35.155 Y15.972
X-34.82 Y15.88
X-34.653 Y15.832
X-34.485 Y15.783
X-34.413 Y15.761
X-34.318 Y15.732
X-34.151 Y15.677
X-33.983 Y15.619
X-33.816 Y15.562
X-33.649 Y15.502
X-33.314 Y15.379
X-33.147 Y15.316
X-32.998 Y15.259
X-32.979 Y15.252
X-32.812 Y15.185
X-32.645 Y15.113
X-32.31 Y14.961
X-32.229 Y14.925
X-32.143 Y14.884
X-31.808 Y14.725
X-31.641 Y14.644
X-31.537 Y14.59
X-31.473 Y14.555
X-31.227 Y14.423
X-31.139 Y14.375
X-30.971 Y14.281
X-30.804 Y14.187
X-30.637 Y14.093
X-30.628 Y14.088
X-30.469 Y13.992
X-30.081 Y13.753
X-29.967 Y13.681
X-29.8 Y13.575
X-29.633 Y13.466
X-29.561 Y13.419
X-29.465 Y13.356
X-29.313 Y13.252
X-28.963 Y13.012
X-28.827 Y12.917
X-28.796 Y12.895
X-28.366 Y12.582
X-28.294 Y12.53
X-28.141 Y12.415
X-28.127 Y12.404
X-27.959 Y12.278
X-27.704 Y12.081
X-27.625 Y12.018
X-27.283 Y11.746
X-27.123 Y11.617
X-27.077 Y11.579
X-26.955 Y11.476
X-26.453 Y11.05
X-26.296 Y10.909
X-25.784 Y10.44
X-25.749 Y10.408
X-25.617 Y10.282
X-25.575 Y10.24
X-25.115 Y9.78
X-25.074 Y9.738
X-24.947 Y9.601
X-24.613 Y9.233
X-24.469 Y9.069
X-24.445 Y9.04
X-24.331 Y8.902
X-24.111 Y8.631
X-24.059 Y8.567
X-23.943 Y8.411
X-23.691 Y8.065
X-23.609 Y7.95
X-23.574 Y7.898
X-23.47 Y7.731
X-23.262 Y7.399
G3 X-22.169 Y7.581 I0.509 J0.318
G0 Z62.
X-60.731 Y8.765
Z46.371
G1 Z45.7 F1440.
G3 X-59.649 Y8.523 I0.591 J0.103
G1 X-59.648 Y8.525
X-59.618 Y8.567
X-59.585 Y8.61
X-59.49 Y8.735
X-59.418 Y8.828
X-59.361 Y8.902
X-59.333 Y8.937
X-59.32 Y8.954
X-59.308 Y8.97
X-59.21 Y9.093
X-59.204 Y9.101
X-59.196 Y9.111
X-59.161 Y9.153
X-59.089 Y9.236
X-58.749 Y9.624
X-58.647 Y9.738
X-58.581 Y9.807
X-58.484 Y9.906
X-58.155 Y10.24
X-58.079 Y10.316
X-57.983 Y10.408
X-57.912 Y10.475
X-57.805 Y10.575
X-57.577 Y10.786
X-57.44 Y10.909
X-57.243 Y11.082
X-57.075 Y11.225
X-56.856 Y11.411
X-56.741 Y11.509
X-56.655 Y11.579
X-56.573 Y11.644
X-56.446 Y11.746
X-56.02 Y12.081
X-55.904 Y12.171
X-55.801 Y12.248
X-55.235 Y12.664
X-55.115 Y12.75
X-55.067 Y12.783
X-54.632 Y13.084
X-54.565 Y13.13
X-54.383 Y13.252
X-54.231 Y13.353
X-54.13 Y13.419
X-54.063 Y13.462
X-53.896 Y13.569
X-53.561 Y13.78
X-53.394 Y13.885
X-53.334 Y13.921
X-52.892 Y14.179
X-52.826 Y14.218
X-52.793 Y14.237
X-52.789 Y14.239
G3 X-52.601 Y15.117 I-0.295 J0.522
X-53.496 Y15.198 I-0.483 J-0.356
G1 X-60.452 Y8.642
S10000
Y8.643 Z45.692
Z45.684
Y8.645 Z45.676
X-60.453 Y8.647 Z45.668
X-60.454 Y8.65 Z45.661
Y8.654 Z45.653
X-60.455 Y8.657 Z45.646
X-60.456 Y8.662 Z45.64
X-60.457 Y8.667 Z45.633
X-60.459 Y8.672 Z45.628
X-60.46 Y8.678 Z45.622
X-60.462 Y8.685 Z45.617
X-60.464 Y8.691 Z45.613
X-60.466 Y8.698 Z45.609
X-60.468 Y8.705 Z45.606
X-60.47 Y8.713 Z45.604
X-60.472 Y8.72 Z45.602
X-60.475 Y8.728 Z45.601
X-60.477 Y8.735 Z45.6
G3 X-61.896 Y8.249 Z45.518 I-0.709 J-0.243
X-61.595 Y7.863 Z45.5 I0.709 J0.243
G1 X-61.578 Y7.852
S15000
X-61.318 Y7.693
G3 X-60.28 Y7.944 I0.394 J0.644
G1 X-60.275 Y7.952
X-60.268 Y7.962
X-60.255 Y7.984
X-60.201 Y8.065
X-59.98 Y8.4
X-59.92 Y8.49
X-59.866 Y8.567
X-59.753 Y8.715
X-59.48 Y9.069
X-59.418 Y9.148
X-59.344 Y9.236
X-59.2 Y9.404
X-59.083 Y9.538
X-59.054 Y9.571
X-58.916 Y9.728
X-58.906 Y9.738
X-58.749 Y9.904
X-58.581 Y10.079
X-58.426 Y10.24
X-58.414 Y10.253
X-58.255 Y10.408
X-57.903 Y10.742
X-57.745 Y10.89
X-57.723 Y10.909
X-57.577 Y11.037
X-57.075 Y11.475
X-56.951 Y11.579
X-56.406 Y12.02
X-56.33 Y12.081
X-56.239 Y12.152
X-56.113 Y12.248
X-55.737 Y12.533
X-55.67 Y12.582
X-55.442 Y12.75
X-55.402 Y12.779
X-55.209 Y12.917
X-55.067 Y13.018
X-54.972 Y13.084
X-54.73 Y13.252
X-54.565 Y13.366
X-54.486 Y13.419
X-54.398 Y13.477
X-53.896 Y13.804
X-53.729 Y13.91
X-53.711 Y13.921
X-53.561 Y14.012
X-53.394 Y14.114
X-53.227 Y14.214
X-52.892 Y14.41
X-52.87 Y14.423
X-52.725 Y14.505
X-52.566 Y14.59
X-52.223 Y14.773
X-52.055 Y14.86
X-51.929 Y14.925
X-51.888 Y14.945
X-51.721 Y15.026
X-51.58 Y15.092
X-51.553 Y15.104
X-51.207 Y15.259
X-51.051 Y15.329
X-50.884 Y15.4
X-50.823 Y15.426
X-50.717 Y15.471
X-50.549 Y15.538
X-50.395 Y15.594
X-50.047 Y15.719
X-49.925 Y15.761
X-49.545 Y15.89
X-49.429 Y15.928
X-49.378 Y15.945
X-49.211 Y15.996
X-49.043 Y16.045
X-48.876 Y16.091
X-48.541 Y16.181
X-48.374 Y16.224
X-48.213 Y16.263
X-48.207 Y16.265
X-48.039 Y16.304
X-47.872 Y16.34
X-47.705 Y16.376
X-47.537 Y16.411
X-47.443 Y16.43
X-47.37 Y16.445
X-47.203 Y16.478
X-47.035 Y16.509
X-46.868 Y16.537
X-46.701 Y16.565
X-46.533 Y16.592
X-46.199 Y16.642
X-46.031 Y16.666
X-45.864 Y16.688
X-45.697 Y16.711
X-45.529 Y16.73
X-45.362 Y16.749
X-45.216 Y16.765
X-45.195 Y16.767
X-45.027 Y16.783
X-44.86 Y16.799
X-44.693 Y16.814
X-44.358 Y16.841
X-44.191 Y16.853
X-43.856 Y16.875
X-43.689 Y16.884
X-43.521 Y16.892
X-43.354 Y16.9
X-43.187 Y16.907
X-43.019 Y16.913
X-42.852 Y16.917
X-42.685 Y16.921
X-42.517 Y16.925
X-42.35 Y16.926
X-42.183 Y16.927
X-42.015 Y16.928
X-41.346 Y16.919
X-41.179 Y16.917
X-41.011 Y16.912
X-40.844 Y16.906
X-40.677 Y16.9
X-40.509 Y16.892
X-40.342 Y16.885
X-40.175 Y16.875
X-40.007 Y16.865
X-39.84 Y16.855
X-39.673 Y16.842
X-39.505 Y16.83
X-39.338 Y16.816
X-39.003 Y16.786
X-38.836 Y16.769
X-38.669 Y16.751
X-38.501 Y16.734
X-38.334 Y16.714
X-38.167 Y16.694
X-37.999 Y16.673
X-37.665 Y16.629
X-37.497 Y16.605
X-37.45 Y16.597
X-37.33 Y16.579
X-37.163 Y16.553
X-36.995 Y16.524
X-36.828 Y16.495
X-36.661 Y16.465
X-36.326 Y16.402
X-36.159 Y16.369
X-35.991 Y16.335
X-35.824 Y16.299
X-35.664 Y16.263
X-35.322 Y16.181
X-35.155 Y16.139
X-34.984 Y16.096
X-34.82 Y16.054
X-34.653 Y16.007
X-34.485 Y15.958
X-34.383 Y15.928
X-34.318 Y15.909
X-34.151 Y15.857
X-33.983 Y15.805
X-33.842 Y15.761
X-33.816 Y15.753
X-33.649 Y15.695
X-33.481 Y15.634
X-33.371 Y15.594
X-33.314 Y15.573
X-33.147 Y15.508
X-32.934 Y15.426
X-32.812 Y15.379
X-32.645 Y15.312
X-32.514 Y15.259
X-32.477 Y15.244
X-32.31 Y15.174
X-32.143 Y15.097
X-31.808 Y14.938
X-31.78 Y14.925
X-31.641 Y14.855
X-31.306 Y14.689
X-31.139 Y14.602
X-31.117 Y14.59
X-30.971 Y14.508
X-30.804 Y14.414
X-30.637 Y14.319
X-30.302 Y14.123
X-30.242 Y14.088
X-30.135 Y14.023
X-29.967 Y13.916
X-29.633 Y13.702
X-29.465 Y13.593
X-29.456 Y13.586
X-29.298 Y13.481
X-29.207 Y13.419
X-29.131 Y13.367
X-28.964 Y13.252
X-28.629 Y13.014
X-28.492 Y12.917
X-28.461 Y12.895
X-28.294 Y12.77
X-27.959 Y12.519
X-27.821 Y12.415
X-27.792 Y12.393
X-27.625 Y12.262
X-27.29 Y11.995
X-27.187 Y11.913
X-27.123 Y11.861
X-26.955 Y11.723
X-26.788 Y11.583
X-26.586 Y11.411
X-26.453 Y11.297
X-26.202 Y11.077
X-26.119 Y11.004
X-26.015 Y10.909
X-25.951 Y10.851
X-25.834 Y10.742
X-25.449 Y10.379
X-25.306 Y10.24
X-25.282 Y10.217
X-25.14 Y10.073
X-24.947 Y9.875
X-24.815 Y9.738
X-24.78 Y9.701
X-24.661 Y9.571
X-24.613 Y9.517
X-24.509 Y9.404
X-24.445 Y9.332
X-24.361 Y9.236
X-24.278 Y9.142
X-24.218 Y9.069
X-23.943 Y8.731
X-23.81 Y8.567
X-23.776 Y8.522
X-23.689 Y8.4
X-23.441 Y8.052
X-23.335 Y7.898
X-23.274 Y7.8
X-23.107 Y7.532
X-23.022 Y7.396
X-22.979 Y7.323
X-22.959 Y7.286
X-22.949 Y7.268
X-22.946 Y7.263
G3 X-21.843 Y7.37 I0.529 J0.282
G0 Z62.
X-21.779 Y7.674
Z45.973
G1 Z45.3 F1440.
G3 X-22.494 Y6.826 I-0.182 J-0.572
G1 X-22.485 Y6.811
X-22.443 Y6.727
X-22.437 Y6.715
X-22.402 Y6.637
X-22.399 Y6.63
G3 X-21.29 Y6.648 I0.551 J0.238
G0 Z62.
X-61.953 Y7.426
Z45.966
G1 Z45.3 F1440.
G3 X-60.848 Y7.34 I0.57 J0.186
G1 X-60.846 Y7.344
X-60.841 Y7.354
X-60.819 Y7.396
X-60.757 Y7.508
X-60.589 Y7.809
X-60.539 Y7.898
X-60.435 Y8.065
X-60.213 Y8.4
X-60.101 Y8.567
X-60.087 Y8.586
X-59.976 Y8.735
X-59.85 Y8.902
X-59.753 Y9.031
X-59.724 Y9.069
X-59.588 Y9.236
X-59.251 Y9.63
X-59.157 Y9.738
X-59.083 Y9.818
X-59.001 Y9.906
X-58.916 Y9.995
X-58.681 Y10.24
X-58.581 Y10.342
X-58.343 Y10.575
X-58.247 Y10.668
X-58.169 Y10.742
X-58.079 Y10.827
X-57.99 Y10.909
X-57.617 Y11.244
X-57.577 Y11.28
X-57.427 Y11.411
X-57.41 Y11.426
X-57.243 Y11.57
X-56.908 Y11.848
X-56.829 Y11.913
X-56.573 Y12.12
X-56.411 Y12.248
X-56.239 Y12.383
X-56.197 Y12.415
X-56.071 Y12.51
X-55.737 Y12.764
X-55.569 Y12.888
X-55.528 Y12.917
X-55.061 Y13.252
X-54.9 Y13.365
X-54.821 Y13.419
X-54.398 Y13.704
X-54.324 Y13.753
X-54.231 Y13.814
X-54.067 Y13.921
X-54.063 Y13.923
X-53.896 Y14.029
X-53.802 Y14.088
X-53.729 Y14.134
X-53.561 Y14.236
X-53.254 Y14.423
X-53.227 Y14.439
X-53.059 Y14.534
X-52.657 Y14.757
X-52.557 Y14.812
X-52.346 Y14.925
X-52.223 Y14.989
X-52.055 Y15.071
X-52.012 Y15.092
X-51.553 Y15.307
X-51.386 Y15.383
X-51.29 Y15.426
X-51.219 Y15.458
X-51.051 Y15.529
X-50.886 Y15.594
X-50.549 Y15.721
X-50.444 Y15.761
X-50.382 Y15.783
X-49.979 Y15.928
X-49.88 Y15.963
X-49.713 Y16.017
X-49.545 Y16.068
X-49.454 Y16.096
X-49.378 Y16.118
X-49.043 Y16.214
X-48.876 Y16.26
X-48.866 Y16.263
X-48.709 Y16.303
X-48.541 Y16.344
X-48.374 Y16.384
X-48.039 Y16.461
X-47.872 Y16.498
X-47.705 Y16.532
X-47.537 Y16.565
X-47.37 Y16.596
X-47.035 Y16.656
X-46.868 Y16.684
X-46.701 Y16.712
X-46.533 Y16.739
X-46.366 Y16.762
X-46.349 Y16.765
X-46.199 Y16.785
X-46.031 Y16.808
X-45.697 Y16.848
X-45.529 Y16.868
X-45.195 Y16.904
X-45.027 Y16.92
X-44.9 Y16.932
X-44.86 Y16.936
X-44.693 Y16.951
X-44.525 Y16.963
X-44.358 Y16.976
X-44.191 Y16.987
X-43.856 Y17.007
X-43.689 Y17.015
X-43.521 Y17.023
X-43.354 Y17.03
X-43.019 Y17.041
X-42.852 Y17.046
X-42.517 Y17.052
X-42.35 Y17.054
X-42.183 Y17.055
X-42.015 Y17.056
X-41.346 Y17.047
X-41.179 Y17.045
X-41.011 Y17.04
X-40.844 Y17.034
X-40.677 Y17.028
X-40.342 Y17.013
X-40.175 Y17.004
X-40.007 Y16.994
X-39.84 Y16.984
X-39.505 Y16.96
X-39.338 Y16.947
X-39.003 Y16.919
X-38.836 Y16.903
X-38.669 Y16.886
X-38.501 Y16.87
X-38.334 Y16.851
X-38.167 Y16.832
X-37.999 Y16.811
X-37.832 Y16.789
X-37.654 Y16.765
X-37.497 Y16.742
X-37.33 Y16.717
X-37.163 Y16.692
X-36.828 Y16.638
X-36.661 Y16.611
X-36.587 Y16.597
X-36.493 Y16.581
X-36.326 Y16.55
X-36.159 Y16.517
X-35.824 Y16.448
X-35.74 Y16.43
X-35.489 Y16.375
X-35.322 Y16.338
X-35.155 Y16.298
X-35.014 Y16.263
X-34.987 Y16.256
X-34.82 Y16.213
X-34.388 Y16.096
X-34.318 Y16.076
X-34.151 Y16.027
X-33.983 Y15.976
X-33.832 Y15.928
X-33.481 Y15.813
X-33.327 Y15.761
X-33.314 Y15.756
X-33.147 Y15.696
X-32.979 Y15.632
X-32.879 Y15.594
X-32.812 Y15.567
X-32.465 Y15.426
X-32.31 Y15.362
X-32.066 Y15.259
X-31.975 Y15.22
X-31.808 Y15.145
X-31.7 Y15.092
X-31.363 Y14.925
X-31.306 Y14.896
X-30.971 Y14.722
X-30.804 Y14.635
X-30.723 Y14.59
X-30.637 Y14.54
X-30.302 Y14.344
X-30.154 Y14.255
X-29.878 Y14.088
X-29.8 Y14.039
X-29.633 Y13.931
X-29.298 Y13.71
X-29.131 Y13.599
X-29.112 Y13.586
X-28.963 Y13.484
X-28.871 Y13.419
X-28.629 Y13.247
X-28.461 Y13.126
X-28.176 Y12.917
X-28.127 Y12.88
X-27.953 Y12.75
X-27.792 Y12.626
X-27.457 Y12.366
X-27.307 Y12.248
X-27.29 Y12.234
X-27.103 Y12.081
X-26.788 Y11.822
X-26.695 Y11.746
X-26.621 Y11.683
X-26.5 Y11.579
X-26.117 Y11.244
X-25.951 Y11.097
X-25.929 Y11.077
X-25.784 Y10.944
X-25.392 Y10.575
X-25.282 Y10.469
X-25.218 Y10.408
X-25.115 Y10.307
X-25.049 Y10.24
X-24.723 Y9.906
X-24.613 Y9.791
X-24.563 Y9.738
X-24.445 Y9.606
X-24.111 Y9.229
X-23.974 Y9.069
X-23.943 Y9.031
X-23.841 Y8.902
X-23.609 Y8.609
X-23.576 Y8.567
X-23.454 Y8.4
X-23.274 Y8.147
X-23.216 Y8.065
X-23.107 Y7.903
X-23.103 Y7.898
X-23.001 Y7.731
X-22.797 Y7.396
X-22.772 Y7.354
X-22.736 Y7.291
X-22.719 Y7.26
G3 X-21.906 Y7.018 I0.528 J0.286
G2 X-21.029 Y6.389 I0.286 J-0.528
G1 X-21.192 Y5.441
S10000
Z45.292
X-21.191 Z45.284
X-21.189 Y5.44 Z45.276
X-21.187 Y5.439 Z45.268
X-21.185 Y5.437 Z45.261
X-21.182 Y5.436 Z45.253
X-21.178 Y5.434 Z45.246
X-21.174 Y5.432 Z45.24
X-21.169 Y5.429 Z45.233
X-21.164 Y5.427 Z45.228
X-21.159 Y5.424 Z45.222
X-21.153 Y5.422 Z45.217
X-21.147 Y5.419 Z45.213
X-21.14 Y5.416 Z45.209
X-21.133 Y5.413 Z45.206
X-21.126 Y5.41 Z45.204
X-21.119 Y5.407 Z45.202
X-21.112 Y5.404 Z45.201
X-21.104 Y5.401 Z45.2
G3 X-20.567 Y6.801 Z45.118 I0.269 J0.7
X-21.055 Y6.818 Z45.1 I-0.269 J-0.7
G1 X-21.075 Y6.812
S15000
X-21.364 Y6.714
G3 X-21.838 Y5.757 I0.241 J-0.715
G1 X-21.827 Y5.723
X-21.768 Y5.549
X-21.755 Y5.509
X-21.748 Y5.489
X-21.745 Y5.479
X-21.744 Y5.476
G3 X-20.64 Y5.375 I0.573 J0.178
G0 Z62.
X-62.474 Y6.672
Z45.772
G1 Z45.1 F1440.
G3 X-61.366 Y6.693 I0.55 J0.24
G1 X-61.365 Y6.696
X-61.361 Y6.706
X-61.352 Y6.727
X-61.278 Y6.894
X-61.201 Y7.062
X-61.163 Y7.145
X-61.153 Y7.166
X-61.143 Y7.187
X-61.124 Y7.229
X-61.091 Y7.298
X-61.079 Y7.323
X-61.073 Y7.335
X-61.069 Y7.344
X-61.067 Y7.347
X-61.042 Y7.396
X-60.949 Y7.564
X-60.856 Y7.731
X-60.763 Y7.898
X-60.757 Y7.909
X-60.66 Y8.065
X-60.422 Y8.434
X-60.334 Y8.567
X-60.255 Y8.675
X-59.958 Y9.069
X-59.92 Y9.119
X-59.825 Y9.236
X-59.685 Y9.404
X-59.585 Y9.523
X-59.545 Y9.571
X-59.418 Y9.719
X-59.401 Y9.738
X-59.251 Y9.9
X-58.916 Y10.259
X-58.769 Y10.408
X-58.414 Y10.754
X-58.252 Y10.909
X-58.247 Y10.915
X-58.079 Y11.068
X-58.07 Y11.077
X-57.697 Y11.411
X-57.577 Y11.518
X-57.507 Y11.579
X-57.41 Y11.662
X-57.309 Y11.746
X-56.907 Y12.081
X-56.741 Y12.217
X-56.702 Y12.248
X-56.239 Y12.61
X-56.071 Y12.741
X-56.059 Y12.75
X-55.904 Y12.865
X-55.569 Y13.112
X-55.402 Y13.235
X-55.235 Y13.355
X-55.143 Y13.419
X-54.9 Y13.589
X-54.733 Y13.703
X-54.565 Y13.816
X-54.41 Y13.921
X-54.398 Y13.929
X-54.231 Y14.038
X-54.152 Y14.088
X-53.729 Y14.355
X-53.621 Y14.423
X-53.561 Y14.459
X-53.394 Y14.556
X-53.227 Y14.652
X-53.059 Y14.749
X-53.044 Y14.757
X-52.892 Y14.842
X-52.725 Y14.935
X-52.557 Y15.024
X-52.422 Y15.092
X-52.055 Y15.271
X-51.888 Y15.352
X-51.721 Y15.431
X-51.553 Y15.507
X-51.386 Y15.578
X-51.347 Y15.594
X-50.926 Y15.761
X-50.884 Y15.778
X-50.717 Y15.841
X-50.486 Y15.928
X-50.382 Y15.967
X-50.215 Y16.025
X-50.047 Y16.079
X-49.88 Y16.133
X-49.713 Y16.184
X-49.545 Y16.235
X-49.452 Y16.263
X-49.378 Y16.284
X-49.211 Y16.329
X-48.876 Y16.417
X-48.825 Y16.43
X-48.709 Y16.459
X-48.541 Y16.5
X-48.374 Y16.539
X-48.207 Y16.575
X-48.039 Y16.61
X-47.872 Y16.645
X-47.537 Y16.71
X-47.37 Y16.742
X-47.236 Y16.765
X-47.203 Y16.77
X-47.035 Y16.798
X-46.868 Y16.824
X-46.533 Y16.874
X-46.366 Y16.898
X-46.115 Y16.932
X-46.031 Y16.943
X-45.864 Y16.964
X-45.697 Y16.983
X-45.529 Y17.001
X-45.195 Y17.034
X-45.027 Y17.049
X-44.693 Y17.077
X-44.525 Y17.09
X-44.358 Y17.102
X-44.191 Y17.113
X-43.856 Y17.133
X-43.689 Y17.141
X-43.521 Y17.149
X-43.354 Y17.156
X-43.187 Y17.162
X-43.019 Y17.167
X-42.852 Y17.171
X-42.685 Y17.174
X-42.517 Y17.177
X-42.35 Y17.178
X-42.183 Y17.179
X-42.015
X-41.346 Y17.171
X-41.179 Y17.168
X-41.011 Y17.163
X-40.844 Y17.158
X-40.677 Y17.152
X-40.342 Y17.138
X-40.175 Y17.129
X-40.007 Y17.12
X-39.84 Y17.11
X-39.673 Y17.098
X-39.505 Y17.087
X-39.338 Y17.074
X-39.171 Y17.06
X-39.003 Y17.046
X-38.836 Y17.029
X-38.669 Y17.013
X-38.501 Y16.996
X-38.167 Y16.959
X-37.999 Y16.939
X-37.832 Y16.918
X-37.665 Y16.898
X-37.497 Y16.875
X-37.33 Y16.852
X-37.163 Y16.828
X-36.995 Y16.802
X-36.828 Y16.775
X-36.766 Y16.765
X-36.661 Y16.746
X-36.326 Y16.688
X-36.159 Y16.656
X-35.991 Y16.625
X-35.849 Y16.597
X-35.824 Y16.593
X-35.657 Y16.558
X-35.489 Y16.522
X-35.322 Y16.484
X-34.987 Y16.405
X-34.82 Y16.364
X-34.653 Y16.322
X-34.485 Y16.28
X-34.423 Y16.263
X-34.318 Y16.233
X-33.983 Y16.137
X-33.847 Y16.096
X-33.816 Y16.086
X-33.649 Y16.035
X-33.481 Y15.982
X-33.323 Y15.928
X-32.979 Y15.809
X-32.846 Y15.761
X-32.812 Y15.748
X-32.645 Y15.685
X-32.477 Y15.618
X-32.419 Y15.594
X-31.975 Y15.406
X-31.808 Y15.332
X-31.641 Y15.258
X-31.473 Y15.183
X-31.306 Y15.101
X-31.289 Y15.092
X-30.966 Y14.925
X-30.804 Y14.839
X-30.469 Y14.658
X-30.346 Y14.59
X-30.302 Y14.564
X-30.135 Y14.462
X-29.967 Y14.36
X-29.8 Y14.259
X-29.795 Y14.255
X-29.633 Y14.153
X-29.529 Y14.088
X-29.465 Y14.048
X-29.298 Y13.937
X-29.273 Y13.921
X-29.131 Y13.824
X-28.784 Y13.586
X-28.629 Y13.479
X-28.547 Y13.419
X-28.09 Y13.084
X-27.959 Y12.986
X-27.868 Y12.917
X-27.792 Y12.858
X-27.457 Y12.599
X-27.436 Y12.582
X-27.29 Y12.465
X-27.123 Y12.332
X-27.019 Y12.248
X-26.955 Y12.195
X-26.816 Y12.081
X-26.788 Y12.057
X-26.617 Y11.913
X-26.42 Y11.746
X-26.286 Y11.632
X-26.225 Y11.579
X-26.119 Y11.485
X-25.617 Y11.033
X-25.483 Y10.909
X-25.449 Y10.876
X-24.947 Y10.39
X-24.796 Y10.24
X-24.78 Y10.223
X-24.445 Y9.87
X-24.32 Y9.738
X-24.278 Y9.692
X-24.171 Y9.571
X-24.111 Y9.503
X-24.024 Y9.404
X-23.88 Y9.236
X-23.776 Y9.114
X-23.74 Y9.069
X-23.441 Y8.693
X-23.343 Y8.567
X-23.274 Y8.471
X-22.992 Y8.065
X-22.939 Y7.99
X-22.879 Y7.898
X-22.776 Y7.731
X-22.674 Y7.564
X-22.605 Y7.448
X-22.574 Y7.396
X-22.481 Y7.229
X-22.27 Y6.813
X-22.227 Y6.727
X-22.188 Y6.643
X-22.183 Y6.633
X-22.18 Y6.625
G3 X-21.391 Y6.312 I0.551 J0.238
G2 X-20.554 Y5.736 I0.238 J-0.551
G1 X-20.639 Y3.769
S10000
Z45.092
X-20.638 Y3.768 Z45.084
X-20.636 Y3.767 Z45.076
X-20.635 Y3.766 Z45.068
X-20.632 Y3.764 Z45.061
X-20.63 Y3.762 Z45.053
X-20.626 Y3.759 Z45.046
X-20.623 Y3.757 Z45.04
X-20.618 Y3.754 Z45.033
X-20.614 Y3.75 Z45.028
X-20.609 Y3.747 Z45.022
X-20.604 Y3.743 Z45.017
X-20.598 Y3.739 Z45.013
X-20.592 Y3.735 Z45.009
X-20.586 Y3.731 Z45.006
X-20.579 Y3.727 Z45.004
X-20.573 Y3.723 Z45.002
X-20.566 Y3.719 Z45.001
X-20.559 Y3.715 Z45.
G3 X-19.802 Y5.01 Z44.918 I0.378 J0.648
X-20.282 Y5.106 Z44.9 I-0.378 J-0.648
G1 X-20.303 Y5.103
S15000
X-20.604 Y5.053
G3 X-21.226 Y4.185 I0.123 J-0.745
G1 X-21.217 Y4.134
X-21.176 Y3.883
X-21.148 Y3.716
X-21.126 Y3.548
X-21.075 Y3.172
X-21.072 Y3.151
Y3.145
G3 X-20.002 Y2.852 I0.595 J0.075
G0 Z62.
X-62.691 Y6.684
Z45.561
G1 Z44.9 F1440.
G3 X-61.582 Y6.698 I0.551 J0.237
G1 X-61.57 Y6.727
X-61.496 Y6.894
X-61.343 Y7.229
X-61.263 Y7.396
X-61.259 Y7.404
X-61.172 Y7.564
X-61.081 Y7.731
X-60.99 Y7.898
X-60.924 Y8.011
X-60.889 Y8.065
X-60.672 Y8.4
X-60.589 Y8.528
X-60.563 Y8.567
X-60.441 Y8.735
X-60.195 Y9.069
X-60.087 Y9.209
X-60.064 Y9.236
X-59.753 Y9.609
X-59.644 Y9.738
X-59.585 Y9.804
X-59.492 Y9.906
X-59.418 Y9.987
X-59.339 Y10.073
X-59.182 Y10.24
X-59.083 Y10.344
X-59.02 Y10.408
X-58.686 Y10.742
X-58.581 Y10.845
X-58.513 Y10.909
X-57.968 Y11.411
X-57.912 Y11.462
X-57.78 Y11.579
X-57.389 Y11.913
X-57.243 Y12.038
X-57.192 Y12.081
X-57.075 Y12.177
X-56.988 Y12.248
X-56.741 Y12.446
X-56.573 Y12.581
X-56.571 Y12.582
X-56.406 Y12.712
X-56.357 Y12.75
X-56.239 Y12.841
X-56.071 Y12.968
X-55.918 Y13.084
X-55.904 Y13.095
X-55.569 Y13.342
X-55.464 Y13.419
X-55.402 Y13.463
X-55.235 Y13.582
X-54.9 Y13.816
X-54.749 Y13.921
X-54.733 Y13.932
X-54.565 Y14.043
X-54.231 Y14.261
X-54.063 Y14.37
X-53.979 Y14.423
X-53.896 Y14.475
X-53.729 Y14.575
X-53.561 Y14.675
X-53.421 Y14.757
X-53.13 Y14.925
X-53.059 Y14.965
X-52.892 Y15.056
X-52.493 Y15.259
X-52.39 Y15.312
X-52.223 Y15.394
X-52.156 Y15.426
X-52.055 Y15.475
X-51.888 Y15.553
X-51.792 Y15.594
X-51.386 Y15.762
X-51.219 Y15.83
X-50.971 Y15.928
X-50.884 Y15.963
X-50.717 Y16.026
X-50.549 Y16.083
X-50.382 Y16.139
X-50.215 Y16.195
X-50.047 Y16.249
X-50.002 Y16.263
X-49.88 Y16.3
X-49.713 Y16.349
X-49.378 Y16.442
X-49.211 Y16.488
X-49.043 Y16.531
X-48.876 Y16.572
X-48.768 Y16.597
X-48.709 Y16.611
X-48.374 Y16.686
X-48.207 Y16.722
X-48.039 Y16.757
X-48.001 Y16.765
X-47.872 Y16.79
X-47.705 Y16.821
X-47.37 Y16.88
X-47.203 Y16.908
X-47.035 Y16.935
X-46.868 Y16.962
X-46.701 Y16.986
X-46.533 Y17.01
X-46.366 Y17.032
X-46.031 Y17.073
X-45.864 Y17.092
X-45.697 Y17.111
X-45.529 Y17.129
X-45.362 Y17.145
X-45.195 Y17.162
X-45.027 Y17.177
X-44.86 Y17.191
X-44.693 Y17.204
X-44.525 Y17.215
X-44.358 Y17.226
X-44.191 Y17.237
X-43.856 Y17.255
X-43.689 Y17.263
X-43.354 Y17.276
X-43.187 Y17.281
X-43.019 Y17.286
X-42.852 Y17.29
X-42.517 Y17.296
X-42.35 Y17.298
X-42.183
X-42.015 Y17.299
X-41.848 Y17.297
X-41.346 Y17.29
X-41.179 Y17.288
X-41.011 Y17.283
X-40.844 Y17.278
X-40.677 Y17.272
X-40.342 Y17.257
X-40.175 Y17.248
X-40.007 Y17.239
X-39.84 Y17.229
X-39.505 Y17.207
X-39.338 Y17.194
X-39.171 Y17.181
X-39.003 Y17.168
X-38.669 Y17.137
X-38.501 Y17.121
X-38.334 Y17.104
X-38.288 Y17.099
X-38.167 Y17.087
X-37.999 Y17.067
X-37.832 Y17.047
X-37.665 Y17.026
X-37.33 Y16.98
X-37.163 Y16.956
X-36.828 Y16.906
X-36.661 Y16.88
X-36.493 Y16.852
X-36.326 Y16.825
X-36.159 Y16.794
X-36.002 Y16.765
X-35.991 Y16.763
X-35.824 Y16.73
X-35.489 Y16.662
X-35.322 Y16.626
X-35.155 Y16.59
X-34.987 Y16.553
X-34.82 Y16.513
X-34.653 Y16.471
X-34.491 Y16.43
X-34.485 Y16.429
X-34.151 Y16.34
X-33.983 Y16.295
X-33.874 Y16.263
X-33.816 Y16.246
X-33.649 Y16.195
X-33.481 Y16.143
X-33.147 Y16.036
X-32.979 Y15.98
X-32.837 Y15.928
X-32.645 Y15.858
X-32.477 Y15.797
X-32.384 Y15.761
X-32.31 Y15.732
X-32.143 Y15.665
X-31.975 Y15.594
X-31.597 Y15.426
X-31.473 Y15.371
X-31.231 Y15.259
X-31.139 Y15.216
X-30.971 Y15.135
X-30.889 Y15.092
X-30.469 Y14.865
X-30.302 Y14.772
X-30.135 Y14.678
X-29.979 Y14.59
X-29.967 Y14.583
X-29.8 Y14.48
X-29.444 Y14.255
X-29.298 Y14.162
X-29.184 Y14.088
X-29.131 Y14.053
X-28.963 Y13.939
X-28.796 Y13.824
X-28.695 Y13.753
X-28.46 Y13.586
X-28.294 Y13.468
X-28.227 Y13.419
X-28.127 Y13.345
X-27.625 Y12.965
X-27.562 Y12.917
X-27.457 Y12.834
X-27.123 Y12.566
X-26.955 Y12.432
X-26.934 Y12.415
X-26.788 Y12.295
X-26.732 Y12.248
X-26.336 Y11.913
X-26.286 Y11.87
X-26.119 Y11.725
X-25.953 Y11.579
X-25.767 Y11.411
X-25.617 Y11.275
X-25.402 Y11.077
X-25.282 Y10.965
X-25.225 Y10.909
X-25.052 Y10.742
X-24.947 Y10.64
X-24.882 Y10.575
X-24.713 Y10.408
X-24.613 Y10.307
X-24.548 Y10.24
X-24.389 Y10.073
X-24.278 Y9.956
X-24.231 Y9.906
X-24.111 Y9.775
X-24.077 Y9.738
X-23.943 Y9.586
X-23.609 Y9.199
X-23.502 Y9.069
X-23.243 Y8.735
X-23.114 Y8.567
X-23.107 Y8.558
X-22.995 Y8.4
X-22.878 Y8.233
X-22.772 Y8.078
X-22.763 Y8.065
X-22.652 Y7.898
X-22.605 Y7.819
X-22.353 Y7.396
X-22.27 Y7.247
X-22.261 Y7.229
X-22.09 Y6.894
X-22.006 Y6.727
X-21.935 Y6.564
X-21.768 Y6.16
X-21.728 Y6.058
X-21.67 Y5.891
X-21.558 Y5.556
X-21.53 Y5.472
G3 X-20.425 Y5.388 I0.57 J0.187
G0 Z62.
X-63.2 Y4.823
Z45.562
G1 Z44.9 F1440.
G3 X-62.105 Y5. I0.511 J0.315
G1 Y5.002
X-62.095 Y5.04
X-62.01 Y5.389
X-61.968 Y5.556
X-61.928 Y5.692
X-61.868 Y5.891
X-61.843 Y5.974
X-61.83 Y6.016
X-61.82 Y6.051
G3 X-62.968 Y6.399 I-0.574 J0.174
X-62.875 Y5.867 I0.574 J-0.174
G1 X-62.686 Y5.614
S10000
X-62.687 Y5.615 Z44.892
Z44.884
X-62.688 Y5.617 Z44.876
X-62.689 Y5.619 Z44.868
X-62.69 Y5.621 Z44.861
X-62.692 Y5.624 Z44.853
X-62.694 Y5.628 Z44.846
X-62.697 Y5.632 Z44.84
X-62.699 Y5.636 Z44.833
X-62.702 Y5.641 Z44.828
X-62.705 Y5.646 Z44.822
X-62.709 Y5.652 Z44.817
X-62.713 Y5.657 Z44.813
X-62.717 Y5.663 Z44.809
X-62.721 Y5.669 Z44.806
X-62.725 Y5.676 Z44.804
X-62.73 Y5.682 Z44.802
X-62.734 Y5.689 Z44.801
X-62.739 Y5.695 Z44.8
G3 X-63.939 Y4.794 Z44.718 I-0.6 J-0.45
X-63.534 Y4.52 Z44.7 I0.6 J0.45
G1 X-63.513 Y4.515
S15000
X-63.217 Y4.444
G3 X-62.307 Y5.003 I0.175 J0.734
G1 X-62.305 Y5.012
X-62.294 Y5.054
X-62.213 Y5.389
X-62.171 Y5.556
X-62.121 Y5.723
X-62.02 Y6.058
X-61.965 Y6.225
X-61.841 Y6.56
X-61.778 Y6.727
X-61.761 Y6.771
X-61.706 Y6.894
X-61.631 Y7.062
X-61.593 Y7.145
X-61.555 Y7.229
X-61.475 Y7.396
X-61.426 Y7.487
X-61.202 Y7.898
X-61.103 Y8.065
X-60.891 Y8.4
X-60.784 Y8.567
X-60.757 Y8.607
X-60.663 Y8.735
X-60.417 Y9.069
X-60.289 Y9.236
X-60.015 Y9.571
X-59.92 Y9.686
X-59.875 Y9.738
X-59.753 Y9.875
X-59.418 Y10.242
X-59.261 Y10.408
X-59.251 Y10.418
X-59.095 Y10.575
X-58.916 Y10.754
X-58.759 Y10.909
X-58.581 Y11.077
X-58.414 Y11.233
X-58.221 Y11.411
X-58.079 Y11.541
X-58.037 Y11.579
X-57.847 Y11.746
X-57.745 Y11.835
X-57.41 Y12.121
X-57.259 Y12.248
X-57.243 Y12.261
X-57.075 Y12.399
X-57.055 Y12.415
X-56.639 Y12.75
X-56.573 Y12.803
X-56.427 Y12.917
X-56.406 Y12.933
X-55.904 Y13.315
X-55.765 Y13.419
X-55.737 Y13.44
X-55.235 Y13.801
X-55.067 Y13.919
X-55.065 Y13.921
X-54.9 Y14.033
X-54.733 Y14.145
X-54.57 Y14.255
X-54.565 Y14.258
X-54.398 Y14.368
X-54.314 Y14.423
X-54.231 Y14.476
X-54.063 Y14.58
X-54.048 Y14.59
X-53.896 Y14.683
X-53.491 Y14.925
X-53.394 Y14.982
X-53.227 Y15.073
X-52.875 Y15.259
X-52.725 Y15.337
X-52.549 Y15.426
X-52.39 Y15.506
X-52.223 Y15.584
X-51.814 Y15.761
X-51.721 Y15.801
X-51.553 Y15.871
X-51.386 Y15.94
X-51.219 Y16.009
X-51.051 Y16.07
X-50.98 Y16.096
X-50.717 Y16.189
X-50.549 Y16.246
X-50.498 Y16.263
X-50.382 Y16.301
X-50.215 Y16.353
X-50.047 Y16.403
X-49.713 Y16.501
X-49.545 Y16.547
X-49.378 Y16.59
X-49.211 Y16.632
X-49.043 Y16.673
X-48.876 Y16.713
X-48.709 Y16.753
X-48.654 Y16.765
X-48.541 Y16.789
X-48.374 Y16.824
X-48.207 Y16.857
X-47.816 Y16.932
X-47.705 Y16.953
X-47.537 Y16.982
X-47.37 Y17.01
X-47.203 Y17.037
X-46.868 Y17.086
X-46.774 Y17.099
X-46.533 Y17.132
X-46.366 Y17.155
X-46.199 Y17.175
X-46.031 Y17.196
X-45.864 Y17.214
X-45.697 Y17.231
X-45.529 Y17.248
X-45.362 Y17.263
X-45.195 Y17.278
X-45.027 Y17.293
X-44.693 Y17.318
X-44.525 Y17.33
X-44.191 Y17.352
X-44.023 Y17.361
X-43.856 Y17.37
X-43.689 Y17.378
X-43.521 Y17.384
X-43.354 Y17.391
X-43.187 Y17.395
X-43.019 Y17.4
X-42.852 Y17.404
X-42.517 Y17.408
X-42.35 Y17.41
X-42.183
X-42.015 Y17.411
X-41.848 Y17.408
X-41.346 Y17.402
X-41.179 Y17.399
X-41.011 Y17.394
X-40.844 Y17.389
X-40.677 Y17.384
X-40.342 Y17.37
X-40.175 Y17.361
X-40.007 Y17.353
X-39.84 Y17.343
X-39.673 Y17.333
X-39.505 Y17.322
X-39.338 Y17.309
X-39.171 Y17.297
X-39.003 Y17.283
X-38.669 Y17.253
X-38.501 Y17.236
X-38.334 Y17.219
X-38.167 Y17.202
X-37.999 Y17.183
X-37.832 Y17.163
X-37.665 Y17.143
X-37.317 Y17.099
X-37.163 Y17.078
X-36.995 Y17.054
X-36.828 Y17.03
X-36.661 Y17.003
X-36.493 Y16.976
X-36.326 Y16.948
X-35.991 Y16.889
X-35.824 Y16.858
X-35.657 Y16.827
X-35.489 Y16.795
X-35.349 Y16.765
X-35.322 Y16.759
X-35.155 Y16.723
X-34.987 Y16.686
X-34.605 Y16.597
X-34.485 Y16.569
X-34.318 Y16.527
X-34.151 Y16.483
X-33.983 Y16.437
X-33.649 Y16.343
X-33.481 Y16.294
X-33.378 Y16.263
X-33.314 Y16.243
X-33.147 Y16.19
X-32.979 Y16.134
X-32.812 Y16.078
X-32.645 Y16.021
X-32.477 Y15.961
X-32.392 Y15.928
X-32.143 Y15.833
X-31.975 Y15.767
X-31.96 Y15.761
X-31.808 Y15.699
X-31.641 Y15.627
X-31.566 Y15.594
X-31.139 Y15.396
X-30.971 Y15.317
X-30.804 Y15.237
X-30.637 Y15.155
X-30.517 Y15.092
X-30.469 Y15.065
X-30.135 Y14.877
X-29.967 Y14.783
X-29.8 Y14.686
X-29.637 Y14.59
X-29.633 Y14.587
X-29.465 Y14.483
X-29.373 Y14.423
X-28.963 Y14.156
X-28.86 Y14.088
X-28.796 Y14.044
X-28.629 Y13.926
X-28.385 Y13.753
X-28.294 Y13.689
X-28.154 Y13.586
X-28.127 Y13.566
X-27.959 Y13.443
X-27.792 Y13.316
X-27.707 Y13.252
X-27.625 Y13.188
X-27.278 Y12.917
X-27.123 Y12.794
X-27.068 Y12.75
X-26.955 Y12.657
X-26.621 Y12.381
X-26.46 Y12.248
X-26.453 Y12.242
X-26.286 Y12.097
X-25.882 Y11.746
X-25.784 Y11.66
X-25.695 Y11.579
X-25.151 Y11.077
X-25.115 Y11.042
X-24.977 Y10.909
X-24.473 Y10.408
X-24.445 Y10.38
X-24.31 Y10.24
X-23.943 Y9.844
X-23.846 Y9.738
X-23.776 Y9.66
X-23.7 Y9.571
X-23.609 Y9.463
X-23.417 Y9.236
X-23.28 Y9.069
X-23.021 Y8.735
X-22.939 Y8.628
X-22.893 Y8.567
X-22.777 Y8.4
X-22.549 Y8.065
X-22.439 Y7.898
X-22.437 Y7.896
X-22.338 Y7.731
X-22.27 Y7.616
X-22.239 Y7.564
X-22.141 Y7.396
X-22.103 Y7.329
X-22.05 Y7.229
X-21.884 Y6.894
X-21.801 Y6.727
X-21.768 Y6.656
X-21.728 Y6.56
X-21.589 Y6.225
X-21.522 Y6.058
X-21.464 Y5.891
X-21.433 Y5.798
X-21.408 Y5.723
X-21.353 Y5.556
X-21.302 Y5.389
X-21.215 Y5.054
X-21.171 Y4.887
X-21.134 Y4.72
X-21.065 Y4.385
X-21.033 Y4.218
X-20.977 Y3.883
X-20.95 Y3.716
X-20.931 Y3.58
X-20.877 Y3.172
X-20.874 Y3.151
X-20.873 Y3.141
G3 X-19.803 Y2.849 I0.595 J0.075
G0 Z62.
X-34.251 Y-20.938
Z47.374
G1 Z46.7 F1440.
G3 X-34.966 Y-20.091 I-0.533 J0.275
G1 X-34.987 Y-20.098
X-35.155 Y-20.147
X-35.489 Y-20.245
X-35.531 Y-20.257
X-35.534 Y-20.258
G3 X-35.666 Y-21.358 I0.162 J-0.578
G0 Z62.
X-35.572 Y-21.547
Z47.166
G1 Z46.5 F1440.
G3 X-36.228 Y-20.653 I-0.513 J0.311
G1 X-36.242 Y-20.656
X-36.326 Y-20.676
X-36.467 Y-20.709
X-36.493 Y-20.715
X-36.661 Y-20.752
X-36.995 Y-20.821
X-37.163 Y-20.854
X-37.497 Y-20.917
X-37.665 Y-20.947
X-37.999 Y-21.003
X-38.167 Y-21.028
X-38.501 Y-21.078
X-38.669 Y-21.1
X-38.836 Y-21.121
X-39.003 Y-21.142
X-39.171 Y-21.161
X-39.338 Y-21.179
X-39.505 Y-21.196
X-39.673 Y-21.21
X-39.682 Y-21.211
X-39.84 Y-21.225
X-40.007 Y-21.237
X-40.175 Y-21.248
X-40.342 Y-21.258
X-40.509 Y-21.267
X-40.844 Y-21.281
X-41.011 Y-21.285
X-41.179 Y-21.289
X-41.346 Y-21.293
X-41.513 Y-21.294
X-41.681
X-41.848
X-42.685 Y-21.275
X-42.852 Y-21.268
X-43.187 Y-21.25
X-43.354 Y-21.239
X-43.521 Y-21.227
X-43.689 Y-21.215
X-43.734 Y-21.211
X-43.856 Y-21.2
X-44.023 Y-21.185
X-44.191 Y-21.169
X-44.358 Y-21.151
X-44.525 Y-21.132
X-44.693 Y-21.111
X-44.86 Y-21.088
X-45.027 Y-21.066
X-45.173 Y-21.044
X-45.362 Y-21.015
X-45.529 Y-20.988
X-45.697 Y-20.959
X-45.864 Y-20.93
X-46.031 Y-20.9
X-46.151 Y-20.877
X-46.366 Y-20.834
X-46.533 Y-20.801
X-46.956 Y-20.709
X-47.035 Y-20.691
X-47.37 Y-20.612
X-47.537 Y-20.571
X-47.65 Y-20.542
X-47.705 Y-20.528
X-47.872 Y-20.484
X-47.956 Y-20.461
X-47.997 Y-20.449
X-48.017 Y-20.443
G3 X-48.763 Y-20.848 I-0.171 J-0.575
G2 X-49.663 Y-21.181 I-0.575 J0.171
G1 X-52.151 Y-19.582
S10000
X-52.152 Z46.492
X-52.153 Z46.484
X-52.154 Y-19.583 Z46.476
X-52.156 Y-19.584 Z46.468
X-52.159 Z46.461
X-52.162 Y-19.586 Z46.453
X-52.166 Y-19.587 Z46.446
X-52.171 Y-19.588 Z46.44
X-52.175 Y-19.59 Z46.433
X-52.181 Y-19.592 Z46.428
X-52.186 Y-19.594 Z46.422
X-52.193 Y-19.596 Z46.417
X-52.199 Y-19.599 Z46.413
X-52.206 Y-19.601 Z46.409
X-52.212 Y-19.604 Z46.406
X-52.22 Y-19.607 Z46.404
X-52.227 Y-19.61 Z46.402
X-52.234 Y-19.613 Z46.401
X-52.241 Y-19.617 Z46.4
G3 X-51.614 Y-20.979 Z46.318 I0.314 J-0.681
X-51.261 Y-20.641 Z46.3 I-0.314 J0.681
G1 X-51.252 Y-20.622
S15000
X-51.12 Y-20.347
G3 X-51.474 Y-19.34 I-0.681 J0.327
G1 X-51.481 Y-19.337
X-51.553 Y-19.301
X-51.854 Y-19.154
X-51.871 Y-19.145
X-51.884 Y-19.139
G3 X-52.719 Y-19.868 I-0.267 J-0.537
G0 Z62.
X-33.567 Y-20.914
Z47.169
G1 Z46.5 F1440.
G3 X-34.303 Y-20.084 I-0.54 J0.262
G1 X-34.318 Y-20.09
X-34.485 Y-20.146
X-34.653 Y-20.2
X-34.987 Y-20.305
X-35.155 Y-20.356
X-35.489 Y-20.453
X-35.573 Y-20.478
X-35.594 Y-20.484
X-35.595
G3 X-35.272 Y-21.64 I0.162 J-0.578
X-35.073 Y-21.542 I-0.162 J0.578
G1 X-33.995 Y-20.731
S10000
Z46.492
Y-20.732 Z46.484
X-33.996 Y-20.734 Z46.476
X-33.997 Y-20.736 Z46.468
X-33.998 Y-20.738 Z46.461
X-34. Y-20.741 Z46.453
X-34.001 Y-20.745 Z46.446
X-34.003 Y-20.749 Z46.44
X-34.006 Y-20.754 Z46.433
X-34.008 Y-20.759 Z46.428
X-34.01 Y-20.765 Z46.422
X-34.013 Y-20.77 Z46.417
X-34.016 Y-20.777 Z46.413
X-34.018 Y-20.783 Z46.409
X-34.021 Y-20.79 Z46.406
X-34.024 Y-20.797 Z46.404
X-34.027 Y-20.805 Z46.402
X-34.029 Y-20.812 Z46.401
X-34.032 Y-20.82 Z46.4
G3 X-32.615 Y-21.312 Z46.318 I0.708 J-0.246
X-32.614 Y-20.823 Z46.3 I-0.708 J0.246
G1 X-32.621 Y-20.803
S15000
X-32.728 Y-20.518
G3 X-33.7 Y-20.075 I-0.707 J-0.264
G1 X-33.711 Y-20.079
X-33.732 Y-20.087
X-33.816 Y-20.118
X-33.983 Y-20.177
X-34.069 Y-20.208
X-34.151 Y-20.236
X-34.567 Y-20.375
X-34.653 Y-20.403
X-34.82 Y-20.455
X-35.097 Y-20.542
X-35.155 Y-20.56
X-35.322 Y-20.609
X-35.489 Y-20.658
X-35.657 Y-20.705
X-35.675 Y-20.709
X-35.824 Y-20.746
X-35.991 Y-20.788
X-36.159 Y-20.829
X-36.326 Y-20.867
X-36.493 Y-20.905
X-36.661 Y-20.942
X-36.995 Y-21.012
X-37.155 Y-21.044
X-37.497 Y-21.108
X-37.665 Y-21.138
X-37.999 Y-21.195
X-38.1 Y-21.211
X-38.167 Y-21.221
X-38.334 Y-21.245
X-38.501 Y-21.269
X-38.669 Y-21.29
X-38.836 Y-21.309
X-39.003 Y-21.328
X-39.171 Y-21.345
X-39.338 Y-21.362
X-39.505 Y-21.378
X-39.516 Y-21.379
X-39.673 Y-21.391
X-39.84 Y-21.404
X-40.007 Y-21.417
X-40.342 Y-21.437
X-40.509 Y-21.446
X-40.844 Y-21.46
X-41.011 Y-21.464
X-41.179 Y-21.468
X-41.346 Y-21.472
X-41.513 Y-21.473
X-41.681 Y-21.474
X-41.848
X-42.015 Y-21.47
X-42.685 Y-21.455
X-42.852 Y-21.447
X-43.019 Y-21.439
X-43.187 Y-21.43
X-43.354 Y-21.419
X-43.521 Y-21.407
X-43.689 Y-21.395
X-44.023 Y-21.365
X-44.191 Y-21.349
X-44.525 Y-21.313
X-44.693 Y-21.293
X-45.027 Y-21.251
X-45.195 Y-21.227
X-45.362 Y-21.203
X-45.529 Y-21.179
X-45.697 Y-21.151
X-45.864 Y-21.123
X-46.031 Y-21.093
X-46.199 Y-21.061
X-46.366 Y-21.028
X-46.533 Y-20.993
X-46.868 Y-20.921
X-47.035 Y-20.883
X-47.37 Y-20.804
X-47.537 Y-20.762
X-47.872 Y-20.676
X-48.039 Y-20.631
X-48.374 Y-20.538
X-48.541 Y-20.489
X-48.709 Y-20.437
X-48.876 Y-20.383
X-48.9 Y-20.375
X-49.043 Y-20.326
X-49.378 Y-20.211
X-49.387 Y-20.208
X-49.545 Y-20.15
X-49.88 Y-20.028
X-50.047 Y-19.964
X-50.283 Y-19.873
X-50.382 Y-19.834
X-50.466 Y-19.8
X-50.507 Y-19.782
X-50.524 Y-19.775
G3 X-51.321 Y-20.546 I-0.238 J-0.551
G0 Z62.
X-51.454 Y-20.712
Z46.758
G1 Z46.1 F1440.
G3 X-51.393 Y-19.605 I-0.199 J0.566
G1 X-51.404 Y-19.599
X-51.422 Y-19.591
X-51.888 Y-19.362
X-52.055 Y-19.277
X-52.223 Y-19.191
X-52.39 Y-19.104
G3 X-53.238 Y-19.818 I-0.276 J-0.533
G0 Z62.
X-31.453 Y-20.216
Z46.971
G1 Z46.3 F1440.
G3 X-32.268 Y-19.464 I-0.563 J0.207
G1 X-32.31 Y-19.483
X-32.477 Y-19.56
X-32.519 Y-19.579
X-32.54 Y-19.588
X-32.543 Y-19.589
G3 X-32.521 Y-20.698 I0.24 J-0.55
G0 Z62.
X-32.277 Y-20.814
Z46.771
G1 Z46.1 F1440.
G3 X-33.073 Y-20.042 I-0.558 J0.221
G1 X-33.088 Y-20.049
X-33.107 Y-20.057
X-33.147 Y-20.074
X-33.314 Y-20.139
X-33.649 Y-20.264
X-33.816 Y-20.324
X-34.151 Y-20.443
X-34.318 Y-20.5
X-34.653 Y-20.611
X-34.82 Y-20.665
X-34.966 Y-20.709
X-34.987 Y-20.716
X-35.155 Y-20.764
X-35.322 Y-20.809
X-35.657 Y-20.898
X-35.824 Y-20.941
X-36.159 Y-21.023
X-36.247 Y-21.044
X-36.661 Y-21.138
X-36.828 Y-21.173
X-37.012 Y-21.211
X-37.163 Y-21.242
X-37.33 Y-21.273
X-37.497 Y-21.303
X-37.665 Y-21.331
X-37.832 Y-21.356
X-37.999 Y-21.382
X-38.167 Y-21.407
X-38.501 Y-21.452
X-38.669 Y-21.473
X-39.003 Y-21.512
X-39.171 Y-21.529
X-39.505 Y-21.562
X-39.673 Y-21.575
X-39.84 Y-21.588
X-40.007 Y-21.601
X-40.342 Y-21.621
X-40.509 Y-21.631
X-40.844 Y-21.645
X-41.011 Y-21.65
X-41.346 Y-21.657
X-41.513 Y-21.659
X-41.681
X-41.848 Y-21.66
X-42.015 Y-21.656
X-42.685 Y-21.64
X-42.852 Y-21.633
X-43.019 Y-21.624
X-43.187 Y-21.615
X-43.354 Y-21.604
X-43.521 Y-21.592
X-43.689 Y-21.58
X-44.071 Y-21.546
X-44.191 Y-21.534
X-44.525 Y-21.498
X-44.693 Y-21.478
X-44.86 Y-21.456
X-45.027 Y-21.435
X-45.195 Y-21.411
X-45.421 Y-21.379
X-45.529 Y-21.362
X-45.864 Y-21.308
X-46.031 Y-21.279
X-46.405 Y-21.211
X-46.533 Y-21.186
X-46.701 Y-21.153
X-46.868 Y-21.119
X-47.035 Y-21.081
X-47.192 Y-21.044
X-47.37 Y-21.002
X-47.537 Y-20.959
X-47.705 Y-20.916
X-47.859 Y-20.877
X-47.872 Y-20.873
