%
O00001001
(T5  D=6. CR=3. - ZMIN=26.219 - BALL END MILL)
G90 G94 G17
G21
G91
G28 Z0.
G90
(???1)
T5 M6
S15000 M3
G54
G0 X73.056 Y6.221
G43 Z72. H5
G0 Z54.665
G1 Z26.836 F1440.
G19 G2 Y5.123 Z26.502 J-0.6
G1 Y4.984 Z26.708
Y4.829 Z26.903
Y4.656 Z27.085
Y4.468 Z27.254
Y4.264 Z27.406
Y4.048 Z27.542
Y3.819 Z27.659
Y3.58 Z27.757
Y3.333 Z27.834
Y3.079 Z27.89
Y2.82 Z27.923
Y2.558 Z27.934
Y-7.532 Z27.932
Y-7.821 Z27.909
Y-8.055 Z27.869
Y-8.285 Z27.811
Y-8.512 Z27.734
Y-8.732 Z27.639
Y-8.944 Z27.526
Y-9.148 Z27.397
Y-9.342 Z27.25
Y-9.524 Z27.087
Y-9.693 Z26.909
Y-9.848 Z26.716
Y-9.993 Z26.502
G2 Y-10.241 Z26.369 J-0.249 K0.168
G1 X73.048 Y-10.28
X73.027 Y-10.312
X72.994 Y-10.334
X72.956 Y-10.341
X72.918 Y-10.334
X72.885 Y-10.312
X72.864 Y-10.28
X72.856 Y-10.241
G3 Y-9.993 Z26.502 K0.3
G1 Y-9.848 Z26.716
Y-9.693 Z26.909
Y-9.524 Z27.087
Y-9.342 Z27.25
Y-9.148 Z27.397
Y-8.944 Z27.526
Y-8.732 Z27.639
Y-8.512 Z27.734
Y-8.285 Z27.811
Y-8.055 Z27.869
Y-7.821 Z27.909
Y-7.532 Z27.932
Y2.558 Z27.934
Y2.82 Z27.923
Y3.079 Z27.89
Y3.333 Z27.834
Y3.58 Z27.757
Y3.819 Z27.659
Y4.048 Z27.542
Y4.264 Z27.406
Y4.468 Z27.254
Y4.656 Z27.085
Y4.829 Z26.903
Y4.984 Z26.708
Y5.123 Z26.502
G3 Y5.372 Z26.369 J0.249 K0.167
G1 X72.848 Y5.41
X72.827 Y5.442
X72.794 Y5.464
X72.756 Y5.472
X72.718 Y5.464
X72.685 Y5.442
X72.664 Y5.41
X72.656 Y5.372
G2 Y5.123 Z26.502 K0.3
G1 Y4.984 Z26.708
Y4.829 Z26.903
Y4.656 Z27.085
Y4.468 Z27.254
Y4.264 Z27.406
Y4.048 Z27.542
Y3.819 Z27.659
Y3.58 Z27.757
Y3.333 Z27.834
Y3.079 Z27.89
Y2.82 Z27.923
Y2.558 Z27.934
Y-7.532 Z27.932
Y-7.821 Z27.909
Y-8.055 Z27.869
Y-8.285 Z27.811
Y-8.512 Z27.734
Y-8.732 Z27.639
Y-8.944 Z27.526
Y-9.148 Z27.397
Y-9.342 Z27.25
Y-9.524 Z27.087
Y-9.693 Z26.909
Y-9.848 Z26.716
Y-9.993 Z26.502
G2 Y-10.241 Z26.369 J-0.249 K0.168
G1 X72.648 Y-10.28
X72.627 Y-10.312
X72.594 Y-10.334
X72.556 Y-10.341
X72.518 Y-10.334
X72.485 Y-10.312
X72.464 Y-10.28
X72.456 Y-10.241
G3 Y-9.993 Z26.502 K0.3
G1 Y-9.848 Z26.716
Y-9.693 Z26.909
Y-9.524 Z27.087
Y-9.342 Z27.25
Y-9.148 Z27.397
Y-8.944 Z27.526
Y-8.732 Z27.639
Y-8.512 Z27.734
Y-8.285 Z27.811
Y-8.055 Z27.869
Y-7.821 Z27.909
Y-7.532 Z27.932
Y2.558 Z27.934
Y2.82 Z27.923
Y3.079 Z27.89
Y3.333 Z27.834
Y3.58 Z27.757
Y3.819 Z27.659
Y4.048 Z27.542
Y4.264 Z27.406
Y4.468 Z27.254
Y4.656 Z27.085
Y4.829 Z26.903
Y4.984 Z26.708
Y5.123 Z26.502
G3 Y5.372 Z26.369 J0.249 K0.167
G1 X72.448 Y5.41
X72.427 Y5.442
X72.394 Y5.464
X72.356 Y5.472
X72.318 Y5.464
X72.285 Y5.442
X72.264 Y5.41
X72.256 Y5.372
G2 Y5.123 Z26.502 K0.3
G1 Y4.984 Z26.708
Y4.829 Z26.903
Y4.656 Z27.085
Y4.468 Z27.254
Y4.264 Z27.406
Y4.048 Z27.542
Y3.819 Z27.659
Y3.58 Z27.757
Y3.333 Z27.834
Y3.079 Z27.89
Y2.82 Z27.923
Y2.558 Z27.934
Y-7.532 Z27.932
Y-7.821 Z27.909
Y-8.055 Z27.869
Y-8.285 Z27.811
Y-8.512 Z27.734
Y-8.732 Z27.639
Y-8.944 Z27.526
Y-9.148 Z27.397
Y-9.342 Z27.25
Y-9.524 Z27.087
Y-9.693 Z26.909
Y-9.848 Z26.716
Y-9.993 Z26.502
G2 Y-10.241 Z26.369 J-0.249 K0.168
G1 X72.248 Y-10.28
X72.227 Y-10.312
X72.194 Y-10.334
X72.156 Y-10.341
X72.118 Y-10.334
X72.085 Y-10.312
X72.064 Y-10.28
X72.056 Y-10.241
G3 Y-9.993 Z26.502 K0.3
G1 Y-9.848 Z26.716
Y-9.693 Z26.909
Y-9.524 Z27.087
Y-9.342 Z27.25
Y-9.148 Z27.397
Y-8.944 Z27.526
Y-8.732 Z27.639
Y-8.512 Z27.734
Y-8.285 Z27.811
Y-8.055 Z27.869
Y-7.821 Z27.909
Y-7.532 Z27.932
Y2.562 Z27.934
Y2.824 Z27.923
Y3.083 Z27.889
Y3.337 Z27.833
Y3.584 Z27.755
Y3.823 Z27.657
Y4.051 Z27.54
Y4.268 Z27.404
Y4.471 Z27.251
Y4.659 Z27.082
Y4.831 Z26.9
Y4.987 Z26.705
Y5.124 Z26.5
G3 Y5.373 Z26.367 J0.249 K0.167
G1 X72.054 Y5.393
X72.048 Y5.411
X72.039 Y5.429
X72.027 Y5.444
X72.012 Y5.456
X71.994 Y5.465
X71.976 Y5.471
X71.956 Y5.473
X71.937 Y5.471
X71.918 Y5.465
X71.9 Y5.456
X71.885 Y5.444
X71.873 Y5.429
X71.864 Y5.411
X71.858 Y5.393
X71.856 Y5.373
G2 Y5.124 Z26.5 K0.3
G1 Y5.123 Z26.502
Y4.984 Z26.708
Y4.829 Z26.903
Y4.656 Z27.085
Y4.468 Z27.254
Y4.264 Z27.406
Y4.048 Z27.542
Y3.819 Z27.659
Y3.58 Z27.757
Y3.333 Z27.834
Y3.079 Z27.89
Y2.82 Z27.923
Y2.558 Z27.934
Y-7.532 Z27.932
Y-7.821 Z27.909
Y-8.055 Z27.869
Y-8.285 Z27.811
Y-8.512 Z27.734
Y-8.732 Z27.639
Y-8.944 Z27.526
Y-9.148 Z27.397
Y-9.342 Z27.25
Y-9.524 Z27.087
Y-9.693 Z26.909
Y-9.848 Z26.716
Y-9.993 Z26.502
G2 Y-10.241 Z26.369 J-0.249 K0.168
G1 X71.848 Y-10.28
X71.827 Y-10.312
X71.794 Y-10.334
X71.756 Y-10.341
X71.718 Y-10.334
X71.685 Y-10.312
X71.664 Y-10.28
X71.656 Y-10.241
G3 Y-9.993 Z26.502 K0.3
G1 Y-9.848 Z26.716
Y-9.693 Z26.909
Y-9.524 Z27.087
Y-9.342 Z27.25
Y-9.148 Z27.397
Y-8.944 Z27.526
Y-8.732 Z27.639
Y-8.512 Z27.734
Y-8.285 Z27.811
Y-8.055 Z27.869
Y-7.821 Z27.909
Y-7.532 Z27.932
Y2.558 Z27.934
Y2.82 Z27.923
Y3.079 Z27.89
Y3.333 Z27.834
Y3.58 Z27.757
Y3.819 Z27.659
Y4.048 Z27.542
Y4.264 Z27.406
Y4.468 Z27.254
Y4.656 Z27.085
Y4.829 Z26.903
Y4.984 Z26.708
Y5.123 Z26.502
G3 Y5.372 Z26.369 J0.249 K0.167
G1 X71.648 Y5.41
X71.627 Y5.442
X71.594 Y5.464
X71.556 Y5.472
X71.518 Y5.464
X71.485 Y5.442
X71.464 Y5.41
X71.456 Y5.372
G2 Y5.123 Z26.502 K0.3
G1 Y4.984 Z26.708
Y4.829 Z26.903
Y4.656 Z27.085
Y4.468 Z27.254
Y4.264 Z27.406
Y4.048 Z27.542
Y3.819 Z27.659
Y3.58 Z27.757
Y3.333 Z27.834
Y3.079 Z27.89
Y2.82 Z27.923
Y2.558 Z27.934
Y-7.532 Z27.932
Y-7.821 Z27.909
Y-8.055 Z27.869
Y-8.285 Z27.811
Y-8.512 Z27.734
Y-8.732 Z27.639
Y-8.944 Z27.526
Y-9.148 Z27.397
Y-9.342 Z27.25
Y-9.524 Z27.087
Y-9.693 Z26.909
Y-9.848 Z26.716
Y-9.993 Z26.502
G2 Y-10.241 Z26.369 J-0.249 K0.168
G1 X71.448 Y-10.28
X71.427 Y-10.312
X71.394 Y-10.334
X71.356 Y-10.341
X71.318 Y-10.334
X71.285 Y-10.312
X71.264 Y-10.28
X71.256 Y-10.241
G3 Y-9.993 Z26.502 K0.3
G1 Y-9.848 Z26.716
Y-9.693 Z26.909
Y-9.524 Z27.087
Y-9.342 Z27.25
Y-9.148 Z27.397
Y-8.944 Z27.526
Y-8.732 Z27.639
Y-8.512 Z27.734
Y-8.285 Z27.811
Y-8.055 Z27.869
Y-7.821 Z27.909
Y-7.532 Z27.932
Y2.558 Z27.934
Y2.82 Z27.923
Y3.079 Z27.89
Y3.333 Z27.834
Y3.58 Z27.757
Y3.819 Z27.659
Y4.048 Z27.542
Y4.264 Z27.406
Y4.468 Z27.254
Y4.656 Z27.085
Y4.829 Z26.903
Y4.984 Z26.708
Y5.123 Z26.502
G3 Y5.372 Z26.369 J0.249 K0.167
G1 X71.248 Y5.41
X71.227 Y5.442
X71.194 Y5.464
X71.156 Y5.472
X71.118 Y5.464
X71.085 Y5.442
X71.064 Y5.41
X71.056 Y5.372
G2 Y5.123 Z26.502 K0.3
G1 Y4.984 Z26.708
Y4.829 Z26.903
Y4.656 Z27.085
Y4.468 Z27.254
Y4.264 Z27.406
Y4.048 Z27.542
Y3.819 Z27.659
Y3.58 Z27.757
Y3.333 Z27.834
Y3.079 Z27.89
Y2.82 Z27.923
Y2.558 Z27.934
Y-7.532 Z27.932
Y-7.821 Z27.909
Y-8.055 Z27.869
Y-8.285 Z27.811
Y-8.512 Z27.734
Y-8.732 Z27.639
Y-8.944 Z27.526
Y-9.148 Z27.397
Y-9.342 Z27.25
Y-9.524 Z27.087
Y-9.693 Z26.909
Y-9.848 Z26.716
Y-9.993 Z26.502
G2 Y-10.241 Z26.369 J-0.249 K0.168
G1 X71.048 Y-10.28
X71.027 Y-10.312
X70.994 Y-10.334
X70.956 Y-10.341
X70.918 Y-10.334
X70.885 Y-10.312
X70.864 Y-10.28
X70.856 Y-10.241
G3 Y-9.993 Z26.502 K0.3
G1 Y-9.848 Z26.716
Y-9.693 Z26.909
Y-9.524 Z27.087
Y-9.342 Z27.25
Y-9.148 Z27.397
Y-8.944 Z27.526
Y-8.732 Z27.639
Y-8.512 Z27.734
Y-8.285 Z27.811
Y-8.055 Z27.869
Y-7.821 Z27.909
Y-7.532 Z27.932
Y2.558 Z27.934
Y2.82 Z27.923
Y3.079 Z27.89
Y3.333 Z27.834
Y3.58 Z27.757
Y3.819 Z27.659
Y4.048 Z27.542
Y4.264 Z27.406
Y4.468 Z27.254
Y4.656 Z27.085
Y4.829 Z26.903
Y4.984 Z26.708
Y5.123 Z26.502
G3 Y5.372 Z26.369 J0.249 K0.167
G1 X70.848 Y5.41
X70.827 Y5.442
X70.794 Y5.464
X70.756 Y5.472
X70.718 Y5.464
X70.685 Y5.442
X70.664 Y5.41
X70.656 Y5.372
G2 Y5.123 Z26.502 K0.3
G1 Y4.984 Z26.708
Y4.829 Z26.903
Y4.656 Z27.085
Y4.468 Z27.254
Y4.264 Z27.406
Y4.048 Z27.542
Y3.819 Z27.659
Y3.58 Z27.757
Y3.333 Z27.834
Y3.079 Z27.89
Y2.82 Z27.923
Y2.558 Z27.934
Y-7.532 Z27.932
Y-7.821 Z27.909
Y-8.055 Z27.869
Y-8.285 Z27.811
Y-8.512 Z27.734
Y-8.732 Z27.639
Y-8.944 Z27.526
Y-9.148 Z27.397
Y-9.342 Z27.25
Y-9.524 Z27.087
Y-9.693 Z26.909
Y-9.848 Z26.716
Y-9.993 Z26.502
G2 Y-10.241 Z26.369 J-0.249 K0.168
G1 X70.648 Y-10.28
X70.627 Y-10.312
X70.594 Y-10.334
X70.556 Y-10.341
X70.518 Y-10.334
X70.485 Y-10.312
X70.464 Y-10.28
X70.456 Y-10.241
G3 Y-9.993 Z26.502 K0.3
G1 Y-9.848 Z26.716
Y-9.693 Z26.909
Y-9.524 Z27.087
Y-9.342 Z27.25
Y-9.148 Z27.397
Y-8.944 Z27.526
Y-8.732 Z27.639
Y-8.512 Z27.734
Y-8.285 Z27.811
Y-8.055 Z27.869
Y-7.821 Z27.909
Y-7.532 Z27.932
Y2.558 Z27.934
Y2.82 Z27.923
Y3.079 Z27.89
Y3.333 Z27.834
Y3.58 Z27.757
Y3.819 Z27.659
Y4.048 Z27.542
Y4.264 Z27.406
Y4.468 Z27.254
Y4.656 Z27.085
Y4.829 Z26.903
Y4.984 Z26.708
Y5.123 Z26.502
Y5.124 Z26.5
G3 Y5.373 Z26.367 J0.249 K0.167
G1 X70.454 Y5.393
X70.448 Y5.411
X70.439 Y5.429
X70.427 Y5.444
X70.412 Y5.456
X70.394 Y5.465
X70.376 Y5.471
X70.356 Y5.473
X70.337 Y5.471
X70.318 Y5.465
X70.3 Y5.456
X70.285 Y5.444
X70.273 Y5.429
X70.264 Y5.411
X70.258 Y5.393
X70.256 Y5.373
G2 Y5.124 Z26.5 K0.3
G1 Y4.987 Z26.705
Y4.831 Z26.9
Y4.659 Z27.082
Y4.471 Z27.251
Y4.268 Z27.404
Y4.051 Z27.54
Y3.823 Z27.657
Y3.584 Z27.755
Y3.337 Z27.833
Y3.083 Z27.889
Y2.824 Z27.923
Y2.562 Z27.934
Y-7.532 Z27.932
Y-7.821 Z27.909
Y-8.055 Z27.869
Y-8.285 Z27.811
Y-8.512 Z27.734
Y-8.732 Z27.639
Y-8.944 Z27.526
Y-9.148 Z27.397
Y-9.342 Z27.25
Y-9.524 Z27.087
Y-9.693 Z26.909
Y-9.848 Z26.716
Y-9.993 Z26.502
G2 Y-10.241 Z26.369 J-0.249 K0.168
G1 X70.248 Y-10.28
X70.227 Y-10.312
X70.194 Y-10.334
X70.156 Y-10.341
X70.118 Y-10.334
X70.085 Y-10.312
X70.064 Y-10.28
X70.056 Y-10.241
G3 Y-9.993 Z26.502 K0.3
G1 Y-9.848 Z26.716
Y-9.693 Z26.909
Y-9.524 Z27.087
Y-9.342 Z27.25
Y-9.148 Z27.397
Y-8.944 Z27.526
Y-8.732 Z27.639
Y-8.512 Z27.734
Y-8.285 Z27.811
Y-8.055 Z27.869
Y-7.821 Z27.909
Y-7.532 Z27.932
Y2.558 Z27.934
Y2.82 Z27.923
Y3.079 Z27.89
Y3.333 Z27.834
Y3.58 Z27.757
Y3.819 Z27.659
Y4.048 Z27.542
Y4.264 Z27.406
Y4.468 Z27.254
Y4.656 Z27.085
Y4.829 Z26.903
Y4.984 Z26.708
Y5.123 Z26.502
G3 Y5.372 Z26.369 J0.249 K0.167
G1 X70.048 Y5.41
X70.027 Y5.442
X69.994 Y5.464
X69.956 Y5.472
X69.918 Y5.464
X69.885 Y5.442
X69.864 Y5.41
X69.856 Y5.372
G2 Y5.123 Z26.502 K0.3
G1 Y4.984 Z26.708
Y4.829 Z26.903
Y4.656 Z27.085
Y4.468 Z27.254
Y4.264 Z27.406
Y4.048 Z27.542
Y3.819 Z27.659
Y3.58 Z27.757
Y3.333 Z27.834
Y3.079 Z27.89
Y2.82 Z27.923
Y2.558 Z27.934
Y-7.532 Z27.932
Y-7.821 Z27.909
Y-8.055 Z27.869
Y-8.285 Z27.811
Y-8.512 Z27.734
Y-8.732 Z27.639
Y-8.944 Z27.526
Y-9.148 Z27.397
Y-9.342 Z27.25
Y-9.524 Z27.087
Y-9.693 Z26.909
Y-9.848 Z26.716
Y-9.993 Z26.502
G2 Y-10.241 Z26.369 J-0.249 K0.168
G1 X69.848 Y-10.28
X69.827 Y-10.312
X69.794 Y-10.334
X69.756 Y-10.341
X69.718 Y-10.334
X69.685 Y-10.312
X69.664 Y-10.28
X69.656 Y-10.241
G3 Y-9.993 Z26.502 K0.3
G1 Y-9.848 Z26.716
Y-9.693 Z26.909
Y-9.524 Z27.087
Y-9.342 Z27.25
Y-9.148 Z27.397
Y-8.944 Z27.526
Y-8.732 Z27.639
Y-8.512 Z27.734
Y-8.285 Z27.811
Y-8.055 Z27.869
Y-7.821 Z27.909
Y-7.532 Z27.932
Y2.558 Z27.934
Y2.82 Z27.923
Y3.079 Z27.89
Y3.333 Z27.834
Y3.58 Z27.757
Y3.819 Z27.659
Y4.048 Z27.542
Y4.264 Z27.406
Y4.468 Z27.254
Y4.656 Z27.085
Y4.829 Z26.903
Y4.984 Z26.708
Y5.123 Z26.502
G3 Y5.372 Z26.369 J0.249 K0.167
G1 X69.648 Y5.41
X69.627 Y5.442
X69.594 Y5.464
X69.556 Y5.472
X69.518 Y5.464
X69.485 Y5.442
X69.464 Y5.41
X69.456 Y5.372
G2 Y5.123 Z26.502 K0.3
G1 Y4.984 Z26.708
Y4.829 Z26.903
Y4.656 Z27.085
Y4.468 Z27.254
Y4.264 Z27.406
Y4.048 Z27.542
Y3.819 Z27.659
Y3.58 Z27.757
Y3.333 Z27.834
Y3.079 Z27.89
Y2.82 Z27.923
Y2.558 Z27.934
Y-7.532 Z27.932
Y-7.821 Z27.909
Y-8.055 Z27.869
Y-8.285 Z27.811
Y-8.512 Z27.734
Y-8.732 Z27.639
Y-8.944 Z27.526
Y-9.148 Z27.397
Y-9.342 Z27.25
Y-9.524 Z27.087
Y-9.693 Z26.909
Y-9.848 Z26.716
Y-9.993 Z26.502
G2 Y-10.241 Z26.369 J-0.249 K0.168
G1 X69.448 Y-10.28
X69.427 Y-10.312
X69.394 Y-10.334
X69.356 Y-10.341
X69.318 Y-10.334
X69.285 Y-10.312
X69.264 Y-10.28
X69.256 Y-10.241
G3 Y-9.993 Z26.502 K0.3
G1 Y-9.848 Z26.716
Y-9.693 Z26.909
Y-9.524 Z27.087
Y-9.342 Z27.25
Y-9.148 Z27.397
Y-8.944 Z27.526
Y-8.732 Z27.639
Y-8.512 Z27.734
Y-8.285 Z27.811
Y-8.055 Z27.869
Y-7.821 Z27.909
Y-7.532 Z27.932
Y2.558 Z27.934
Y2.82 Z27.923
Y3.079 Z27.89
Y3.333 Z27.834
Y3.58 Z27.757
Y3.819 Z27.659
Y4.048 Z27.542
Y4.264 Z27.406
Y4.468 Z27.254
Y4.656 Z27.085
Y4.829 Z26.903
Y4.984 Z26.708
Y5.123 Z26.502
G3 Y5.372 Z26.369 J0.249 K0.167
G1 X69.248 Y5.41
X69.227 Y5.442
X69.194 Y5.464
X69.156 Y5.472
X69.118 Y5.464
X69.085 Y5.442
X69.064 Y5.41
X69.056 Y5.372
G2 Y5.123 Z26.502 K0.3
G1 Y4.984 Z26.708
Y4.829 Z26.903
Y4.656 Z27.085
Y4.468 Z27.254
Y4.264 Z27.406
Y4.048 Z27.542
Y3.819 Z27.659
Y3.58 Z27.757
Y3.333 Z27.834
Y3.079 Z27.89
Y2.82 Z27.923
Y2.558 Z27.934
Y-7.532 Z27.932
Y-7.821 Z27.909
Y-8.055 Z27.869
Y-8.285 Z27.811
Y-8.512 Z27.734
Y-8.732 Z27.639
Y-8.944 Z27.526
Y-9.148 Z27.397
Y-9.342 Z27.25
Y-9.524 Z27.087
Y-9.693 Z26.909
Y-9.848 Z26.716
Y-9.993 Z26.502
G2 Y-10.241 Z26.369 J-0.249 K0.168
G1 X69.048 Y-10.28
X69.027 Y-10.312
X68.994 Y-10.334
X68.956 Y-10.341
X68.918 Y-10.334
X68.885 Y-10.312
X68.864 Y-10.28
X68.856 Y-10.241
G3 Y-9.993 Z26.502 K0.3
G1 Y-9.848 Z26.716
Y-9.693 Z26.909
Y-9.524 Z27.087
Y-9.342 Z27.25
Y-9.148 Z27.397
Y-8.944 Z27.526
Y-8.732 Z27.639
Y-8.512 Z27.734
Y-8.285 Z27.811
Y-8.055 Z27.869
Y-7.821 Z27.909
Y-7.532 Z27.932
Y2.558 Z27.934
Y2.82 Z27.923
Y3.079 Z27.89
Y3.333 Z27.834
Y3.58 Z27.757
Y3.819 Z27.659
Y4.048 Z27.542
Y4.264 Z27.406
Y4.468 Z27.254
Y4.656 Z27.085
Y4.829 Z26.903
Y4.984 Z26.708
Y5.123 Z26.502
G3 Y5.372 Z26.369 J0.249 K0.167
G1 X68.848 Y5.41
X68.827 Y5.442
X68.794 Y5.464
X68.756 Y5.472
X68.718 Y5.464
X68.685 Y5.442
X68.664 Y5.41
X68.656 Y5.372
G2 Y5.123 Z26.502 K0.3
G1 Y4.984 Z26.708
Y4.829 Z26.903
Y4.656 Z27.085
Y4.468 Z27.254
Y4.264 Z27.406
Y4.048 Z27.542
Y3.819 Z27.659
Y3.58 Z27.757
Y3.333 Z27.834
Y3.079 Z27.89
Y2.82 Z27.923
Y2.558 Z27.934
Y-7.532 Z27.932
Y-7.821 Z27.909
Y-8.055 Z27.869
Y-8.285 Z27.811
Y-8.512 Z27.734
Y-8.732 Z27.639
Y-8.944 Z27.526
Y-9.148 Z27.397
Y-9.342 Z27.25
Y-9.524 Z27.087
Y-9.693 Z26.909
Y-9.848 Z26.716
Y-9.993 Z26.502
G2 Y-10.241 Z26.369 J-0.249 K0.168
G1 X68.648 Y-10.28
X68.627 Y-10.312
X68.594 Y-10.334
X68.556 Y-10.341
X68.518 Y-10.334
X68.485 Y-10.312
X68.464 Y-10.28
X68.456 Y-10.241
G3 Y-9.993 Z26.502 K0.3
G1 Y-9.848 Z26.716
Y-9.693 Z26.909
Y-9.524 Z27.087
Y-9.342 Z27.25
Y-9.148 Z27.397
Y-8.944 Z27.526
Y-8.732 Z27.639
Y-8.512 Z27.734
Y-8.285 Z27.811
Y-8.055 Z27.869
Y-7.821 Z27.909
Y-7.532 Z27.932
Y2.558 Z27.934
Y2.82 Z27.923
Y3.079 Z27.89
Y3.333 Z27.834
Y3.58 Z27.757
Y3.819 Z27.659
Y4.048 Z27.542
Y4.264 Z27.406
Y4.468 Z27.254
Y4.656 Z27.085
Y4.829 Z26.903
Y4.984 Z26.708
Y5.123 Z26.502
G3 Y5.372 Z26.369 J0.249 K0.167
G1 X68.448 Y5.41
X68.427 Y5.442
X68.394 Y5.464
X68.356 Y5.472
X68.318 Y5.464
X68.285 Y5.442
X68.264 Y5.41
X68.256 Y5.372
G2 Y5.123 Z26.502 K0.3
G1 Y4.984 Z26.708
Y4.829 Z26.903
Y4.656 Z27.085
Y4.468 Z27.254
Y4.264 Z27.406
Y4.048 Z27.542
Y3.819 Z27.659
Y3.58 Z27.757
Y3.333 Z27.834
Y3.079 Z27.89
Y2.82 Z27.923
Y2.558 Z27.934
Y-7.532 Z27.932
Y-7.821 Z27.909
Y-8.055 Z27.869
Y-8.285 Z27.811
Y-8.512 Z27.734
Y-8.732 Z27.639
Y-8.944 Z27.526
Y-9.148 Z27.397
Y-9.409 Z27.193
Y-9.425 Z27.179
G2 Y-9.923 Z27.404 J-0.198 K0.225
G1 Z33.656
X68.249 Y-9.925 Z33.768
X68.226 Y-9.93 Z33.878
X68.19 Y-9.939 Z33.984
X68.14 Y-9.951 Z34.083
X68.077 Y-9.967 Z34.175
X68.002 Y-9.985 Z34.257
X67.917 Y-10.005 Z34.328
X67.824 Y-10.028 Z34.387
X67.724 Y-10.052 Z34.431
X67.619 Y-10.078 Z34.462
X67.511 Y-10.104 Z34.477
X67.401 Y-10.131
X67.293 Y-10.157 Z34.462
X67.188 Y-10.183 Z34.431
X67.088 Y-10.207 Z34.387
X66.995 Y-10.23 Z34.328
X66.91 Y-10.25 Z34.257
X66.836 Y-10.268 Z34.175
X66.773 Y-10.284 Z34.083
X66.722 Y-10.296 Z33.984
X66.686 Y-10.305 Z33.878
X66.664 Y-10.31 Z33.768
X66.656 Y-10.312 Z33.656
G3 Y-9.917 Z33.371 J0.3
G1 Y-9.507 Z33.508
Y-9.246 Z33.563
Y-8.944 Z33.6
Y-8.743 Z33.615
Y-8.22 Z33.587
Y-7.737 Z33.502
Y-7.247 Z33.364
Y-7.167 Z33.347 F30.
Y-7.084 Z33.341
G17 G2 X67.678 Y-6.658 I0.6
G1 X68.056 Y-7.032
Z27.934
Y2.558 F1440.
Y2.82 Z27.923
Y3.079 Z27.89
Y3.333 Z27.834
Y3.58 Z27.757
Y3.819 Z27.659
Y4.048 Z27.542
Y4.264 Z27.406
Y4.468 Z27.254
Y4.656 Z27.085
Y4.829 Z26.903
Y4.984 Z26.708
Y5.123 Z26.502
G19 G3 Y5.372 Z26.369 J0.249 K0.167
G1 X68.048 Y5.41
X68.027 Y5.442
X67.994 Y5.464
X67.956 Y5.472
X67.918 Y5.464
X67.885 Y5.442
X67.864 Y5.41
X67.856 Y5.372
G2 Y5.123 Z26.502 K0.3
G1 Y4.984 Z26.708
Y4.829 Z26.903
Y4.656 Z27.085
Y4.468 Z27.254
Y4.264 Z27.406
Y4.048 Z27.542
Y3.819 Z27.659
Y3.58 Z27.757
Y3.333 Z27.834
Y3.079 Z27.89
Y2.82 Z27.923
Y2.558 Z27.934
Y-5.708
Y-5.745 Z27.979
Y-5.773 Z28.031
Y-5.79 Z28.088
Y-5.796 Z28.146
Z33.568
X67.849 Y-5.794 Z33.672
X67.828 Y-5.788 Z33.774
X67.793 Y-5.777 Z33.871
X67.745 Y-5.763 Z33.963
X67.685 Y-5.745 Z34.046
X67.614 Y-5.724 Z34.12
X67.535 Y-5.701 Z34.182
X67.447 Y-5.675 Z34.232
X67.353 Y-5.647 Z34.268
X67.256 Y-5.618 Z34.29
X67.156 Y-5.589 Z34.298
X67.056 Y-5.559 Z34.29
X66.959 Y-5.53 Z34.268
X66.865 Y-5.503 Z34.232
X66.778 Y-5.477 Z34.182
X66.698 Y-5.453 Z34.12
X66.627 Y-5.432 Z34.046
X66.567 Y-5.414 Z33.963
X66.519 Y-5.4 Z33.871
X66.484 Y-5.39 Z33.774
X66.463 Y-5.384 Z33.672
X66.456 Y-5.382 Z33.568
G2 Y-5.801 Z33.293 J-0.3
G1 Y-6.258 Z33.492
Y-6.5 Z33.588
Y-7.177 Z33.841
Y-7.744 Z33.999
Y-8.26 Z34.088
Y-8.785 Z34.11
Y-9.288 Z34.054
Y-9.463 Z34.017
Y-9.971 Z33.85
Y-10.163 Z33.757
Y-10.625 Z33.491
Y-10.821 Z33.342
G2 Y-11.785 Z33.819 J-0.364 K0.477
G0 Z62.
X67.656 Y-4.68
Z35.231
G1 Z28.358 F1440.
G3 Y-4.505 Z27.934 J0.6
G1 Y2.558
Y2.82 Z27.923
Y3.079 Z27.89
Y3.333 Z27.834
Y3.58 Z27.757
Y3.819 Z27.659
Y4.048 Z27.542
Y4.264 Z27.406
Y4.468 Z27.254
Y4.656 Z27.085
Y4.829 Z26.903
Y4.984 Z26.708
Y5.123 Z26.502
G3 Y5.372 Z26.369 J0.249 K0.167
G1 X67.648 Y5.41
X67.627 Y5.442
X67.594 Y5.464
X67.556 Y5.472
X67.518 Y5.464
X67.485 Y5.442
X67.464 Y5.41
X67.456 Y5.372
G2 Y5.123 Z26.502 K0.3
G1 Y4.984 Z26.708
Y4.829 Z26.903
Y4.656 Z27.085
Y4.468 Z27.254
Y4.264 Z27.406
Y4.048 Z27.542
Y3.819 Z27.659
Y3.58 Z27.757
Y3.333 Z27.834
Y3.079 Z27.89
Y2.82 Z27.923
Y2.558 Z27.934
Y-3.41
X67.408 Y-3.18
X67.36 Y-2.95
X67.308 Y-2.721
X67.256 Y-2.492
Y2.558
Y2.82 Z27.923
Y3.079 Z27.89
Y3.333 Z27.834
Y3.58 Z27.757
Y3.819 Z27.659
Y4.048 Z27.542
Y4.264 Z27.406
Y4.468 Z27.254
Y4.656 Z27.085
Y4.829 Z26.903
Y4.984 Z26.708
Y5.123 Z26.502
G3 Y5.372 Z26.369 J0.249 K0.167
G1 X67.248 Y5.41
X67.227 Y5.442
X67.194 Y5.464
X67.156 Y5.472
X67.118 Y5.464
X67.085 Y5.442
X67.064 Y5.41
X67.056 Y5.372
G2 Y5.123 Z26.502 K0.3
G1 Y4.984 Z26.708
Y4.829 Z26.903
Y4.656 Z27.085
Y4.468 Z27.254
Y4.264 Z27.406
Y4.048 Z27.542
Y3.819 Z27.659
Y3.58 Z27.757
Y3.333 Z27.834
Y3.079 Z27.89
Y2.82 Z27.923
Y2.558 Z27.934
Y-1.696
X67.008 Y-1.514
X66.908 Y-1.152
X66.856 Y-0.971
Y2.558
Y2.82 Z27.923
Y3.079 Z27.89
Y3.333 Z27.834
Y3.58 Z27.757
Y3.819 Z27.659
Y4.048 Z27.542
Y4.264 Z27.406
Y4.468 Z27.254
Y4.656 Z27.085
Y4.829 Z26.903
Y4.984 Z26.708
Y5.123 Z26.502
G3 Y5.372 Z26.369 J0.249 K0.167
G1 X66.848 Y5.41
X66.827 Y5.442
X66.794 Y5.464
X66.756 Y5.472
X66.718 Y5.464
X66.685 Y5.442
X66.664 Y5.41
X66.656 Y5.372
G2 Y5.123 Z26.502 K0.3
G1 Y4.984 Z26.708
Y4.829 Z26.903
Y4.656 Z27.085
Y4.468 Z27.254
Y4.264 Z27.406
Y4.048 Z27.542
Y3.819 Z27.659
Y3.58 Z27.757
Y3.333 Z27.834
Y3.079 Z27.89
Y2.82 Z27.923
Y2.558 Z27.934
Y-0.295
X66.557 Y0.026
X66.456 Y0.346
Y2.562
Y2.824 Z27.923
Y3.083 Z27.889
Y3.337 Z27.833
Y3.584 Z27.755
Y3.823 Z27.657
Y4.051 Z27.54
Y4.268 Z27.404
Y4.471 Z27.251
Y4.659 Z27.082
Y4.831 Z26.9
Y4.987 Z26.705
Y5.124 Z26.5
G3 Y5.373 Z26.367 J0.249 K0.167
G1 X66.454 Y5.393
X66.448 Y5.411
X66.439 Y5.429
X66.427 Y5.444
X66.412 Y5.456
X66.394 Y5.465
X66.376 Y5.471
X66.356 Y5.473
X66.337 Y5.471
X66.318 Y5.465
X66.301 Y5.456
X66.285 Y5.444
X66.273 Y5.429
X66.264 Y5.411
X66.258 Y5.393
X66.256 Y5.373
G2 Y5.124 Z26.5 K0.3
G1 Y5.123 Z26.502
Y4.984 Z26.708
Y4.829 Z26.903
Y4.656 Z27.085
Y4.468 Z27.254
Y4.264 Z27.406
Y4.048 Z27.542
Y3.819 Z27.659
Y3.58 Z27.757
Y3.333 Z27.834
Y3.079 Z27.89
Y2.82 Z27.923
Y2.558 Z27.934
Y0.974
X66.156 Y1.275
X66.056 Y1.576
Y2.558
Y2.82 Z27.923
Y3.079 Z27.89
Y3.333 Z27.834
Y3.58 Z27.757
Y3.819 Z27.659
Y4.048 Z27.542
Y4.264 Z27.406
Y4.468 Z27.254
Y4.656 Z27.085
Y4.829 Z26.903
Y4.984 Z26.708
Y5.123 Z26.502
G3 Y5.372 Z26.369 J0.249 K0.167
G1 X66.048 Y5.41
X66.027 Y5.442
X65.994 Y5.464
X65.956 Y5.472
X65.918 Y5.464
X65.885 Y5.442
X65.864 Y5.41
X65.856 Y5.372
G2 Y5.123 Z26.502 K0.3
G1 Y4.984 Z26.708
Y4.829 Z26.903
Y4.656 Z27.085
Y4.468 Z27.254
Y4.264 Z27.406
Y4.048 Z27.542
Y3.819 Z27.659
Y3.58 Z27.757
Y3.333 Z27.834
Y3.079 Z27.89
Y2.82 Z27.923
Y2.558 Z27.934
Y2.175
X65.756 Y2.469
X65.656 Y2.762 Z27.927
Y3.079 Z27.89
Y3.333 Z27.834
Y3.58 Z27.757
Y3.819 Z27.659
Y4.048 Z27.542
Y4.264 Z27.406
Y4.468 Z27.254
Y4.656 Z27.085
Y4.829 Z26.903
Y4.984 Z26.708
Y5.123 Z26.502
G3 Y5.372 Z26.369 J0.249 K0.167
G1 X65.648 Y5.41
X65.627 Y5.442
X65.594 Y5.464
X65.556 Y5.472
X65.518 Y5.464
X65.485 Y5.442
X65.464 Y5.41
X65.456 Y5.372
G2 Y5.123 Z26.502 K0.3
G1 Y4.984 Z26.708
Y4.829 Z26.903
Y4.656 Z27.085
Y4.468 Z27.254
Y4.264 Z27.406
Y4.048 Z27.542
Y3.819 Z27.659
Y3.58 Z27.757
Y3.393 Z27.818
Y3.374 Z27.861
Y3.363 Z27.907
Y3.36 Z27.954
X65.454 Y3.366 Z28.026
X65.448 Y3.386 Z28.094
X65.439 Y3.419 Z28.157
X65.427 Y3.463 Z28.213
X65.412 Y3.516 Z28.258
X65.394 Y3.577 Z28.292
X65.376 Y3.643 Z28.313
X65.356 Y3.711 Z28.32
X65.337 Y3.78 Z28.313
X65.318 Y3.846 Z28.292
X65.301 Y3.907 Z28.258
X65.285 Y3.96 Z28.213
X65.273 Y4.004 Z28.157
X65.264 Y4.036 Z28.094
X65.258 Y4.056 Z28.026
X65.256 Y4.063 Z27.954
Z27.636
Y4.068 Z27.592
Y4.081 Z27.549
Y4.103 Z27.51
Y4.264 Z27.406
Y4.468 Z27.254
Y4.656 Z27.085
Y4.829 Z26.903
Y4.984 Z26.708
Y5.123 Z26.502
G3 Y5.372 Z26.369 J0.249 K0.167
G1 X65.254 Y5.391
X65.248 Y5.41
X65.239 Y5.427
X65.227 Y5.442 Z26.37
X65.212 Y5.455
X65.194 Y5.464
X65.176 Y5.47
X65.156 Y5.472 Z26.371
X65.137 Y5.47
X65.118 Y5.464
X65.101 Y5.455 Z26.372
X65.085 Y5.442
X65.073 Y5.427
X65.064 Y5.41
X65.058 Y5.391 Z26.373
X65.056 Y5.372
Y5.369
G2 Y5.123 Z26.502 K0.3
G1 Y4.933 Z26.775
Y4.92 Z26.803
Y4.915 Z26.833
G0 Z62.
X66.256 Y-3.644
Z37.658
G1 Z33.758 F1440.
G2 Y-4.502 Z33.217 J-0.6
G1 Y-4.713 Z33.317
Y-5.675 Z33.738
Y-6.437 Z34.06
Y-7.176 Z34.337
Y-7.671 Z34.474
Y-8.101 Z34.549
Y-8.361 Z34.575
Y-8.623 Z34.586
Y-8.886 Z34.583
Y-9.355 Z34.529
Y-9.588 Z34.47
Y-9.926 Z34.363
Y-10.039 Z34.316
Y-10.459 Z34.085
Y-10.573 Z34.019
Y-10.688 Z33.943
Y-11.06 Z33.638
Y-11.262 Z33.464
Y-11.418 Z33.305
Y-11.463 Z33.266
Y-11.516 Z33.238
Y-11.573 Z33.22
Y-11.632 Z33.214
Y-12.078
X66.254 Y-12.097
X66.248 Y-12.116
X66.239 Y-12.133 Z33.213
X66.227 Y-12.149
X66.212 Y-12.161 Z33.212
X66.194 Y-12.17 Z33.211
X66.176 Y-12.176 Z33.21
X66.156 Y-12.178 Z33.208
X66.137 Y-12.176 Z33.207
X66.118 Y-12.17 Z33.206
X66.101 Y-12.161 Z33.205
X66.085 Y-12.149 Z33.204
X66.073 Y-12.133 Z33.203
X66.064 Y-12.116
X66.058 Y-12.097 Z33.202
X66.056 Y-12.078
Y-12.014 Z33.209
Y-11.954 Z33.229
Y-11.899 Z33.261
Y-11.852 Z33.305
Y-11.845 Z33.312
Y-11.451 Z33.762
Y-11.237 Z33.982
Y-10.728 Z34.403
Y-10.536 Z34.52
Y-10.209 Z34.688
Y-9.989 Z34.79
Y-9.51 Z34.935
Y-9.275 Z34.983
Y-9.041 Z35.009
Y-8.746 Z35.033
Y-8.306 Z35.015
Y-8.047 Z34.982
Y-7.787 Z34.94
Y-7.533 Z34.883
Y-7.278 Z34.817
Y-7.029 Z34.739
Y-6.287 Z34.483
Y-5.759 Z34.27
Y-4.647 Z33.784
Y-3.932 Z33.451
Y-3.698 Z33.335
Y-3.337 Z33.145
G3 Y-2.897 Z33.411 J0.14 K0.265
G1 X66.055 Y-2.89 Z33.498
X66.05 Y-2.867 Z33.583
X66.043 Y-2.831 Z33.663
X66.033 Y-2.782 Z33.735
X66.02 Y-2.721 Z33.797
X66.006 Y-2.65 Z33.847
X65.99 Y-2.572 Z33.884
X65.973 Y-2.489 Z33.907
X65.956 Y-2.403 Z33.915
X65.939 Y-2.318 Z33.907
X65.922 Y-2.234 Z33.884
X65.906 Y-2.156 Z33.847
X65.892 Y-2.086 Z33.797
X65.879 Y-2.025 Z33.735
X65.869 Y-1.976 Z33.663
X65.862 Y-1.939 Z33.583
X65.858 Y-1.917 Z33.498
X65.856 Y-1.909 Z33.411
Z33.329
G2 Y-2.371 Z33.076 J-0.3
G1 Y-2.567 Z33.201
Y-3.018 Z33.468
Y-3.479 Z33.72
Y-3.923 Z33.943
Y-4.672 Z34.288
Y-5.587 Z34.653
Y-6.383 Z34.962
Y-7.065 Z35.194
Y-7.288 Z35.263
Y-7.543 Z35.328
Y-7.798 Z35.384
Y-8.173 Z35.445
Y-8.553 Z35.468
Y-8.815 Z35.473
Y-9.39 Z35.408
Y-9.52 Z35.375
Y-9.999 Z35.229
Y-10.219 Z35.125
Y-10.546 Z34.957
Y-10.663 Z34.889
Y-10.862 Z34.746
Y-11.238 Z34.457
Y-11.445 Z34.262
Y-11.845 Z33.807
Y-11.891 Z33.764
Y-11.946 Z33.732
Y-12.007 Z33.712
Y-12.07 Z33.705
Y-12.194
X65.855 Y-12.219 Z33.706
X65.853 Y-12.245 Z33.711
X65.848 Y-12.269 Z33.718
X65.843 Y-12.292 Z33.727
X65.835 Y-12.313 Z33.74
X65.827 Y-12.333 Z33.754
X65.817 Y-12.35 Z33.771
X65.806 Y-12.364 Z33.789
X65.794 Y-12.375 Z33.809
X65.782 Y-12.383 Z33.83
X65.769 Y-12.388 Z33.852
X65.756 Y-12.39 Z33.874
X65.743 Y-12.388 Z33.896
X65.73 Y-12.383 Z33.917
X65.718 Y-12.375 Z33.938
X65.706 Y-12.364 Z33.958
X65.695 Y-12.35 Z33.976
X65.685 Y-12.333 Z33.993
X65.677 Y-12.313 Z34.008
X65.669 Y-12.292 Z34.02
X65.664 Y-12.269 Z34.03
X65.66 Y-12.245 Z34.037
X65.657 Y-12.219 Z34.041
X65.656 Y-12.194 Z34.043
G3 Y-11.962 Z34.152 K0.3
G1 Y-11.886 Z34.245
Y-11.388 Z34.764
Y-11.177 Z34.948
Y-10.703 Z35.304
Y-10.547 Z35.397
Y-10.061 Z35.624
Y-9.834 Z35.697
Y-9.375 Z35.815
Y-9.022 Z35.854
Y-8.754 Z35.874
Y-8.229 Z35.853
Y-7.759 Z35.784
Y-7.232 Z35.665
Y-6.448 Z35.423
Y-5.983 Z35.25
Y-4.785 Z34.777
Y-3.82 Z34.37
Y-3.451 Z34.199
Y-2.94 Z33.921
Y-2.603 Z33.719
Y-2.161 Z33.439
Y-1.53 Z33.007
Y-1.478 Z32.979
Y-1.421 Z32.961
Y-1.361 Z32.955
Y-0.585
X65.655 Y-0.566 Z32.954
X65.65 Y-0.548 Z32.953
X65.643 Y-0.531 Z32.95
X65.633 Y-0.515 Z32.945
X65.62 Y-0.502 Z32.94
X65.606 Y-0.491 Z32.935
X65.59 Y-0.483 Z32.928
X65.573 Y-0.478 Z32.921
X65.556 Y-0.477 Z32.914
X65.539 Y-0.478 Z32.907
X65.522 Y-0.483 Z32.9
X65.506 Y-0.491 Z32.894
X65.492 Y-0.502 Z32.888
X65.479 Y-0.515 Z32.883
X65.469 Y-0.531 Z32.879
X65.462 Y-0.548 Z32.876
X65.458 Y-0.566 Z32.874
X65.456 Y-0.585 Z32.873
Y-0.649 Z32.88
Y-0.71 Z32.901
Y-0.766 Z32.934
Y-1.257 Z33.305
Y-1.469 Z33.461
Y-1.898 Z33.76
Y-2.313 Z34.033
Y-2.627 Z34.217
Y-3.09 Z34.463
Y-3.442 Z34.638
Y-3.919 Z34.856
Y-4.781 Z35.218
Y-5.576 Z35.514
Y-6.381 Z35.8
Y-7.068 Z36.015
Y-7.319 Z36.084
Y-7.575 Z36.145
Y-7.805 Z36.19
Y-8.065 Z36.229
Y-8.325 Z36.257
Y-8.72 Z36.273
Y-8.911 Z36.263
Y-9.322 Z36.221
Y-9.527 Z36.178
Y-9.911 Z36.074
Y-10.12 Z35.997
Y-10.578 Z35.78
Y-10.799 Z35.646
Y-11.242 Z35.333
Y-11.437 Z35.156
Y-11.904 Z34.667
Y-12.132 Z34.377
Y-12.346 Z34.091
G2 Y-12.586 Z33.971 J-0.24 K0.18
G1 Y-12.902
X65.454 Y-12.921 Z33.97
X65.448 Y-12.94
X65.439 Y-12.958
X65.427 Y-12.973 Z33.969
X65.412 Y-12.985 Z33.968
X65.394 Y-12.994 Z33.967
X65.376 Y-13. Z33.966
X65.356 Y-13.002 Z33.965
X65.337 Y-13. Z33.963
X65.318 Y-12.994 Z33.962
X65.301 Y-12.985 Z33.961
X65.285 Y-12.973 Z33.96
X65.273 Y-12.958
X65.264 Y-12.94 Z33.959
X65.258 Y-12.921
X65.256 Y-12.902
G3 Y-12.653 Z34.091 K0.3
G1 Y-12.627 Z34.126
Y-12.403 Z34.458
Y-11.953 Z35.051
Y-11.81 Z35.21
Y-11.45 Z35.552
Y-11.23 Z35.741
Y-10.821 Z36.029
Y-10.613 Z36.16
Y-10.147 Z36.382
Y-9.934 Z36.461
Y-9.59 Z36.548
Y-9.344 Z36.601
Y-8.911 Z36.643
Y-8.71 Z36.652
Y-8.282 Z36.636
Y-7.763 Z36.569
Y-7.235 Z36.459
Y-6.429 Z36.214
Y-6.181 Z36.129
Y-5.686 Z35.952
Y-4.724 Z35.601
Y-3.935 Z35.296
Y-3.533 Z35.123
Y-3.063 Z34.892
Y-2.601 Z34.646
Y-2.374 Z34.517
Y-1.925 Z34.249
Y-1.581 Z34.034
Y-1.084 Z33.676
Y-0.667 Z33.356
Y-0.052 Z32.865
Y0.005 Z32.829
Y0.069 Z32.807
Y0.135 Z32.799
Y0.826
X65.255 Y0.845
X65.25 Y0.863 Z32.797
X65.243 Y0.88 Z32.794
X65.233 Y0.896 Z32.79
X65.22 Y0.909 Z32.785
X65.206 Y0.92 Z32.779
X65.19 Y0.928 Z32.772
X65.173 Y0.932 Z32.765
X65.156 Y0.934 Z32.758
X65.139 Y0.932 Z32.751
X65.122 Y0.928 Z32.744
X65.106 Y0.92 Z32.738
X65.092 Y0.909 Z32.732
X65.08 Y0.896 Z32.727
X65.07 Y0.88 Z32.723
X65.062 Y0.863 Z32.72
X65.058 Y0.845 Z32.718
X65.056 Y0.826 Z32.717
Y0.774 Z32.722
Y0.723 Z32.735
Y0.676 Z32.757
Y0.633 Z32.787
Y-0.029 Z33.343
Y-0.641 Z33.833
Y-0.946 Z34.053
Y-1.478 Z34.41
Y-1.92 Z34.689
Y-2.426 Z34.99
Y-2.829 Z35.202
Y-3.064 Z35.315
Y-3.542 Z35.53
Y-3.784 Z35.633
Y-4.516 Z35.92
Y-4.983 Z36.095
Y-5.699 Z36.351
Y-6.198 Z36.516
Y-6.448 Z36.595
Y-7.237 Z36.821
Y-7.766 Z36.93
Y-8.27 Z36.996
Y-8.764 Z37.013
Y-9.267 Z36.971
Y-9.529 Z36.924
Y-9.987 Z36.806
Y-10.212 Z36.717
Y-10.645 Z36.523
Y-10.903 Z36.365
Y-11.246 Z36.127
Y-11.476 Z35.926
Y-11.861 Z35.557
Y-12.066 Z35.328
Y-12.401 Z34.903
Y-12.626 Z34.569
G2 Y-12.875 Z34.437 J-0.249 K0.168
G1 Y-12.911
X65.055 Y-12.939 Z34.438
X65.053 Y-12.967 Z34.443
X65.048 Y-12.994 Z34.451
X65.043 Y-13.019 Z34.462
X65.035 Y-13.043 Z34.476
X65.027 Y-13.064 Z34.492
X65.017 Y-13.082 Z34.511
X65.006 Y-13.098 Z34.532
X64.994 Y-13.11 Z34.554
X64.982 Y-13.119 Z34.578
X64.969 Y-13.125 Z34.602
X64.956 Y-13.127 Z34.627
X64.943 Y-13.125 Z34.652
X64.93 Y-13.119 Z34.677
X64.918 Y-13.11 Z34.7
X64.906 Y-13.098 Z34.723
X64.895 Y-13.082 Z34.743
X64.885 Y-13.064 Z34.762
X64.877 Y-13.043 Z34.779
X64.87 Y-13.019 Z34.793
X64.864 Y-12.994 Z34.804
X64.86 Y-12.967 Z34.812
X64.857 Y-12.939 Z34.817
X64.856 Y-12.911 Z34.818
G3 Y-12.665 Z34.948 K0.3
G1 Y-12.47 Z35.229
Y-12.039 Z35.759
Y-11.823 Z35.994
Y-11.46 Z36.329
Y-11.258 Z36.493
Y-10.849 Z36.761
Y-10.64 Z36.886
Y-10.206 Z37.081
Y-9.982 Z37.169
Y-9.501 Z37.292
Y-9.275 Z37.331
Y-8.909 Z37.365
Y-8.644 Z37.371
Y-8.379 Z37.361
Y-8.119 Z37.341
Y-7.859 Z37.304
Y-7.628 Z37.267
Y-7.371 Z37.211
Y-7.118 Z37.15
Y-6.425 Z36.949
Y-5.638 Z36.692
Y-4.644 Z36.355
Y-3.992 Z36.115
Y-3.446 Z35.888
Y-3.208 Z35.78
Y-2.735 Z35.554
Y-2.096 Z35.22
Y-1.57 Z34.913
Y-0.957 Z34.504
Y-0.529 Z34.203
Y-0.104 Z33.894
Y0.098 Z33.734
Y0.702 Z33.227
Y1.294 Z32.715
Y1.337 Z32.684
Y1.385 Z32.661
Y1.437 Z32.647
Y1.49 Z32.642
Y2.146
X64.855 Y2.165 Z32.641
X64.85 Y2.183 Z32.64
X64.843 Y2.2 Z32.637
X64.833 Y2.215 Z32.633
X64.82 Y2.228 Z32.628
X64.806 Y2.239 Z32.622
X64.79 Y2.247 Z32.616
X64.773 Y2.252 Z32.609
X64.756 Y2.254 Z32.603
X64.739 Y2.252 Z32.596
X64.722 Y2.247 Z32.589
X64.706 Y2.239 Z32.583
X64.692 Y2.228 Z32.577
X64.68 Y2.215 Z32.572
X64.67 Y2.2 Z32.568
X64.662 Y2.183 Z32.566
X64.658 Y2.165 Z32.564
X64.656 Y2.146 Z32.563
Y2.092 Z32.568
Y2.041 Z32.582
Y1.992 Z32.606
Y1.949 Z32.637
Y0.811 Z33.633
Y0.507 Z33.873
Y-0.12 Z34.35
Y-0.546 Z34.659
Y-0.866 Z34.882
Y-1.172 Z35.077
Y-1.621 Z35.348
Y-2.054 Z35.596
Y-2.634 Z35.902
Y-2.987 Z36.076
Y-3.469 Z36.281
Y-3.934 Z36.461
Y-4.8 Z36.77
Y-5.895 Z37.138
Y-6.394 Z37.301
Y-7.128 Z37.503
Y-7.624 Z37.608
Y-8.192 Z37.685
Y-8.721 Z37.707
Y-8.956 Z37.697
Y-9.339 Z37.66
Y-9.569 Z37.618
Y-10.015 Z37.506
Y-10.363 Z37.371
Y-10.634 Z37.25
Y-10.893 Z37.093
Y-11.288 Z36.831
Y-11.568 Z36.595
Y-11.834 Z36.361
Y-12.058 Z36.131
Y-12.483 Z35.61
Y-12.693 Z35.307
Y-12.984 Z34.866
G2 Y-13.234 Z34.731 J-0.251 K0.165
G1 Y-13.495
X64.654 Y-13.515 Z34.73
X64.648 Y-13.534 Z34.729
X64.639 Y-13.552 Z34.727
X64.627 Y-13.568 Z34.724
X64.612 Y-13.58 Z34.721
X64.594 Y-13.59 Z34.717
X64.576 Y-13.596 Z34.713
X64.556 Y-13.598 Z34.708
X64.537 Y-13.596 Z34.704
X64.518 Y-13.59 Z34.7
X64.501 Y-13.58 Z34.696
X64.485 Y-13.568 Z34.693
X64.473 Y-13.552 Z34.69
X64.464 Y-13.534 Z34.688
X64.458 Y-13.515 Z34.687
X64.456 Y-13.495 Z34.686
G3 Y-13.235 Z34.837 K0.3
G1 Y-13.032 Z35.191
Y-12.691 Z35.709
Y-12.476 Z36.015
Y-12.065 Z36.484
Y-11.83 Z36.725
Y-11.428 Z37.079
Y-11.214 Z37.244
Y-10.852 Z37.465
Y-10.641 Z37.58
Y-10.259 Z37.746
Y-9.976 Z37.844
Y-9.633 Z37.934
Y-9.282 Z37.995
Y-9.009 Z38.024
Y-8.528 Z38.033
Y-8.135 Z38.007
Y-7.874 Z37.976
Y-7.615 Z37.934
Y-7.358 Z37.883
Y-7.118 Z37.829
Y-6.342 Z37.617
Y-5.225 Z37.272
Y-4.616 Z37.067
Y-3.936 Z36.823
Y-3.388 Z36.609
Y-2.907 Z36.403
Y-2.433 Z36.182
Y-2.095 Z36.013
Y-1.651 Z35.764
Y-1.089 Z35.425
Y-0.647 Z35.142
Y-0.105 Z34.781
Y0.836 Z34.066
Y1.316 Z33.686
Y1.998 Z33.091
Y2.581 Z32.564
Y2.626 Z32.531
Y2.675 Z32.506
Y2.728 Z32.491
Y2.783 Z32.486
Y3.411
X64.455 Y3.43
X64.45 Y3.448 Z32.484
X64.443 Y3.465 Z32.481
X64.433 Y3.48 Z32.478
X64.42 Y3.493 Z32.473
X64.406 Y3.504 Z32.468
X64.39 Y3.511 Z32.462
X64.373 Y3.516 Z32.456
X64.356 Y3.518 Z32.449
X64.339 Y3.516 Z32.443
X64.322 Y3.511 Z32.437
X64.306 Y3.504 Z32.431
X64.292 Y3.493 Z32.425
X64.28 Y3.48 Z32.421
X64.27 Y3.465 Z32.417
X64.262 Y3.448 Z32.415
X64.258 Y3.43 Z32.413
X64.256 Y3.411 Z32.412
Y3.356 Z32.417
Y3.303 Z32.432
Y3.254 Z32.457
Y3.21 Z32.49
Y2.02 Z33.567
Y0.817 Z34.524
Y0.418 Z34.817
Y-0.013 Z35.118
Y-0.644 Z35.539
Y-1.199 Z35.888
Y-1.517 Z36.069
Y-1.978 Z36.315
Y-2.445 Z36.549
Y-2.92 Z36.77
Y-3.376 Z36.965
Y-3.948 Z37.183
Y-4.609 Z37.404
Y-5.862 Z37.799
Y-6.364 Z37.951
Y-6.87 Z38.093
Y-7.124 Z38.158
Y-7.38 Z38.217
Y-7.896 Z38.308
Y-8.417 Z38.358
Y-8.679 Z38.36
Y-9.082 Z38.348
Y-9.579 Z38.275
Y-9.824 Z38.216
Y-10.164 Z38.111
Y-10.389 Z38.024
Y-10.818 Z37.816
Y-11.025 Z37.692
Y-11.227 Z37.563
Y-11.491 Z37.368
Y-11.879 Z37.039
Y-12.133 Z36.768
Y-12.522 Z36.319
Y-12.738 Z36.025
Y-12.957 Z35.706
Y-13.161 Z35.367
Y-13.499 Z34.761
G2 Y-13.761 Z34.606 J-0.262 K0.146
G1 Y-13.78
X64.255 Y-13.807 Z34.608
X64.253 Y-13.833 Z34.613
X64.249 Y-13.859 Z34.62
X64.243 Y-13.883 Z34.631
X64.235 Y-13.906 Z34.644
X64.227 Y-13.926 Z34.659
X64.217 Y-13.944 Z34.677
X64.206 Y-13.959 Z34.697
X64.194 Y-13.971 Z34.718
X64.182 Y-13.98 Z34.741
X64.169 Y-13.985 Z34.764
X64.156 Y-13.987 Z34.787
X64.143 Y-13.985 Z34.811
X64.13 Y-13.98 Z34.834
X64.118 Y-13.971 Z34.857
X64.106 Y-13.959 Z34.878
X64.095 Y-13.944 Z34.898
X64.085 Y-13.926 Z34.915
X64.077 Y-13.906 Z34.931
X64.07 Y-13.883 Z34.944
X64.064 Y-13.859 Z34.955
X64.06 Y-13.833 Z34.962
X64.057 Y-13.807 Z34.967
X64.056 Y-13.78 Z34.968
G3 Y-13.517 Z35.123 K0.3
G1 Y-13.233 Z35.637
Y-13.04 Z35.959
Y-12.553 Z36.639
Y-12.339 Z36.896
Y-11.967 Z37.29
Y-11.698 Z37.529
Y-11.418 Z37.755
Y-11.025 Z38.024
Y-10.805 Z38.15
Y-10.333 Z38.37
Y-10.023 Z38.47
Y-9.679 Z38.563
Y-9.329 Z38.621
Y-9.026 Z38.655
Y-8.524 Z38.665
Y-8.033 Z38.631
Y-7.579 Z38.565
Y-7.066 Z38.46
Y-6.147 Z38.216
Y-4.736 Z37.774
Y-3.988 Z37.525
Y-3.494 Z37.347
Y-3.005 Z37.157
Y-2.525 Z36.948
Y-2.054 Z36.715
Y-1.59 Z36.469
Y-1.132 Z36.213
Y-0.479 Z35.826
Y-0.045 Z35.539
Y0.602 Z35.088
Y1.029 Z34.785
Y1.322 Z34.568
Y2.054 Z33.985
Y2.725 Z33.427
Y3.209 Z32.988
Y3.823 Z32.413
Y3.868 Z32.378
Y3.918 Z32.353
Y3.972 Z32.337
Y4.028 Z32.332
Y4.632
X64.055 Y4.65 Z32.331
X64.05 Y4.668 Z32.329
X64.043 Y4.685 Z32.327
X64.033 Y4.7 Z32.323
X64.02 Y4.713 Z32.318
X64.006 Y4.724 Z32.313
X63.99 Y4.732 Z32.307
X63.973 Y4.737 Z32.301
X63.956 Y4.738 Z32.295
X63.939 Y4.737 Z32.288
X63.922 Y4.732 Z32.282
X63.906 Y4.724 Z32.276
X63.892 Y4.713 Z32.271
X63.88 Y4.7 Z32.266
X63.87 Y4.685 Z32.263
X63.862 Y4.668 Z32.26
X63.858 Y4.65 Z32.258
X63.856 Y4.632
Y4.575 Z32.263
Y4.52 Z32.279
Y4.47 Z32.305
Y4.425 Z32.34
Y4.012 Z32.733
Y3.34 Z33.361
Y3.065 Z33.596
Y1.999 Z34.471
Y1.421 Z34.897
Y0.784 Z35.359
Y0.206 Z35.755
Y-0.285 Z36.067
Y-0.732 Z36.339
Y-1.162 Z36.59
Y-1.62 Z36.846
Y-2.088 Z37.079
Y-2.565 Z37.298
Y-3.047 Z37.502
Y-3.782 Z37.781
Y-4.029 Z37.868
Y-4.777 Z38.115
Y-5.784 Z38.415
Y-6.289 Z38.56
Y-7.052 Z38.758
Y-7.565 Z38.864
Y-7.823 Z38.905
Y-8.084 Z38.937
Y-8.477 Z38.963
Y-8.877 Z38.965
Y-9.113 Z38.947
Y-9.348 Z38.923
Y-9.582 Z38.883
Y-9.927 Z38.803
Y-10.042 Z38.769
Y-10.269 Z38.693
Y-10.544 Z38.582
Y-10.919 Z38.399
Y-11.126 Z38.276
Y-11.519 Z38.008
Y-11.795 Z37.772
Y-12.126 Z37.46
Y-12.507 Z37.046
Y-12.698 Z36.802
Y-13.056 Z36.296
Y-13.462 Z35.623
Y-13.517 Z35.523
G2 Y-13.78 Z35.365 J-0.264 K0.143
G1 Y-13.953
X63.854 Y-13.973 Z35.366
X63.849 Y-13.993 Z35.367
X63.839 Y-14.01 Z35.369
X63.827 Y-14.026 Z35.372
X63.812 Y-14.039 Z35.376
X63.794 Y-14.048 Z35.38
X63.776 Y-14.054 Z35.384
X63.756 Y-14.056 Z35.389
X63.737 Y-14.054 Z35.394
X63.718 Y-14.048 Z35.398
X63.701 Y-14.039 Z35.402
X63.685 Y-14.026 Z35.406
X63.673 Y-14.01 Z35.409
X63.664 Y-13.993 Z35.411
X63.658 Y-13.973 Z35.412
X63.656 Y-13.953 Z35.413
G3 Y-13.685 Z35.578 K0.3
G1 Y-13.681 Z35.586
Y-13.456 Z35.998
Y-13.027 Z36.7
Y-12.689 Z37.151
Y-12.398 Z37.496
Y-12.15 Z37.767
Y-11.842 Z38.052
Y-11.568 Z38.279
Y-11.22 Z38.519
Y-10.886 Z38.716
Y-10.577 Z38.871
Y-10.233 Z39.005
Y-10.007 Z39.084
Y-9.75 Z39.145
Y-9.401 Z39.217
Y-8.806 Z39.266
Y-8.292 Z39.254
Y-7.786 Z39.2
Y-7.263 Z39.107
Y-7.008 Z39.047
Y-6.482 Z38.914
Y-5.993 Z38.776
Y-4.733 Z38.405
Y-3.98 Z38.17
Y-3.732 Z38.085
Y-3.263 Z37.916
Y-2.778 Z37.719
Y-2.538 Z37.614
Y-2.062 Z37.394
Y-1.591 Z37.163
Y-1.126 Z36.92
Y-0.807 Z36.743
Y-0.47 Z36.542
Y-0.025 Z36.266
Y0.637 Z35.838
Y1.003 Z35.598
Y1.9 Z34.946
Y2.508 Z34.49
Y2.711 Z34.33
Y3.117 Z33.996
Y3.852 Z33.373
Y4.319 Z32.94
Y5.006 Z32.267
Y5.051 Z32.231
Y5.102 Z32.204
Y5.158 Z32.187
Y5.216 Z32.182
Y5.782
X63.655 Y5.8 Z32.181
X63.65 Y5.818 Z32.179
X63.643 Y5.835 Z32.177
X63.633 Y5.851 Z32.173
X63.62 Y5.864 Z32.168
X63.606 Y5.875 Z32.162
X63.59 Y5.883 Z32.156
X63.573 Y5.887 Z32.15
X63.556 Y5.889 Z32.143
X63.539 Y5.887 Z32.136
X63.522 Y5.883 Z32.13
X63.506 Y5.875 Z32.124
X63.492 Y5.864 Z32.118
X63.48 Y5.851 Z32.114
X63.47 Y5.835 Z32.11
X63.462 Y5.818 Z32.107
X63.458 Y5.8 Z32.105
X63.456 Y5.782
Y5.723 Z32.11
Y5.666 Z32.128
Y5.613 Z32.156
Y5.568 Z32.194
Y5.18 Z32.59
Y4.809 Z32.962
Y4.62 Z33.145
Y4.277 Z33.454
Y3.254 Z34.323
Y2.231 Z35.098
Y1.809 Z35.411
Y1.4 Z35.691
Y0.964 Z35.986
Y-0.092 Z36.667
Y-0.822 Z37.082
Y-1.574 Z37.482
Y-1.985 Z37.686
Y-2.401 Z37.88
Y-2.702 Z38.007
Y-3.19 Z38.197
Y-3.932 Z38.456
Y-4.811 Z38.729
Y-5.819 Z39.026
Y-6.426 Z39.193
Y-7.253 Z39.388
Y-7.773 Z39.478
Y-8.301 Z39.533
Y-8.827 Z39.544
Y-9.382 Z39.499
Y-9.962 Z39.381
Y-10.191 Z39.308
Y-10.66 Z39.132
Y-10.978 Z38.963
Y-11.253 Z38.802
Y-11.507 Z38.624
Y-11.835 Z38.364
Y-12.191 Z38.043
Y-12.401 Z37.818
Y-12.686 Z37.486
Y-13.084 Z36.952
Y-13.406 Z36.442
Y-13.628 Z36.05
Y-13.924 Z35.478
G2 Y-14.19 Z35.315 J-0.267 K0.138
G1 Y-14.258
X63.455 Y-14.281 Z35.317
X63.451 Y-14.304 Z35.321
X63.445 Y-14.326 Z35.328
X63.437 Y-14.346 Z35.337
X63.427 Y-14.364 Z35.348
X63.415 Y-14.38 Z35.362
X63.402 Y-14.392 Z35.377
X63.387 Y-14.401 Z35.393
X63.372 Y-14.407 Z35.41
X63.356 Y-14.408 Z35.428
X63.34 Y-14.407 Z35.446
X63.325 Y-14.401 Z35.463
X63.311 Y-14.392 Z35.479
X63.297 Y-14.38 Z35.494
X63.285 Y-14.364 Z35.508
X63.275 Y-14.346 Z35.519
X63.267 Y-14.326 Z35.528
X63.261 Y-14.304 Z35.535
X63.257 Y-14.281 Z35.539
X63.256 Y-14.258 Z35.541
G3 Y-13.989 Z35.708 K0.3
G1 Y-13.94 Z35.807
Y-13.536 Z36.579
Y-13.143 Z37.193
Y-12.747 Z37.738
Y-12.387 Z38.141
Y-12.135 Z38.395
Y-11.88 Z38.63
Y-11.464 Z38.953
Y-11.251 Z39.097
Y-10.768 Z39.359
Y-10.529 Z39.464
Y-10.019 Z39.644
Y-9.53 Z39.751
Y-9.295 Z39.787
Y-8.791 Z39.824
Y-8.3 Z39.811
Y-7.771 Z39.756
Y-7.254 Z39.667
Y-6.737 Z39.546
Y-6.228 Z39.419
Y-5.974 Z39.35
Y-4.772 Z39.014
Y-3.981 Z38.772
Y-3.484 Z38.604
Y-2.993 Z38.423
Y-2.506 Z38.227
Y-2.025 Z38.017
Y-1.514 Z37.779
Y-0.625 Z37.302
Y0.056 Z36.909
Y0.281 Z36.773
Y0.782 Z36.466
Y2.012 Z35.638
Y2.419 Z35.354
Y3.256 Z34.721
Y3.955 Z34.172
Y4.649 Z33.569
Y5.185 Z33.081
Y5.553 Z32.707
Y6.106 Z32.124
Y6.152 Z32.084
Y6.205 Z32.054
Y6.263 Z32.036
Y6.324 Z32.03
Y6.849
X63.255 Y6.868 Z32.029
X63.25 Y6.886 Z32.028
X63.243 Y6.903 Z32.025
X63.233 Y6.918 Z32.021
X63.22 Y6.931 Z32.016
X63.206 Y6.942 Z32.011
X63.19 Y6.95 Z32.005
X63.173 Y6.955 Z31.998
X63.156 Y6.957 Z31.991
X63.139 Y6.955 Z31.985
X63.122 Y6.95 Z31.978
X63.106 Y6.942 Z31.972
X63.092 Y6.931 Z31.967
X63.08 Y6.918 Z31.962
X63.07 Y6.903 Z31.958
X63.062 Y6.886 Z31.955
X63.058 Y6.868 Z31.953
X63.056 Y6.849
Y6.788 Z31.959
Y6.728 Z31.978
Y6.675 Z32.009
Y6.628 Z32.05
Y6.087 Z32.641
Y5.638 Z33.108
Y5.197 Z33.518
Y4.632 Z34.027
Y4.343 Z34.269
Y3.112 Z35.23
Y1.931 Z36.054
Y1.495 Z36.348
Y1.041 Z36.639
Y0.158 Z37.177
Y-0.664 Z37.65
Y-1.452 Z38.05
Y-1.926 Z38.274
Y-2.405 Z38.486
Y-2.89 Z38.684
Y-3.381 Z38.865
Y-4.005 Z39.066
Y-4.634 Z39.253
Y-5.873 Z39.6
Y-6.38 Z39.738
Y-7.233 Z39.942
Y-7.765 Z40.032
Y-8.294 Z40.085
Y-8.819 Z40.096
Y-9.32 Z40.06
Y-9.567 Z40.02
Y-10.03 Z39.919
Y-10.59 Z39.72
Y-10.808 Z39.616
Y-11.248 Z39.377
Y-11.451 Z39.242
Y-11.853 Z38.946
Y-12.082 Z38.746
Y-12.462 Z38.365
Y-12.741 Z38.046
Y-12.999 Z37.715
Y-13.218 Z37.411
Y-13.545 Z36.888
Y-13.668 Z36.676
Y-13.924 Z36.199
Y-13.989 Z36.068
G2 Y-14.258 Z35.902 J-0.269 K0.134
G1 Y-14.317
X63.055 Y-14.341 Z35.903
X63.051 Y-14.364 Z35.907
X63.045 Y-14.387 Z35.914
X63.037 Y-14.407 Z35.924
X63.027 Y-14.425 Z35.936
X63.015 Y-14.441 Z35.95
X63.002 Y-14.454 Z35.965
X62.987 Y-14.463 Z35.982
X62.972 Y-14.468 Z36.
X62.956 Y-14.47 Z36.018
X62.94 Y-14.468 Z36.036
X62.925 Y-14.463 Z36.054
X62.911 Y-14.454 Z36.071
X62.897 Y-14.441 Z36.086
X62.885 Y-14.425 Z36.1
X62.875 Y-14.407 Z36.112
X62.867 Y-14.387 Z36.122
X62.861 Y-14.364 Z36.128
X62.857 Y-14.341 Z36.133
X62.856 Y-14.317 Z36.134
G3 Y-14.053 Z36.293 K0.3
G1 Y-13.707 Z36.938
Y-13.418 Z37.422
Y-13.284 Z37.631
Y-12.96 Z38.073
Y-12.605 Z38.508
Y-12.43 Z38.699
Y-12.074 Z39.035
Y-11.879 Z39.205
Y-11.486 Z39.496
Y-11.273 Z39.641
Y-10.842 Z39.875
Y-10.611 Z39.983
Y-10.15 Z40.144
Y-9.92 Z40.208
Y-9.573 Z40.277
Y-9.338 Z40.316
Y-9.103 Z40.335
Y-8.733 Z40.355
Y-8.331 Z40.344
Y-8.096 Z40.326
Y-7.835 Z40.298
Y-7.602 Z40.266
Y-7.343 Z40.221
Y-7.087 Z40.171
Y-6.574 Z40.053
Y-5.811 Z39.861
Y-4.799 Z39.579
Y-3.819 Z39.287
Y-3.346 Z39.131
Y-2.853 Z38.954
Y-2.364 Z38.763
Y-1.988 Z38.603
Y-1.41 Z38.33
Y-0.941 Z38.095
Y-0.477 Z37.852
Y0.213 Z37.472
Y1.108 Z36.923
Y2.058 Z36.326
Y3.267 Z35.482
Y3.774 Z35.114
Y4.29 Z34.711
Y4.879 Z34.233
Y5.181 Z33.976
Y5.637 Z33.553
Y6.184 Z33.026
Y6.538 Z32.647
Y7.132 Z31.98
Y7.179 Z31.937
Y7.233 Z31.906
Y7.293 Z31.886
Y7.356 Z31.879
Y7.851
X62.855 Y7.87
X62.85 Y7.888 Z31.877
X62.843 Y7.905 Z31.874
X62.833 Y7.92 Z31.87
X62.82 Y7.933 Z31.866
X62.806 Y7.944 Z31.86
X62.79 Y7.952 Z31.854
X62.774 Y7.957 Z31.848
X62.756 Y7.958 Z31.841
X62.739 Y7.957 Z31.835
X62.722 Y7.952 Z31.828
X62.706 Y7.944 Z31.822
X62.692 Y7.933 Z31.817
X62.68 Y7.92 Z31.812
X62.67 Y7.905 Z31.809
X62.662 Y7.888 Z31.806
X62.658 Y7.87 Z31.804
X62.656 Y7.851 Z31.803
Y7.788 Z31.81
Y7.727 Z31.83
Y7.672 Z31.863
Y7.625 Z31.907
Y6.954 Z32.679
Y6.658 Z32.998
Y6.059 Z33.592
Y5.628 Z33.999
Y5.105 Z34.443
Y4.518 Z34.925
Y4.219 Z35.156
Y3.059 Z35.99
Y2.649 Z36.27
Y1.988 Z36.699
Y1.319 Z37.117
Y0.669 Z37.512
Y0.216 Z37.774
Y-0.474 Z38.152
Y-1.114 Z38.485
Y-1.409 Z38.625
Y-1.887 Z38.84
Y-2.371 Z39.044
Y-2.859 Z39.235
Y-3.353 Z39.412
Y-3.825 Z39.568
Y-4.58 Z39.79
Y-5.849 Z40.129
Y-6.485 Z40.291
Y-7.126 Z40.437
Y-7.641 Z40.53
Y-8.135 Z40.589
Y-8.37 Z40.603
Y-8.839 Z40.611
Y-9.404 Z40.566
Y-9.985 Z40.451
Y-10.326 Z40.342
Y-10.66 Z40.221
Y-11.193 Z39.954
Y-11.444 Z39.8
Y-11.896 Z39.471
Y-12.178 Z39.216
Y-12.522 Z38.885
Y-12.953 Z38.385
Y-13.204 Z38.045
Y-13.407 Z37.748
Y-13.721 Z37.246
Y-14.101 Z36.525
Y-14.269 Z36.177
G2 Y-14.539 Z36.007 J-0.27 K0.13
G1 Y-14.697
X62.654 Y-14.716
X62.649 Y-14.735
X62.639 Y-14.752
X62.627 Y-14.767
X62.612 Y-14.78
X62.594 Y-14.789
X62.576 Y-14.795 Z36.006
X62.556 Y-14.797
X62.537 Y-14.795
X62.518 Y-14.789
X62.501 Y-14.78
X62.485 Y-14.767
X62.473 Y-14.752
X62.464 Y-14.735
X62.458 Y-14.716
X62.456 Y-14.697
G3 Y-14.426 Z36.177 K0.3
G1 Y-14.409 Z36.211
Y-14.12 Z36.818
Y-13.835 Z37.356
Y-13.715 Z37.564
Y-13.572 Z37.796
Y-13.242 Z38.289
Y-13.025 Z38.583
Y-12.538 Z39.147
Y-12.174 Z39.498
Y-11.897 Z39.738
Y-11.448 Z40.056
Y-11.203 Z40.206
Y-10.671 Z40.474
Y-10.225 Z40.635
Y-9.983 Z40.71
Y-9.389 Z40.825
Y-8.857 Z40.865
Y-8.305 Z40.856
Y-7.767 Z40.805
Y-7.185 Z40.709
Y-6.29 Z40.502
Y-6.036 Z40.436
Y-4.765 Z40.099
Y-3.781 Z39.819
Y-3.53 Z39.741
Y-3.032 Z39.576
Y-2.541 Z39.391
Y-2.055 Z39.192
Y-1.574 Z38.98
Y-1.122 Z38.769
Y-0.651 Z38.538
Y-0.222 Z38.317
Y0.501 Z37.913
Y1.18 Z37.515
Y1.833 Z37.125
Y2.715 Z36.556
Y3.351 Z36.138
Y3.564 Z35.99
Y4.203 Z35.528
Y4.846 Z35.048
Y5.368 Z34.621
Y6.011 Z34.062
Y6.299 Z33.8
Y6.926 Z33.168
Y7.329 Z32.747
Y7.803 Z32.195
G3 Y8.031 Z32.091 J0.228 K0.196
G1 Y8.066
X62.455 Y8.096 Z32.093
X62.453 Y8.126 Z32.098
X62.45 Y8.154 Z32.106
X62.445 Y8.182 Z32.117
X62.438 Y8.207 Z32.131
X62.431 Y8.231 Z32.148
X62.422 Y8.252 Z32.167
X62.413 Y8.271 Z32.189
X62.403 Y8.286 Z32.212
X62.392 Y8.298 Z32.237
X62.38 Y8.307 Z32.264
X62.368 Y8.313 Z32.291
X62.356 Y8.314 Z32.318
X62.344 Y8.313 Z32.345
X62.332 Y8.307 Z32.372
X62.321 Y8.298 Z32.398
X62.31 Y8.286 Z32.423
X62.299 Y8.271 Z32.447
X62.29 Y8.252 Z32.468
X62.281 Y8.231 Z32.488
X62.274 Y8.207 Z32.505
X62.268 Y8.182 Z32.519
X62.263 Y8.154 Z32.53
X62.259 Y8.126 Z32.538
X62.257 Y8.096 Z32.543
X62.256 Y8.066 Z32.545
Y8.005 Z32.551
Y7.947 Z32.57
Y7.893 Z32.6
Y7.847 Z32.64
Y7.379 Z33.142
Y6.831 Z33.708
Y6.665 Z33.867
Y6.082 Z34.397
Y5.51 Z34.892
Y4.889 Z35.376
Y4.154 Z35.924
Y3.177 Z36.582
Y2.407 Z37.085
Y1.872 Z37.412
Y0.74 Z38.078
Y0.305 Z38.32
Y-0.158 Z38.566
Y-0.626 Z38.805
Y-1.312 Z39.136
Y-2.06 Z39.469
Y-2.764 Z39.739
Y-3.011 Z39.827
Y-3.484 Z39.984
Y-3.987 Z40.137
Y-4.72 Z40.344
Y-5.735 Z40.615
Y-6.245 Z40.743
Y-6.757 Z40.858
Y-7.27 Z40.967
Y-7.763 Z41.044
Y-8.22 Z41.091
Y-8.819 Z41.106
Y-9.412 Z41.061
Y-9.956 Z40.959
Y-10.249 Z40.873
Y-10.598 Z40.756
Y-10.831 Z40.655
Y-11.266 Z40.43
Y-11.482 Z40.29
Y-11.882 Z40.008
Y-12.08 Z39.843
Y-12.506 Z39.457
Y-12.706 Z39.235
Y-13.032 Z38.853
Y-13.318 Z38.466
Y-13.56 Z38.119
Y-13.898 Z37.548
Y-14.172 Z37.042
Y-14.444 Z36.463
G2 Y-14.715 Z36.29 J-0.272 K0.127
G1 Y-14.748
X62.255 Y-14.771 Z36.292
X62.252 Y-14.794 Z36.295
X62.247 Y-14.816 Z36.302
X62.24 Y-14.836 Z36.311
X62.232 Y-14.854 Z36.322
X62.222 Y-14.871 Z36.334
X62.21 Y-14.885 Z36.349
X62.198 Y-14.896 Z36.365
X62.184 Y-14.904 Z36.382
X62.17 Y-14.909 Z36.4
X62.156 Y-14.911 Z36.418
X62.142 Y-14.909 Z36.436
X62.128 Y-14.904 Z36.454
X62.115 Y-14.896 Z36.471
X62.102 Y-14.885 Z36.487
X62.091 Y-14.871 Z36.502
X62.081 Y-14.854 Z36.515
X62.072 Y-14.836 Z36.526
X62.065 Y-14.816 Z36.535
X62.06 Y-14.794 Z36.541
X62.057 Y-14.771 Z36.545
X62.056 Y-14.748 Z36.546
G3 Y-14.478 Z36.717 K0.3
G1 Y-14.222 Z37.25
Y-13.898 Z37.852
Y-13.547 Z38.424
Y-13.186 Z38.928
Y-12.995 Z39.178
Y-12.663 Z39.549
Y-12.441 Z39.778
Y-12.077 Z40.105
Y-11.879 Z40.27
Y-11.525 Z40.516
Y-11.257 Z40.683
Y-10.818 Z40.901
Y-10.598 Z40.996
Y-10.155 Z41.144
Y-9.904 Z41.209
Y-9.426 Z41.298
Y-8.954 Z41.337
Y-8.702 Z41.346
Y-8.169 Z41.326
Y-7.777 Z41.285
Y-7.544 Z41.251
Y-7.285 Z41.208
Y-7.028 Z41.157
Y-6.259 Z40.986
Y-6.004 Z40.922
Y-4.756 Z40.606
Y-3.996 Z40.397
Y-3.494 Z40.245
Y-2.995 Z40.08
Y-2.441 Z39.877
Y-1.652 Z39.557
Y-0.936 Z39.235
Y-0.115 Z38.822
Y0.557 Z38.463
Y1.069 Z38.184
Y1.9 Z37.695
Y2.799 Z37.15
Y3.217 Z36.883
Y4.09 Z36.298
Y4.788 Z35.813
Y5.36 Z35.372
Y5.769 Z35.046
Y6.152 Z34.731
Y6.541 Z34.379
Y7.114 Z33.843
Y7.464 Z33.496
Y8.18 Z32.73
Y8.333 Z32.558
Y8.38 Z32.516
Y8.434 Z32.484
Y8.494 Z32.464
Y8.557 Z32.457
Y9.035
X62.055 Y9.054
X62.05 Y9.072 Z32.455
X62.043 Y9.09 Z32.452
X62.033 Y9.105 Z32.448
X62.02 Y9.118 Z32.443
X62.006 Y9.129 Z32.437
X61.99 Y9.137 Z32.43
X61.974 Y9.142 Z32.423
X61.956 Y9.144 Z32.416
X61.939 Y9.142 Z32.409
X61.922 Y9.137 Z32.402
X61.906 Y9.129 Z32.395
X61.892 Y9.118 Z32.389
X61.88 Y9.105 Z32.384
X61.87 Y9.09 Z32.38
X61.862 Y9.072 Z32.377
X61.858 Y9.054 Z32.375
X61.856 Y9.035 Z32.374
Y8.973 Z32.381
Y8.913 Z32.4
Y8.859 Z32.432
Y8.812 Z32.474
Y8.362 Z32.974
Y7.802 Z33.578
Y7.096 Z34.259
Y6.625 Z34.694
Y5.955 Z35.255
Y5.389 Z35.71
Y4.726 Z36.187
Y4.077 Z36.635
Y3.593 Z36.958
Y2.774 Z37.465
Y1.989 Z37.944
Y0.961 Z38.523
Y-0.137 Z39.111
Y-0.667 Z39.369
Y-1.143 Z39.59
Y-1.599 Z39.792
Y-2.084 Z39.994
Y-2.573 Z40.184
Y-3.042 Z40.352
Y-3.542 Z40.509
Y-3.794 Z40.584
Y-4.808 Z40.858
Y-6.056 Z41.174
Y-6.311 Z41.238
Y-7.054 Z41.401
Y-7.311 Z41.452
Y-7.765 Z41.523
Y-8.312 Z41.574
Y-8.755 Z41.585
Y-9.36 Z41.546
Y-9.595 Z41.508
Y-9.956 Z41.438
Y-10.198 Z41.369
Y-10.648 Z41.217
Y-11.08 Z41.012
Y-11.291 Z40.904
Y-11.596 Z40.709
Y-11.902 Z40.501
Y-12.103 Z40.338
Y-12.468 Z40.01
Y-12.73 Z39.734
Y-13.047 Z39.38
Y-13.198 Z39.187
Y-13.494 Z38.78
Y-13.629 Z38.574
Y-14. Z37.972
Y-14.3 Z37.396
Y-14.555 Z36.87
G2 Y-14.825 Z36.701 J-0.27 K0.131
G1 Y-15.012
X61.855 Y-15.032 Z36.7
X61.85 Y-15.052 Z36.697
X61.843 Y-15.07 Z36.693
X61.833 Y-15.087 Z36.687
X61.82 Y-15.101 Z36.68
X61.806 Y-15.113 Z36.671
X61.79 Y-15.121 Z36.662
X61.774 Y-15.127 Z36.652
X61.756 Y-15.128 Z36.642
X61.739 Y-15.127 Z36.631
X61.722 Y-15.121 Z36.621
X61.706 Y-15.113 Z36.612
X61.692 Y-15.101 Z36.603
X61.68 Y-15.087 Z36.596
X61.67 Y-15.07 Z36.59
X61.662 Y-15.052 Z36.586
X61.658 Y-15.032 Z36.583
X61.656 Y-15.012 Z36.582
G3 Y-14.738 Z36.76 K0.3
G1 Y-14.571 Z37.135
Y-14.312 Z37.675
Y-13.967 Z38.308
Y-13.572 Z38.943
Y-13.217 Z39.42
Y-12.989 Z39.706
Y-12.659 Z40.071
Y-12.437 Z40.291
Y-11.929 Z40.721
Y-11.488 Z41.021
Y-11.23 Z41.177
Y-10.832 Z41.373
Y-10.582 Z41.478
Y-10.015 Z41.653
Y-9.55 Z41.742
Y-9.302 Z41.776
Y-8.868 Z41.805
Y-8.399 Z41.799
Y-8.137 Z41.785
Y-7.875 Z41.759
Y-7.616 Z41.728
Y-7.356 Z41.687
Y-7.099 Z41.641
Y-6.584 Z41.533
Y-6.073 Z41.417
Y-4.799 Z41.095
Y-3.811 Z40.828
Y-3.559 Z40.753
Y-3.058 Z40.596
Y-2.587 Z40.435
Y-2.095 Z40.252
Y-1.755 Z40.115
Y-1.154 Z39.852
Y-0.678 Z39.631
Y-0.205 Z39.403
Y0.263 Z39.167
Y0.844 Z38.865
Y2.103 Z38.159
Y2.726 Z37.795
Y3.452 Z37.347
Y4.338 Z36.783
Y4.768 Z36.486
Y5.406 Z36.027
Y5.928 Z35.635
Y6.433 Z35.218
Y7.03 Z34.705
Y7.301 Z34.462
Y7.584 Z34.189
Y8.311 Z33.472
Y8.84 Z32.892
Y9.285 Z32.39
Y9.332 Z32.348
Y9.386 Z32.316
Y9.446 Z32.296
Y9.509 Z32.289
Y9.978
X61.655 Y9.997
X61.65 Y10.015 Z32.287
X61.643 Y10.032 Z32.284
X61.633 Y10.048 Z32.279
X61.62 Y10.061 Z32.274
X61.606 Y10.072 Z32.268
X61.59 Y10.08 Z32.261
X61.574 Y10.085 Z32.254
X61.556 Y10.087 Z32.246
X61.539 Y10.085 Z32.239
X61.522 Y10.08 Z32.232
X61.506 Y10.072 Z32.225
X61.492 Y10.061 Z32.219
X61.48 Y10.048 Z32.213
X61.47 Y10.032 Z32.209
X61.462 Y10.015 Z32.206
X61.458 Y9.997 Z32.204
X61.456 Y9.978 Z32.203
Y9.915 Z32.21
Y9.854 Z32.23
Y9.799 Z32.263
Y9.752 Z32.306
Y9.429 Z32.677
Y8.922 Z33.244
Y8.746 Z33.432
Y8.043 Z34.137
Y7.856 Z34.322
Y7.67 Z34.497
Y7.082 Z35.02
Y6.456 Z35.554
Y5.888 Z35.995
Y5.256 Z36.465
Y4.827 Z36.764
Y4.169 Z37.193
Y3.28 Z37.752
Y1.918 Z38.542
Y1.252 Z38.911
Y0.789 Z39.156
Y-0.124 Z39.621
Y-0.716 Z39.907
Y-1.289 Z40.163
Y-2.078 Z40.485
Y-2.754 Z40.732
Y-3.003 Z40.817
Y-3.503 Z40.976
Y-4.007 Z41.122
Y-4.897 Z41.355
Y-6.276 Z41.688
Y-7.02 Z41.847
Y-7.277 Z41.897
Y-7.537 Z41.937
Y-7.797 Z41.973
Y-8.176 Z42.011
Y-8.83 Z42.029
Y-9.421 Z41.985
Y-10.004 Z41.878
Y-10.233 Z41.812
Y-10.584 Z41.7
Y-10.818 Z41.604
Y-11.26 Z41.394
Y-11.48 Z41.264
Y-11.888 Z40.991
Y-12.089 Z40.83
Y-12.45 Z40.52
Y-12.709 Z40.261
Y-13.029 Z39.917
Y-13.345 Z39.51
Y-13.611 Z39.145
Y-13.936 Z38.64
Y-14.267 Z38.044
Y-14.478 Z37.634
Y-14.698 Z37.155
Y-14.819 Z36.883
G2 Y-15.093 Z36.704 J-0.275 K0.121
G1 X61.455 Y-15.121 Z36.705
X61.453 Y-15.149 Z36.71
X61.45 Y-15.176 Z36.718
X61.445 Y-15.202 Z36.728
X61.438 Y-15.226 Z36.741
X61.431 Y-15.248 Z36.757
X61.422 Y-15.268 Z36.775
X61.413 Y-15.285 Z36.795
X61.403 Y-15.3 Z36.817
X61.392 Y-15.312 Z36.84
X61.38 Y-15.32 Z36.865
X61.368 Y-15.325 Z36.89
X61.356 Y-15.327 Z36.915
X61.344 Y-15.325 Z36.941
X61.332 Y-15.32 Z36.966
X61.321 Y-15.312 Z36.99
X61.31 Y-15.3 Z37.013
X61.299 Y-15.285 Z37.035
X61.29 Y-15.268 Z37.055
X61.281 Y-15.248 Z37.073
X61.274 Y-15.226 Z37.089
X61.268 Y-15.202 Z37.102
X61.263 Y-15.176 Z37.113
X61.259 Y-15.149 Z37.12
X61.257 Y-15.121 Z37.125
X61.256 Y-15.093 Z37.126
Y-15.041
G3 Y-14.767 Z37.304 K0.3
G1 Y-14.688 Z37.48
Y-14.366 Z38.14
Y-14.035 Z38.743
Y-13.616 Z39.396
Y-13.372 Z39.734
Y-13.072 Z40.112
Y-12.728 Z40.481
Y-12.471 Z40.741
Y-12.167 Z41.003
Y-11.906 Z41.211
Y-11.495 Z41.478
Y-11.275 Z41.609
Y-10.81 Z41.83
Y-10.537 Z41.938
Y-10.02 Z42.097
Y-9.529 Z42.19
Y-9.267 Z42.222
Y-8.864 Z42.25
Y-8.314 Z42.241
Y-7.775 Z42.193
Y-7.273 Z42.118
Y-6.42 Z41.943
Y-5.935 Z41.829
Y-4.659 Z41.518
Y-3.921 Z41.327
Y-3.668 Z41.257
Y-3.165 Z41.107
Y-2.473 Z40.872
Y-2.008 Z40.697
Y-1.522 Z40.501
Y-1.04 Z40.295
Y-0.146 Z39.888
Y0.85 Z39.383
Y2.035 Z38.751
Y3.124 Z38.123
Y4.136 Z37.515
Y4.686 Z37.158
Y5.337 Z36.719
Y5.762 Z36.418
Y6.385 Z35.938
Y7. Z35.447
Y7.197 Z35.279
Y7.589 Z34.93
Y8.173 Z34.399
Y8.358 Z34.222
Y8.912 Z33.662
Y9.346 Z33.213
Y9.954 Z32.524
Y10.213 Z32.223
G3 Y10.441 Z32.119 J0.227 K0.196
G1 Y10.9
X61.255 Y10.919 Z32.118
X61.25 Y10.937 Z32.116
X61.243 Y10.954 Z32.113
X61.233 Y10.97 Z32.109
X61.22 Y10.983 Z32.104
X61.206 Y10.994 Z32.098
X61.19 Y11.002 Z32.091
X61.174 Y11.007 Z32.084
X61.156 Y11.009 Z32.076
X61.139 Y11.007 Z32.069
X61.122 Y11.002 Z32.062
X61.106 Y10.994 Z32.055
X61.092 Y10.983 Z32.049
X61.08 Y10.97 Z32.044
X61.07 Y10.954 Z32.04
X61.062 Y10.937 Z32.036
X61.058 Y10.919 Z32.035
X61.056 Y10.9 Z32.034
G2 Y10.673 Z32.138 K0.3
G1 Y10.243 Z32.636
Y9.829 Z33.11
Y9.398 Z33.562
Y8.765 Z34.209
Y8.125 Z34.804
Y7.737 Z35.158
Y7.542 Z35.328
Y6.935 Z35.828
Y6.273 Z36.354
Y5.706 Z36.763
Y5.058 Z37.21
Y4.622 Z37.497
Y4.176 Z37.772
Y3.007 Z38.469
Y2.154 Z38.943
Y0.822 Z39.654
Y-0.18 Z40.143
Y-0.657 Z40.363
Y-1.112 Z40.566
Y-1.718 Z40.819
Y-2.244 Z41.021
Y-2.554 Z41.131
Y-3.052 Z41.295
Y-3.529 Z41.439
Y-4.009 Z41.572
Y-4.747 Z41.762
Y-6.024 Z42.072
Y-6.408 Z42.162
Y-7.308 Z42.341
Y-7.568 Z42.38
Y-7.828 Z42.413
Y-8.09 Z42.438
Y-8.352 Z42.455
Y-8.754 Z42.464
Y-9.359 Z42.428
Y-9.594 Z42.393
Y-9.956 Z42.329
Y-10.2 Z42.265
Y-10.652 Z42.12
Y-11.14 Z41.898
Y-11.3 Z41.818
Y-11.807 Z41.501
Y-12.063 Z41.314
Y-12.507 Z40.945
Y-12.745 Z40.703
Y-12.998 Z40.435
Y-13.24 Z40.143
Y-13.585 Z39.699
Y-13.963 Z39.123
Y-14.335 Z38.477
Y-14.553 Z38.042
Y-14.794 Z37.535
Y-14.858 Z37.392
G2 Y-15.132 Z37.212 J-0.275 K0.121
G1 Y-15.309
X61.055 Y-15.329
X61.05 Y-15.348 Z37.209
X61.043 Y-15.367 Z37.205
X61.033 Y-15.383 Z37.199
X61.02 Y-15.398 Z37.191
X61.006 Y-15.409 Z37.183
X60.99 Y-15.418 Z37.173
X60.974 Y-15.423 Z37.163
X60.956 Y-15.425 Z37.153
X60.939 Y-15.423 Z37.143
X60.922 Y-15.418 Z37.132
X60.906 Y-15.409 Z37.123
X60.892 Y-15.398 Z37.115
X60.88 Y-15.383 Z37.107
X60.87 Y-15.367 Z37.101
X60.862 Y-15.348 Z37.097
X60.858 Y-15.329 Z37.094
X60.856 Y-15.309 Z37.093
G3 Y-15.034 Z37.272 K0.3
G1 Y-14.795 Z37.814
Y-14.565 Z38.296
Y-14.393 Z38.633
Y-14.197 Z38.979
Y-13.937 Z39.422
Y-13.548 Z39.991
Y-13.162 Z40.482
Y-12.962 Z40.714
Y-12.494 Z41.18
Y-11.937 Z41.634
Y-11.466 Z41.942
Y-11.228 Z42.076
Y-10.685 Z42.318
Y-10.177 Z42.478
Y-9.926 Z42.541
Y-9.394 Z42.631
Y-8.898 Z42.666
Y-8.52 Z42.665
Y-8.151 Z42.65
Y-7.89 Z42.625
Y-7.63 Z42.595
Y-7.37 Z42.556
Y-7.112 Z42.512
Y-6.468 Z42.383
Y-5.827 Z42.239
Y-4.804 Z41.998
Y-3.814 Z41.742
Y-3.335 Z41.604
Y-2.834 Z41.446
Y-2.363 Z41.285
Y-1.87 Z41.104
Y-1.381 Z40.912
Y-0.862 Z40.694
Y-0.205 Z40.393
Y0.74 Z39.935
Y1.325 Z39.64
Y1.906 Z39.335
Y3.057 Z38.702
Y3.626 Z38.379
Y4.39 Z37.919
Y5.278 Z37.358
Y5.493 Z37.214
Y5.709 Z37.063
Y6.346 Z36.603
Y6.894 Z36.19
Y7.578 Z35.626
Y8.126 Z35.162
Y8.752 Z34.582
Y9.3 Z34.061
Y10.191 Z33.134
Y10.364 Z32.942
Y10.707 Z32.546
Y11.128 Z32.054
G3 Y11.356 Z31.949 J0.228 K0.195
G1 Y11.808
X60.855 Y11.827 Z31.948
X60.85 Y11.845 Z31.946
X60.843 Y11.862 Z31.943
X60.833 Y11.878 Z31.939
X60.82 Y11.891 Z31.934
X60.806 Y11.902 Z31.928
X60.79 Y11.91 Z31.921
X60.774 Y11.915 Z31.914
X60.756 Y11.917 Z31.907
X60.739 Y11.915 Z31.9
X60.722 Y11.91 Z31.892
X60.706 Y11.902 Z31.886
X60.692 Y11.891 Z31.88
X60.68 Y11.878 Z31.875
X60.67 Y11.862 Z31.87
X60.662 Y11.845 Z31.867
X60.658 Y11.827 Z31.865
X60.656 Y11.808
G2 Y11.58 Z31.97 K0.3
G1 Y10.812 Z32.868
Y10.64 Z33.059
Y9.799 Z33.943
Y9.397 Z34.332
Y8.645 Z35.041
Y7.838 Z35.736
Y7.297 Z36.184
Y6.608 Z36.71
Y6. Z37.155
Y5.539 Z37.465
Y4.878 Z37.893
Y4.433 Z38.171
Y4.21 Z38.305
Y3.068 Z38.954
Y2.112 Z39.477
Y0.791 Z40.149
Y-0.155 Z40.607
Y-0.634 Z40.82
Y-1.118 Z41.026
Y-1.58 Z41.214
Y-2.07 Z41.402
Y-2.565 Z41.578
Y-3.064 Z41.742
Y-3.757 Z41.944
Y-4.584 Z42.153
Y-5.837 Z42.447
Y-6.478 Z42.591
Y-7.095 Z42.715
Y-7.353 Z42.76
Y-7.613 Z42.799
Y-7.873 Z42.829
Y-8.135 Z42.855
Y-8.504 Z42.871
Y-8.896 Z42.873
Y-9.404 Z42.836
Y-9.936 Z42.746
Y-10.187 Z42.682
Y-10.582 Z42.561
Y-10.861 Z42.449
Y-11.237 Z42.278
Y-11.5 Z42.131
Y-11.951 Z41.846
Y-12.507 Z41.391
Y-12.974 Z40.926
Y-13.176 Z40.698
Y-13.485 Z40.315
Y-13.705 Z40.005
Y-14.052 Z39.485
Y-14.352 Z38.967
Y-14.708 Z38.278
Y-14.801 Z38.08
Y-15.054 Z37.505
G2 Y-15.329 Z37.326 J-0.275 K0.121
G1 Y-15.33
X60.655 Y-15.354 Z37.327
X60.652 Y-15.378 Z37.331
X60.647 Y-15.401 Z37.338
X60.64 Y-15.422 Z37.348
X60.632 Y-15.442 Z37.36
X60.622 Y-15.459 Z37.374
X60.61 Y-15.474 Z37.389
X60.598 Y-15.485 Z37.407
X60.584 Y-15.494 Z37.425
X60.57 Y-15.499 Z37.445
X60.556 Y-15.501 Z37.464
X60.542 Y-15.499 Z37.484
X60.528 Y-15.494 Z37.503
X60.515 Y-15.485 Z37.522
X60.502 Y-15.474 Z37.539
X60.491 Y-15.459 Z37.555
X60.481 Y-15.442 Z37.569
X60.472 Y-15.422 Z37.581
X60.465 Y-15.401 Z37.59
X60.46 Y-15.378 Z37.597
X60.457 Y-15.354 Z37.601
X60.456 Y-15.33 Z37.603
G3 Y-15.055 Z37.784 K0.3
G1 Y-15.018 Z37.868
Y-14.741 Z38.471
Y-14.37 Z39.192
Y-13.969 Z39.858
Y-13.589 Z40.414
Y-13.243 Z40.841
Y-13.003 Z41.117
Y-12.755 Z41.37
Y-12.482 Z41.636
Y-12.193 Z41.867
Y-11.904 Z42.086
Y-11.702 Z42.213
Y-11.29 Z42.458
Y-10.832 Z42.669
Y-10.561 Z42.774
Y-10.043 Z42.929
Y-9.421 Z43.039
Y-8.853 Z43.079
Y-8.32 Z43.071
Y-7.797 Z43.027
Y-7.277 Z42.954
Y-6.439 Z42.789
Y-5.927 Z42.674
Y-4.674 Z42.381
Y-3.909 Z42.191
Y-3.403 Z42.053
Y-3.151 Z41.979
Y-2.65 Z41.823
Y-2.154 Z41.654
Y-1.663 Z41.468
Y-1.176 Z41.272
Y-0.693 Z41.067
Y0.001 Z40.758
Y0.82 Z40.374
Y2.094 Z39.725
Y3.138 Z39.173
Y4.166 Z38.587
Y4.787 Z38.222
Y5.46 Z37.796
Y6.091 Z37.372
Y6.627 Z36.996
Y6.941 Z36.759
Y7.562 Z36.278
Y7.97 Z35.952
Y8.764 Z35.266
Y9.244 Z34.839
Y10.231 Z33.887
Y11.096 Z32.973
Y11.267 Z32.782
Y11.438 Z32.583
Y12.031 Z31.883
G3 Y12.26 Z31.777 J0.229 K0.194
G1 Y12.705
X60.455 Y12.724 Z31.776
X60.45 Y12.742 Z31.774
X60.443 Y12.759 Z31.771
X60.433 Y12.775 Z31.767
X60.42 Y12.788 Z31.762
X60.406 Y12.799 Z31.756
X60.39 Y12.807 Z31.749
X60.374 Y12.812 Z31.742
X60.356 Y12.814 Z31.734
X60.339 Y12.812 Z31.727
X60.322 Y12.807 Z31.72
X60.306 Y12.799 Z31.713
X60.292 Y12.788 Z31.707
X60.28 Y12.775 Z31.702
X60.27 Y12.759 Z31.698
X60.262 Y12.742 Z31.694
X60.258 Y12.724 Z31.692
X60.256 Y12.705
G2 Y12.475 Z31.8 K0.3
G1 Y12.058 Z32.298
Y11.718 Z32.699
Y11.547 Z32.889
Y10.828 Z33.657
Y10.648 Z33.842
Y9.745 Z34.72
Y9.555 Z34.895
Y8.571 Z35.763
Y8.373 Z35.93
Y7.552 Z36.586
Y7.091 Z36.942
Y6.522 Z37.35
Y5.897 Z37.782
Y5.459 Z38.069
Y4.788 Z38.479
Y4.109 Z38.877
Y3.213 Z39.373
Y2.076 Z39.973
Y1.28 Z40.374
Y0.926 Z40.547
Y-0.025 Z40.992
Y-0.719 Z41.3
Y-1.202 Z41.504
Y-1.691 Z41.693
Y-2.184 Z41.871
Y-2.681 Z42.039
Y-2.932 Z42.119
Y-3.661 Z42.33
Y-3.915 Z42.398
Y-4.935 Z42.649
Y-6.216 Z42.942
Y-6.731 Z43.046
Y-7.312 Z43.154
Y-7.832 Z43.223
Y-8.324 Z43.263
Y-8.825 Z43.272
Y-9.426 Z43.231
Y-9.906 Z43.152
Y-10.165 Z43.092
Y-10.618 Z42.957
Y-10.854 Z42.864
Y-11.287 Z42.667
Y-11.599 Z42.484
Y-11.9 Z42.295
Y-12.19 Z42.076
Y-12.479 Z41.846
Y-12.797 Z41.546
Y-13.017 Z41.326
Y-13.264 Z41.038
Y-13.565 Z40.668
Y-13.959 Z40.114
Y-14.366 Z39.44
Y-14.735 Z38.743
Y-15.097 Z37.957
Y-15.123 Z37.896
G2 Y-15.4 Z37.713 J-0.276 K0.117
G1 Y-15.574
X60.255 Y-15.596 Z37.712
X60.25 Y-15.617 Z37.708
X60.243 Y-15.636 Z37.703
X60.233 Y-15.654 Z37.696
X60.22 Y-15.669 Z37.686
X60.206 Y-15.682 Z37.676
X60.19 Y-15.691 Z37.664
X60.174 Y-15.697 Z37.652
X60.156 Y-15.698 Z37.639
X60.139 Y-15.697 Z37.626
X60.122 Y-15.691 Z37.613
X60.106 Y-15.682 Z37.602
X60.092 Y-15.669 Z37.591
X60.08 Y-15.654 Z37.582
X60.07 Y-15.636 Z37.574
X60.062 Y-15.617 Z37.569
X60.058 Y-15.596 Z37.566
X60.056 Y-15.574 Z37.565
G3 Y-15.298 Z37.747 K0.3
G1 Y-15.095 Z38.223
Y-14.809 Z38.846
Y-14.476 Z39.482
Y-14.253 Z39.87
Y-13.998 Z40.282
Y-13.567 Z40.89
Y-13.246 Z41.282
Y-12.992 Z41.564
Y-12.641 Z41.906
Y-12.45 Z42.077
Y-12.114 Z42.343
Y-11.858 Z42.53
Y-11.464 Z42.767
Y-11.213 Z42.899
Y-10.876 Z43.047
Y-10.653 Z43.137
Y-10.174 Z43.281
Y-9.913 Z43.342
Y-9.358 Z43.43
Y-8.871 Z43.462
Y-8.337 Z43.455
Y-7.814 Z43.413
Y-7.278 Z43.34
Y-6.391 Z43.172
Y-5.391 Z42.951
Y-4.407 Z42.724
Y-3.604 Z42.52
Y-3.099 Z42.375
Y-2.599 Z42.218
Y-2.102 Z42.049
Y-1.609 Z41.868
Y-1.144 Z41.687
Y-0.658 Z41.489
Y-0.116 Z41.255
Y1.013 Z40.726
Y2.193 Z40.147
Y3.1 Z39.672
Y4.024 Z39.171
Y4.652 Z38.817
Y5.358 Z38.389
Y5.801 Z38.109
Y6.376 Z37.731
Y7.096 Z37.216
Y7.649 Z36.807
Y8.138 Z36.422
Y8.949 Z35.759
Y9.538 Z35.238
Y10.198 Z34.642
Y11.166 Z33.693
Y12.098 Z32.694
Y12.919 Z31.714
G3 Y13.149 Z31.606 J0.23 K0.193
G1 Y13.593
X60.055 Y13.612 Z31.605
X60.05 Y13.63 Z31.604
X60.043 Y13.647 Z31.6
X60.033 Y13.663 Z31.596
X60.02 Y13.676 Z31.591
X60.006 Y13.687 Z31.585
X59.99 Y13.695 Z31.578
X59.974 Y13.7 Z31.571
X59.956 Y13.702 Z31.563
X59.939 Y13.7 Z31.556
X59.922 Y13.695 Z31.548
X59.906 Y13.687 Z31.542
X59.892 Y13.676 Z31.536
X59.88 Y13.663 Z31.53
X59.87 Y13.647 Z31.526
X59.862 Y13.63 Z31.523
X59.858 Y13.612 Z31.521
X59.856 Y13.593 Z31.52
G2 Y13.363 Z31.628 K0.3
G1 Y12.542 Z32.607
Y11.718 Z33.503
Y11.322 Z33.899
Y10.761 Z34.453
Y10.574 Z34.632
Y9.55 Z35.555
Y8.999 Z36.018
Y8.39 Z36.518
Y8.186 Z36.679
Y7.557 Z37.154
Y6.923 Z37.62
Y6.492 Z37.914
Y5.834 Z38.345
Y5.278 Z38.695
Y4.713 Z39.025
Y4.279 Z39.27
Y3.126 Z39.897
Y1.954 Z40.488
Y0.758 Z41.07
Y0.055 Z41.388
Y-0.426 Z41.597
Y-1.129 Z41.887
Y-1.619 Z42.078
Y-2.112 Z42.258
Y-2.609 Z42.427
Y-3.111 Z42.58
Y-3.617 Z42.72
Y-4.381 Z42.909
Y-5.149 Z43.087
Y-6.412 Z43.367
Y-7.154 Z43.511
Y-7.672 Z43.589
Y-8.321 Z43.646
Y-8.858 Z43.654
Y-9.359 Z43.622
Y-9.84 Z43.547
Y-10.13 Z43.485
Y-10.667 Z43.324
Y-11.106 Z43.138
Y-11.347 Z43.026
Y-11.872 Z42.717
Y-12.081 Z42.57
Y-12.469 Z42.269
Y-12.746 Z42.011
Y-13.01 Z41.753
Y-13.262 Z41.471
Y-13.588 Z41.084
Y-13.943 Z40.586
Y-14.337 Z39.965
Y-14.529 Z39.623
Y-14.805 Z39.097
Y-15.076 Z38.526
Y-15.329 Z37.934
G2 Y-15.605 Z37.751 J-0.276 K0.118
G1 X59.855 Y-15.628 Z37.753
X59.852 Y-15.651 Z37.757
X59.847 Y-15.673 Z37.763
X59.84 Y-15.693 Z37.772
X59.832 Y-15.712 Z37.783
X59.822 Y-15.729 Z37.796
X59.81 Y-15.743 Z37.811
X59.798 Y-15.754 Z37.827
X59.784 Y-15.762 Z37.844
X59.77 Y-15.767 Z37.862
X59.756 Y-15.769 Z37.881
X59.742 Y-15.767 Z37.899
X59.728 Y-15.762 Z37.917
X59.715 Y-15.754 Z37.935
X59.702 Y-15.743 Z37.951
X59.691 Y-15.729 Z37.966
X59.681 Y-15.712 Z37.979
X59.672 Y-15.693 Z37.99
X59.665 Y-15.673 Z37.999
X59.66 Y-15.651 Z38.005
X59.657 Y-15.628 Z38.009
X59.656 Y-15.605 Z38.01
G3 Y-15.33 Z38.191 K0.3
G1 Y-15.098 Z38.724
Y-14.776 Z39.397
Y-14.419 Z40.053
Y-14.027 Z40.686
Y-13.748 Z41.077
Y-13.489 Z41.414
Y-13.047 Z41.922
Y-12.846 Z42.121
Y-12.503 Z42.438
Y-12.08 Z42.764
Y-11.818 Z42.942
Y-11.301 Z43.242
Y-10.867 Z43.435
Y-10.632 Z43.528
Y-10.048 Z43.696
Y-9.556 Z43.781
Y-9.294 Z43.812
Y-8.857 Z43.838
Y-8.325 Z43.831
Y-7.801 Z43.789
Y-7.184 Z43.705
Y-6.184 Z43.509
Y-4.672 Z43.17
Y-3.932 Z42.992
Y-3.551 Z42.894
Y-2.92 Z42.716
Y-2.419 Z42.559
Y-1.922 Z42.391
Y-1.368 Z42.187
Y-0.699 Z41.917
Y0.025 Z41.607
Y0.958 Z41.187
Y1.905 Z40.733
Y3.055 Z40.155
Y3.99 Z39.667
Y4.65 Z39.299
Y5.331 Z38.905
Y5.78 Z38.635
Y6.221 Z38.351
Y6.874 Z37.912
Y7.424 Z37.53
Y8.125 Z37.004
Y8.849 Z36.442
Y9.556 Z35.855
Y10.054 Z35.431
Y11.1 Z34.478
Y12.032 Z33.554
Y12.21 Z33.37
Y13.054 Z32.443
Y13.807 Z31.542
G3 Y14.037 Z31.434 J0.23 K0.192
G1 Y14.482
X59.655 Y14.5
X59.65 Y14.519 Z31.432
X59.643 Y14.536 Z31.429
X59.633 Y14.552 Z31.424
X59.62 Y14.565 Z31.419
X59.606 Y14.576 Z31.413
X59.59 Y14.584 Z31.406
X59.574 Y14.589 Z31.399
X59.556 Y14.59 Z31.391
X59.539 Y14.589 Z31.384
X59.522 Y14.584 Z31.376
X59.506 Y14.576 Z31.37
X59.492 Y14.565 Z31.363
X59.48 Y14.552 Z31.358
X59.47 Y14.536 Z31.354
X59.462 Y14.519 Z31.351
X59.458 Y14.5 Z31.349
X59.456 Y14.482 Z31.348
G2 Y14.251 Z31.456 K0.3
G1 Y13.498 Z32.357
Y12.635 Z33.304
Y12.012 Z33.935
Y11.733 Z34.214
Y11.547 Z34.394
Y10.579 Z35.283
Y10.185 Z35.624
Y9.383 Z36.301
Y8.766 Z36.787
Y8.143 Z37.268
Y7.721 Z37.577
Y7.077 Z38.03
Y6.535 Z38.399
Y5.982 Z38.75
Y5.332 Z39.143
Y4.651 Z39.537
Y4.19 Z39.787
Y3.025 Z40.392
Y2.109 Z40.851
Y0.921 Z41.41
Y-0.037 Z41.84
Y-0.797 Z42.16
Y-1.471 Z42.419
Y-1.964 Z42.597
Y-2.461 Z42.764
Y-3.088 Z42.956
Y-3.466 Z43.063
Y-3.975 Z43.194
Y-4.87 Z43.406
Y-6.283 Z43.713
Y-7.03 Z43.855
Y-7.289 Z43.899
Y-7.783 Z43.965
Y-8.307 Z44.008
Y-8.843 Z44.017
Y-9.437 Z43.977
Y-10.021 Z43.88
Y-10.542 Z43.737
Y-10.82 Z43.639
Y-11.266 Z43.449
Y-11.517 Z43.313
Y-11.911 Z43.076
Y-12.215 Z42.854
Y-12.496 Z42.636
Y-12.962 Z42.207
Y-13.17 Z41.993
Y-13.52 Z41.585
Y-13.951 Z41.009
Y-14.28 Z40.503
Y-14.478 Z40.17
Y-14.808 Z39.568
Y-15.094 Z38.975
Y-15.362 Z38.37
G2 Y-15.636 Z38.192 J-0.274 K0.122
G1 Y-15.806
X59.455 Y-15.828 Z38.19
X59.45 Y-15.85 Z38.186
X59.443 Y-15.871 Z38.18
X59.433 Y-15.89 Z38.172
X59.42 Y-15.906 Z38.162
X59.406 Y-15.919 Z38.15
X59.39 Y-15.928 Z38.136
X59.374 Y-15.934 Z38.122
X59.356 Y-15.936 Z38.108
X59.339 Y-15.934 Z38.093
X59.322 Y-15.928 Z38.079
X59.306 Y-15.919 Z38.066
X59.292 Y-15.906 Z38.054
X59.28 Y-15.89 Z38.044
X59.27 Y-15.871 Z38.035
X59.262 Y-15.85 Z38.029
X59.258 Y-15.828 Z38.025
X59.256 Y-15.806 Z38.024
G3 Y-15.529 Z38.209 K0.3
G1 Y-15.431 Z38.445
Y-15.135 Z39.125
Y-14.922 Z39.566
Y-14.701 Z39.993
Y-14.423 Z40.493
Y-14.187 Z40.862
Y-13.935 Z41.239
Y-13.506 Z41.809
Y-13.061 Z42.303
Y-12.537 Z42.794
Y-12.351 Z42.943
Y-11.942 Z43.246
Y-11.348 Z43.587
Y-10.86 Z43.801
Y-10.579 Z43.904
Y-10.007 Z44.061
Y-9.424 Z44.157
Y-8.926 Z44.191
Y-8.662 Z44.194
Y-8.394 Z44.188
Y-8.132 Z44.175
Y-7.87 Z44.151
Y-7.637 Z44.126
Y-7.376 Z44.09
Y-7.118 Z44.049
Y-6.369 Z43.909
Y-4.828 Z43.576
Y-3.805 Z43.339
Y-3.17 Z43.171
Y-2.541 Z42.981
Y-2.074 Z42.827
Y-1.181 Z42.501
Y-0.207 Z42.111
Y0.755 Z41.691
Y2.063 Z41.079
Y3.126 Z40.563
Y4.175 Z40.017
Y4.866 Z39.643
Y5.324 Z39.386
Y5.974 Z38.993
Y6.617 Z38.587
Y7.163 Z38.227
Y7.89 Z37.712
Y8.63 Z37.171
Y9.559 Z36.441
Y9.965 Z36.112
Y10.165 Z35.942
Y11.039 Z35.19
Y12.097 Z34.21
Y13.091 Z33.204
Y13.851 Z32.374
Y14.208 Z31.954
Y14.688 Z31.372
G3 Y14.919 Z31.263 J0.231 K0.191
G1 Y15.355
X59.255 Y15.374
X59.25 Y15.392 Z31.261
X59.243 Y15.409 Z31.258
X59.233 Y15.425 Z31.253
X59.22 Y15.438 Z31.248
X59.206 Y15.449 Z31.242
X59.19 Y15.457 Z31.235
X59.174 Y15.462 Z31.228
X59.156 Y15.464 Z31.221
X59.139 Y15.462 Z31.213
X59.122 Y15.457 Z31.206
X59.106 Y15.449 Z31.199
X59.092 Y15.438 Z31.193
X59.08 Y15.425 Z31.188
X59.07 Y15.409 Z31.184
X59.062 Y15.392 Z31.181
X59.058 Y15.374 Z31.179
X59.056 Y15.355 Z31.178
G2 Y15.123 Z31.287 K0.3
G1 Y14.478 Z32.073
Y14.31 Z32.269
Y13.62 Z33.025
Y13.442 Z33.212
Y12.513 Z34.148
Y11.811 Z34.805
Y11.375 Z35.202
Y10.43 Z36.016
Y9.43 Z36.821
Y9.018 Z37.142
Y8.172 Z37.766
Y7.585 Z38.184
Y6.876 Z38.657
Y6.214 Z39.082
Y5.766 Z39.354
Y5.082 Z39.744
Y4.416 Z40.109
Y3.846 Z40.409
Y3.037 Z40.813
Y1.878 Z41.372
Y1.045 Z41.76
Y-0.038 Z42.232
Y-0.523 Z42.432
Y-1.01 Z42.627
Y-1.5 Z42.813
Y-2.118 Z43.032
Y-2.492 Z43.152
Y-3.121 Z43.337
Y-3.501 Z43.44
Y-3.985 Z43.56
Y-4.753 Z43.737
Y-6.295 Z44.071
Y-7.069 Z44.217
Y-7.327 Z44.26
Y-7.588 Z44.297
Y-7.848 Z44.327
Y-8.11 Z44.351
Y-8.372 Z44.366
Y-8.891 Z44.371
Y-9.406 Z44.337
Y-9.939 Z44.253
Y-10.247 Z44.177
Y-10.701 Z44.042
Y-11.249 Z43.814
Y-11.464 Z43.703
Y-11.874 Z43.467
Y-12.075 Z43.332
Y-12.524 Z42.997
Y-12.663 Z42.874
Y-13.111 Z42.444
Y-13.509 Z41.999
Y-13.878 Z41.525
Y-14.088 Z41.224
Y-14.454 Z40.648
Y-14.736 Z40.154
Y-15.094 Z39.445
Y-15.344 Z38.895
Y-15.586 Z38.312
G2 Y-15.863 Z38.127 J-0.277 K0.115
G1 X59.055 Y-15.888 Z38.129
X59.051 Y-15.912 Z38.133
X59.045 Y-15.934 Z38.14
X59.037 Y-15.955 Z38.15
X59.027 Y-15.974 Z38.162
X59.015 Y-15.99 Z38.177
X59.002 Y-16.003 Z38.193
X58.987 Y-16.012 Z38.21
X58.972 Y-16.018 Z38.229
X58.956 Y-16.02 Z38.247
X58.941 Y-16.018 Z38.266
X58.925 Y-16.012 Z38.285
X58.911 Y-16.003 Z38.302
X58.897 Y-15.99 Z38.318
X58.885 Y-15.974 Z38.332
X58.875 Y-15.955 Z38.345
X58.867 Y-15.934 Z38.355
X58.861 Y-15.912 Z38.362
X58.857 Y-15.888 Z38.366
X58.856 Y-15.863 Z38.368
G3 Y-15.586 Z38.552 K0.3
G1 Y-15.375 Z39.059
Y-15.125 Z39.603
Y-14.831 Z40.192
Y-14.479 Z40.813
Y-14.209 Z41.245
Y-13.997 Z41.561
Y-13.55 Z42.142
Y-13.07 Z42.679
Y-12.54 Z43.163
Y-11.964 Z43.589
Y-11.504 Z43.859
Y-11.237 Z43.998
Y-10.688 Z44.225
Y-10.175 Z44.371
Y-9.923 Z44.427
Y-9.39 Z44.507
Y-8.902 Z44.538
Y-8.382 Z44.534
Y-8.12 Z44.52
Y-7.859 Z44.497
Y-7.598 Z44.469
Y-7.338 Z44.433
Y-7.079 Z44.392
Y-6.176 Z44.223
Y-4.762 Z43.917
Y-3.765 Z43.685
Y-3.257 Z43.552
Y-2.626 Z43.37
Y-2.002 Z43.171
Y-1.506 Z43.
Y-1.137 Z42.865
Y-0.527 Z42.625
Y-0.043 Z42.425
Y0.921 Z42.007
Y1.998 Z41.52
Y3.062 Z41.006
Y3.768 Z40.654
Y4.587 Z40.237
Y5.161 Z39.921
Y5.845 Z39.529
Y6.519 Z39.124
Y7.133 Z38.726
Y7.787 Z38.286
Y8.324 Z37.912
Y9.273 Z37.208
Y9.746 Z36.847
Y10.873 Z35.936
Y11.865 Z35.076
Y12.441 Z34.546
Y13.098 Z33.921
Y14.04 Z32.964
Y14.746 Z32.186
Y14.913 Z31.99
Y15.556 Z31.203
G3 Y15.788 Z31.093 J0.232 K0.19
G1 Y16.218
X58.855 Y16.237 Z31.092
X58.85 Y16.255 Z31.09
X58.843 Y16.272 Z31.087
X58.833 Y16.288 Z31.083
X58.82 Y16.301 Z31.078
X58.806 Y16.312 Z31.072
X58.79 Y16.32 Z31.065
X58.774 Y16.325 Z31.058
X58.756 Y16.326 Z31.051
X58.739 Y16.325 Z31.043
X58.722 Y16.32 Z31.036
X58.706 Y16.312 Z31.03
X58.692 Y16.301 Z31.024
X58.68 Y16.288 Z31.019
X58.67 Y16.272 Z31.014
X58.662 Y16.255 Z31.011
X58.658 Y16.237 Z31.009
X58.656 Y16.218
G2 Y15.985 Z31.12 K0.3
G1 Y15.343 Z31.91
Y15.177 Z32.104
Y14.474 Z32.885
Y14.131 Z33.238
Y13.452 Z33.92
Y12.474 Z34.842
Y11.508 Z35.689
Y11.107 Z36.024
Y10.312 Z36.67
Y9.899 Z36.991
Y8.903 Z37.743
Y8.445 Z38.068
Y7.581 Z38.665
Y7.363 Z38.812
Y6.923 Z39.095
Y6.253 Z39.508
Y5.576 Z39.908
Y5.118 Z40.162
Y4.655 Z40.408
Y4.188 Z40.65
Y3.037 Z41.224
Y2.086 Z41.671
Y0.914 Z42.202
Y-0.11 Z42.643
Y-0.78 Z42.907
Y-1.271 Z43.092
Y-1.765 Z43.268
Y-2.014 Z43.353
Y-2.638 Z43.552
Y-3.016 Z43.663
Y-3.523 Z43.801
Y-4.104 Z43.943
Y-5.058 Z44.155
Y-6.409 Z44.436
Y-7.094 Z44.559
Y-7.352 Z44.6
Y-7.613 Z44.636
Y-7.873 Z44.664
Y-8.135 Z44.686
Y-8.37 Z44.699
Y-8.773 Z44.707
Y-9.378 Z44.674
Y-9.846 Z44.604
Y-10.106 Z44.555
Y-10.676 Z44.395
Y-11.228 Z44.174
Y-11.497 Z44.04
Y-11.959 Z43.771
Y-12.536 Z43.345
Y-13.067 Z42.863
Y-13.476 Z42.422
Y-13.705 Z42.139
Y-14. Z41.75
Y-14.418 Z41.126
Y-14.813 Z40.435
Y-15.1 Z39.879
Y-15.377 Z39.279
Y-15.596 Z38.77
G2 Y-15.871 Z38.589 J-0.276 K0.119
G1 Y-16.015
X58.655 Y-16.035 Z38.588
X58.65 Y-16.055 Z38.585
X58.643 Y-16.074 Z38.58
X58.633 Y-16.091 Z38.573
X58.62 Y-16.106 Z38.566
X58.606 Y-16.118 Z38.556
X58.59 Y-16.127 Z38.546
X58.574 Y-16.132 Z38.535
X58.556 Y-16.134 Z38.524
X58.539 Y-16.132 Z38.513
X58.522 Y-16.127 Z38.502
X58.506 Y-16.118 Z38.491
X58.492 Y-16.106 Z38.482
X58.48 Y-16.091 Z38.474
X58.47 Y-16.074 Z38.468
X58.462 Y-16.055 Z38.463
X58.458 Y-16.035 Z38.46
X58.456 Y-16.015 Z38.459
G3 Y-15.736 Z38.647 K0.3
G1 Y-15.676 Z38.798
Y-15.361 Z39.539
Y-15.13 Z40.029
Y-14.809 Z40.651
Y-14.462 Z41.25
Y-14.057 Z41.862
Y-13.699 Z42.338
Y-13.492 Z42.587
Y-13.036 Z43.073
Y-12.774 Z43.313
Y-12.49 Z43.561
Y-12.161 Z43.803
Y-11.88 Z43.992
Y-11.506 Z44.201
Y-11.238 Z44.336
Y-10.826 Z44.505
Y-10.56 Z44.596
Y-10.09 Z44.724
Y-9.624 Z44.805
Y-9.33 Z44.843
Y-8.767 Z44.872
Y-8.335 Z44.863
Y-7.844 Z44.826
Y-7.291 Z44.757
Y-6.444 Z44.607
Y-5.184 Z44.347
Y-4.413 Z44.18
Y-3.645 Z44.003
Y-3.201 Z43.889
Y-2.508 Z43.69
Y-1.884 Z43.486
Y-1.388 Z43.312
Y-0.92 Z43.138
Y-0.211 Z42.861
Y0.819 Z42.433
Y1.957 Z41.921
Y3.028 Z41.421
Y4.067 Z40.916
Y4.767 Z40.556
Y5.437 Z40.196
Y5.895 Z39.939
Y6.29 Z39.707
Y7.015 Z39.258
Y7.678 Z38.832
Y8.283 Z38.42
Y9.14 Z37.814
Y9.562 Z37.505
Y10.697 Z36.635
Y11.601 Z35.895
Y12.001 Z35.56
Y12.965 Z34.711
Y13.709 Z34.007
Y14.065 Z33.665
Y14.861 Z32.852
Y15.624 Z32.003
Y15.79 Z31.807
Y15.938 Z31.623
Y16.411 Z31.036
G3 Y16.645 Z30.924 J0.234 K0.188
G1 Y17.066
X58.455 Y17.084 Z30.923
X58.45 Y17.103 Z30.921
X58.443 Y17.12 Z30.918
X58.433 Y17.135 Z30.914
X58.42 Y17.149 Z30.909
X58.406 Y17.16 Z30.903
X58.39 Y17.168 Z30.896
X58.374 Y17.172 Z30.889
X58.356 Y17.174 Z30.882
X58.339 Y17.172 Z30.875
X58.322 Y17.168 Z30.867
X58.306 Y17.16 Z30.861
X58.292 Y17.149 Z30.855
X58.28 Y17.135 Z30.85
X58.27 Y17.12 Z30.846
X58.262 Y17.103 Z30.842
X58.258 Y17.084 Z30.841
X58.256 Y17.066 Z30.84
G2 Y16.831 Z30.953 K0.3
G1 Y16.239 Z31.696
Y16.074 Z31.894
Y15.315 Z32.745
Y14.42 Z33.662
Y13.48 Z34.555
Y12.374 Z35.53
Y11.452 Z36.296
Y11.065 Z36.607
Y9.973 Z37.449
Y9.178 Z38.026
Y8.428 Z38.556
Y7.664 Z39.063
Y6.913 Z39.544
Y6.375 Z39.869
Y5.692 Z40.26
Y5.024 Z40.624
Y4.559 Z40.869
Y4.09 Z41.102
Y2.905 Z41.67
Y1.832 Z42.168
Y0.749 Z42.639
Y-0.221 Z43.042
Y-0.93 Z43.32
Y-1.608 Z43.568
Y-2.168 Z43.753
Y-2.67 Z43.906
Y-3.175 Z44.047
Y-3.684 Z44.177
Y-4.196 Z44.296
Y-4.939 Z44.46
Y-6.199 Z44.723
Y-6.457 Z44.774
Y-7.298 Z44.923
Y-7.819 Z44.989
Y-8.342 Z45.028
Y-8.875 Z45.035
Y-9.429 Z44.999
Y-10.04 Z44.901
Y-10.562 Z44.761
Y-10.835 Z44.667
Y-11.301 Z44.473
Y-11.774 Z44.218
Y-12.031 Z44.061
Y-12.514 Z43.714
Y-12.878 Z43.398
Y-13.063 Z43.226
Y-13.561 Z42.688
Y-14.044 Z42.074
Y-14.457 Z41.451
Y-14.835 Z40.808
Y-15.098 Z40.304
Y-15.39 Z39.693
Y-15.641 Z39.108
Y-15.828 Z38.643
G2 Y-16.106 Z38.455 J-0.278 K0.112
G1 Y-16.107
X58.255 Y-16.13 Z38.456
X58.251 Y-16.153 Z38.46
X58.245 Y-16.175 Z38.467
X58.237 Y-16.195 Z38.476
X58.227 Y-16.213 Z38.488
X58.215 Y-16.228 Z38.501
X58.202 Y-16.24 Z38.516
X58.187 Y-16.249 Z38.532
X58.172 Y-16.255 Z38.549
X58.156 Y-16.257 Z38.567
X58.141 Y-16.255 Z38.584
X58.125 Y-16.249 Z38.601
X58.111 Y-16.24 Z38.617
X58.097 Y-16.228 Z38.632
X58.085 Y-16.213 Z38.645
X58.075 Y-16.195 Z38.657
X58.067 Y-16.175 Z38.666
X58.061 Y-16.153 Z38.673
X58.057 Y-16.13 Z38.677
X58.056 Y-16.107 Z38.678
G3 Y-15.829 Z38.866 K0.3
G1 Y-15.65 Z39.311
Y-15.41 Z39.856
Y-15.1 Z40.508
Y-14.81 Z41.048
Y-14.439 Z41.675
Y-14.032 Z42.271
Y-13.739 Z42.647
Y-13.498 Z42.939
Y-13.079 Z43.385
Y-12.724 Z43.702
Y-12.444 Z43.933
Y-11.957 Z44.277
Y-11.494 Z44.539
Y-11.215 Z44.677
Y-10.674 Z44.89
Y-10.045 Z45.058
Y-9.461 Z45.151
Y-8.929 Z45.187
Y-8.56
Y-8.164 Z45.173
Y-7.641 Z45.125
Y-7.381 Z45.091
Y-7.122 Z45.053
Y-6.475 Z44.939
Y-5.059 Z44.65
Y-4.032 Z44.424
Y-3.548 Z44.309
Y-3.039 Z44.176
Y-2.598 Z44.049
Y-1.785 Z43.792
Y-1.289 Z43.622
Y-0.773 Z43.434
Y-0.064 Z43.157
Y0.905 Z42.752
Y2.083 Z42.236
Y3.014 Z41.81
Y4.174 Z41.252
Y4.878 Z40.9
Y5.343 Z40.658
Y5.973 Z40.307
Y6.709 Z39.877
Y7.38 Z39.468
Y8.039 Z39.037
Y8.911 Z38.452
Y9.529 Z38.012
Y10.497 Z37.304
Y11.672 Z36.389
Y12.168 Z35.982
Y12.969 Z35.306
Y13.757 Z34.612
Y14.121 Z34.275
Y14.953 Z33.478
Y15.75 Z32.654
Y16.251 Z32.091
Y16.655 Z31.62
Y17.244 Z30.872
G3 Y17.479 Z30.757 J0.236 K0.185
G1 Y17.883
X58.055 Y17.902
X58.05 Y17.92 Z30.755
X58.043 Y17.937 Z30.752
X58.033 Y17.953 Z30.748
X58.02 Y17.966 Z30.743
X58.006 Y17.977 Z30.737
X57.99 Y17.985 Z30.73
X57.974 Y17.99 Z30.723
X57.956 Y17.991 Z30.716
X57.939 Y17.99 Z30.709
X57.922 Y17.985 Z30.702
X57.906 Y17.977 Z30.696
X57.892 Y17.966 Z30.69
X57.88 Y17.953 Z30.685
X57.87 Y17.937 Z30.681
X57.862 Y17.92 Z30.678
X57.858 Y17.902 Z30.676
X57.856 Y17.883 Z30.675
G2 Y17.645 Z30.793 K0.3
G1 Y17.278 Z31.274
Y17.035 Z31.584
Y16.629 Z32.058
Y16.173 Z32.572
Y15.38 Z33.398
Y14.454 Z34.287
Y13.871 Z34.81
Y13.477 Z35.158
Y12.876 Z35.665
Y12.179 Z36.246
Y11.008 Z37.165
Y9.833 Z38.03
Y9.428 Z38.318
Y8.583 Z38.896
Y7.927 Z39.332
Y7.148 Z39.817
Y6.359 Z40.29
Y5.755 Z40.63
Y5.234 Z40.907
Y4.791 Z41.136
Y4.086 Z41.486
Y3.042 Z41.98
Y1.964 Z42.466
Y0.784 Z42.98
Y0.056 Z43.279
Y-0.433 Z43.471
Y-1.172 Z43.745
Y-1.642 Z43.91
Y-2.116 Z44.066
Y-2.618 Z44.22
Y-3.123 Z44.363
Y-3.631 Z44.494
Y-4.528 Z44.697
Y-5.686 Z44.937
Y-6.459 Z45.089
Y-7.301 Z45.234
Y-7.822 Z45.298
Y-8.346 Z45.336
Y-8.878 Z45.342
Y-9.433 Z45.307
Y-10.017 Z45.217
Y-10.249 Z45.161
Y-10.705 Z45.033
Y-11.27 Z44.811
Y-11.498 Z44.698
Y-11.955 Z44.443
Y-12.524 Z44.039
Y-13.065 Z43.565
Y-13.562 Z43.045
Y-14.046 Z42.431
Y-14.463 Z41.822
Y-14.76 Z41.331
Y-15.104 Z40.697
Y-15.378 Z40.136
Y-15.633 Z39.563
Y-15.83 Z39.088
G2 Y-16.107 Z38.903 J-0.277 K0.115
G1 Y-16.141
X57.855 Y-16.162 Z38.904
X57.85 Y-16.182 Z38.907
X57.843 Y-16.201 Z38.911
X57.833 Y-16.217 Z38.918
X57.82 Y-16.232 Z38.926
X57.806 Y-16.244 Z38.935
X57.79 Y-16.253 Z38.945
X57.774 Y-16.258 Z38.956
X57.756 Y-16.26 Z38.967
X57.739 Y-16.258 Z38.978
X57.722 Y-16.253 Z38.989
X57.706 Y-16.244 Z38.999
X57.692 Y-16.232 Z39.008
X57.68 Y-16.217 Z39.016
X57.67 Y-16.201 Z39.022
X57.662 Y-16.182 Z39.027
X57.658 Y-16.162 Z39.03
X57.656 Y-16.141 Z39.031
G3 Y-15.864 Z39.216 K0.3
G1 Y-15.629 Z39.782
Y-15.317 Z40.465
Y-15.01 Z41.068
Y-14.747 Z41.543
Y-14.362 Z42.157
Y-13.971 Z42.713
Y-13.615 Z43.151
Y-13.249 Z43.544
Y-12.991 Z43.8
Y-12.516 Z44.211
Y-11.952 Z44.602
Y-11.745 Z44.719
Y-11.309 Z44.947
Y-10.967 Z45.086
Y-10.631 Z45.21
Y-10.202 Z45.327
Y-9.928 Z45.386
Y-9.447 Z45.459
Y-8.842 Z45.497
Y-8.339 Z45.489
Y-7.847 Z45.453
Y-7.325 Z45.39
Y-6.742 Z45.292
Y-6.226 Z45.198
Y-5.221 Z44.995
Y-3.962 Z44.727
Y-3.579 Z44.637
Y-2.943 Z44.475
Y-2.282 Z44.283
Y-1.689 Z44.09
Y-1.219 Z43.926
Y-0.726 Z43.746
Y-0.016 Z43.473
Y0.957 Z43.078
Y1.922 Z42.662
Y3.12 Z42.123
Y4.132 Z41.651
Y4.78 Z41.333
Y5.246 Z41.091
Y5.767 Z40.815
Y6.512 Z40.401
Y7.053 Z40.081
Y7.723 Z39.667
Y8.42 Z39.223
Y9.019 Z38.821
Y10.063 Z38.098
Y10.711 Z37.624
Y11.63 Z36.936
Y12.697 Z36.09
Y13.752 Z35.208
Y14.096 Z34.91
Y14.904 Z34.183
Y15.818 Z33.303
Y16.617 Z32.464
Y17.069 Z31.947
Y17.444 Z31.502
Y18.029 Z30.718
G3 Y18.27 Z30.598 J0.24 K0.18
G1 Y18.631
X57.655 Y18.649 Z30.597
X57.65 Y18.667 Z30.595
X57.643 Y18.684 Z30.593
X57.633 Y18.699 Z30.589
X57.62 Y18.712 Z30.585
X57.606 Y18.722 Z30.58
X57.59 Y18.73 Z30.574
X57.574 Y18.735 Z30.568
X57.556 Y18.737 Z30.562
X57.539 Y18.735 Z30.556
X57.522 Y18.73 Z30.55
X57.506 Y18.722 Z30.545
X57.492 Y18.712 Z30.54
X57.48 Y18.699 Z30.535
X57.47 Y18.684 Z30.532
X57.462 Y18.667 Z30.529
X57.458 Y18.649 Z30.528
X57.456 Y18.631 Z30.527
G2 Y18.386 Z30.654 K0.3
G1 Y17.91 Z31.326
Y17.756 Z31.527
Y17.18 Z32.217
Y16.727 Z32.709
Y16.366 Z33.091
Y15.998 Z33.456
Y15.432 Z34.005
Y15.243 Z34.181
Y14.462 Z34.885
Y14.266 Z35.055
Y13.213 Z35.935
Y12.022 Z36.883
Y10.786 Z37.806
Y9.952 Z38.397
Y9.196 Z38.92
Y8.318 Z39.494
Y7.43 Z40.055
Y6.867 Z40.388
Y6.182 Z40.778
Y5.514 Z41.142
Y4.961 Z41.427
Y4.342 Z41.729
Y3.176 Z42.274
Y2.003 Z42.8
Y0.793 Z43.31
Y-0.182 Z43.703
Y-0.919 Z43.983
Y-1.662 Z44.242
Y-2.163 Z44.402
Y-2.666 Z44.55
Y-3.172 Z44.688
Y-3.682 Z44.815
Y-4.194 Z44.93
Y-4.939 Z45.09
Y-6.227 Z45.351
Y-6.717 Z45.44
Y-7.3 Z45.54
Y-7.821 Z45.604
Y-8.345 Z45.642
Y-8.911 Z45.647
Y-9.432 Z45.614
Y-10.043 Z45.519
Y-10.566 Z45.383
Y-10.839 Z45.291
Y-11.307 Z45.102
Y-11.835 Z44.824
Y-12.091 Z44.665
Y-12.529 Z44.357
Y-13.031 Z43.931
Y-13.408 Z43.543
Y-13.652 Z43.273
Y-14.059 Z42.765
Y-14.451 Z42.201
Y-14.811 Z41.614
Y-15.102 Z41.087
Y-15.406 Z40.473
Y-15.66 Z39.915
Y-15.865 Z39.423
G2 Y-16.142 Z39.238 J-0.277 K0.115
G1 X57.455 Y-16.165 Z39.239
X57.451 Y-16.187 Z39.243
X57.445 Y-16.208 Z39.249
X57.437 Y-16.227 Z39.258
X57.427 Y-16.244 Z39.268
X57.415 Y-16.259 Z39.281
X57.402 Y-16.271 Z39.295
X57.387 Y-16.28 Z39.31
X57.372 Y-16.285 Z39.325
X57.356 Y-16.287 Z39.342
X57.341 Y-16.285 Z39.358
X57.325 Y-16.28 Z39.374
X57.311 Y-16.271 Z39.389
X57.297 Y-16.259 Z39.403
X57.285 Y-16.244 Z39.415
X57.275 Y-16.227 Z39.426
X57.267 Y-16.208 Z39.434
X57.261 Y-16.187 Z39.441
X57.257 Y-16.165 Z39.445
X57.256 Y-16.142 Z39.446
G3 Y-15.866 Z39.628 K0.3
G1 Y-15.684 Z40.056
Y-15.375 Z40.734
Y-15.115 Z41.248
Y-14.813 Z41.79
Y-14.47 Z42.35
Y-14.058 Z42.934
Y-13.722 Z43.354
Y-13.485 Z43.63
Y-13.053 Z44.067
Y-12.774 Z44.308
Y-12.482 Z44.547
Y-12.13 Z44.792
Y-11.876 Z44.955
Y-11.352 Z45.235
Y-11.107 Z45.338
Y-10.661 Z45.505
Y-10.204 Z45.626
Y-9.972 Z45.678
Y-9.373 Z45.763
Y-8.872 Z45.791
Y-8.339 Z45.785
Y-7.75 Z45.741
Y-7.165 Z45.665
Y-6.906 Z45.621
Y-6.13 Z45.482
Y-4.841 Z45.222
Y-4.071 Z45.056
Y-3.559 Z44.938
Y-3.05 Z44.809
Y-2.569 Z44.676
Y-2.318 Z44.601
Y-1.692 Z44.404
Y-0.824 Z44.105
Y-0.209 Z43.878
Y0.765 Z43.486
Y1.855 Z43.027
Y3.029 Z42.516
Y4.131 Z42.007
Y4.958 Z41.606
Y5.66 Z41.25
Y6.334 Z40.884
Y7.147 Z40.415
Y7.934 Z39.943
Y8.598 Z39.519
Y9.563 Z38.884
Y10.103 Z38.512
Y11.175 Z37.753
Y11.596 Z37.442
Y12.504 Z36.755
Y13.809 Z35.716
Y14.787 Z34.89
Y15.396 Z34.343
Y15.901 Z33.879
Y16.753 Z33.041
Y17.432 Z32.307
Y17.599 Z32.116
Y17.764 Z31.915
Y18.089 Z31.509
Y18.314 Z31.203
Y18.696 Z30.618
G3 Y18.947 Z30.482 J0.251 K0.164
G1 X57.255 Y18.977 Z30.484
X57.253 Y19.005 Z30.488
X57.25 Y19.033 Z30.496
X57.245 Y19.06 Z30.507
X57.239 Y19.085 Z30.521
X57.231 Y19.109 Z30.538
X57.223 Y19.129 Z30.557
X57.213 Y19.148 Z30.578
X57.203 Y19.163 Z30.601
X57.192 Y19.175 Z30.625
X57.18 Y19.184 Z30.651
X57.168 Y19.189 Z30.677
X57.156 Y19.191 Z30.704
X57.144 Y19.189 Z30.731
X57.132 Y19.184 Z30.757
X57.121 Y19.175 Z30.783
X57.11 Y19.163 Z30.807
X57.099 Y19.148 Z30.83
X57.09 Y19.129 Z30.851
X57.081 Y19.109 Z30.87
X57.074 Y19.085 Z30.887
X57.068 Y19.06 Z30.9
X57.063 Y19.033 Z30.911
X57.059 Y19.005 Z30.919
X57.057 Y18.977 Z30.924
X57.056 Y18.947 Z30.926
G2 Y18.697 Z31.06 K0.3
G1 Y18.488 Z31.376
Y18.334 Z31.586
Y18.016 Z32.
Y17.852 Z32.195
Y17.328 Z32.782
Y16.966 Z33.158
Y16.407 Z33.713
Y16.22 Z33.892
Y15.444 Z34.601
Y15.049 Z34.944
Y14.249 Z35.623
Y13.223 Z36.442
Y12.181 Z37.24
Y11.655 Z37.631
Y10.393 Z38.53
Y9.632 Z39.043
Y8.618 Z39.711
Y7.865 Z40.176
Y6.963 Z40.714
Y6.302 Z41.087
Y5.606 Z41.456
Y4.902 Z41.811
Y4.099 Z42.199
Y3.022 Z42.684
Y1.842 Z43.197
Y0.752 Z43.655
Y-0.227 Z44.037
Y-1.214 Z44.396
Y-1.836 Z44.604
Y-2.087 Z44.684
Y-2.59 Z44.835
Y-3.096 Z44.974
Y-3.605 Z45.102
Y-4.374 Z45.272
Y-5.404 Z45.482
Y-6.436 Z45.682
Y-7.311 Z45.828
Y-7.865 Z45.892
Y-8.356 Z45.927
Y-8.919 Z45.931
Y-9.41 Z45.901
Y-9.995 Z45.815
Y-10.228 Z45.762
Y-10.684 Z45.64
Y-11.13 Z45.473
Y-11.35 Z45.382
Y-11.878 Z45.107
Y-12.132 Z44.945
Y-12.484 Z44.7
Y-12.776 Z44.461
Y-13.055 Z44.22
Y-13.57 Z43.698
Y-13.887 Z43.318
Y-14.117 Z43.019
Y-14.474 Z42.51
Y-14.792 Z42.008
Y-15.128 Z41.403
Y-15.425 Z40.818
Y-15.632 Z40.372
Y-15.885 Z39.781
Y-15.981 Z39.542
G2 Y-16.26 Z39.354 J-0.278 K0.112
G1 Y-16.367
X57.055 Y-16.385
X57.05 Y-16.403 Z39.352
X57.043 Y-16.42 Z39.349
X57.033 Y-16.435 Z39.346
X57.02 Y-16.448 Z39.341
X57.006 Y-16.459 Z39.336
X56.99 Y-16.467 Z39.331
X56.974 Y-16.472 Z39.325
X56.956 Y-16.473 Z39.318
X56.939 Y-16.472 Z39.312
X56.922 Y-16.467 Z39.306
X56.906 Y-16.459 Z39.3
X56.892 Y-16.448 Z39.295
X56.88 Y-16.435 Z39.291
X56.87 Y-16.42 Z39.287
X56.862 Y-16.403 Z39.285
X56.858 Y-16.385 Z39.283
X56.856 Y-16.367
G3 Y-16.089 Z39.47 K0.3
G1 Y-15.888 Z39.968
Y-15.658 Z40.506
Y-15.422 Z41.005
Y-15.124 Z41.591
Y-14.799 Z42.166
Y-14.412 Z42.773
Y-14.028 Z43.308
Y-13.586 Z43.835
Y-13.084 Z44.348
Y-12.537 Z44.814
Y-12.071 Z45.133
Y-11.811 Z45.286
Y-11.307 Z45.544
Y-10.976 Z45.674
Y-10.639 Z45.796
Y-10.21 Z45.909
Y-9.936 Z45.968
Y-9.454 Z46.038
Y-8.912 Z46.073
Y-8.346 Z46.068
Y-7.854 Z46.033
Y-7.332 Z45.972
Y-6.749 Z45.877
Y-6.231 Z45.785
Y-5.226 Z45.588
Y-4.223 Z45.382
Y-3.709 Z45.27
Y-3.199 Z45.147
Y-2.691 Z45.013
Y-2.093 Z44.839
Y-1.438 Z44.625
Y-0.942 Z44.453
Y-0.202 Z44.181
Y0.752 Z43.808
Y1.845 Z43.36
Y3.169 Z42.784
Y3.888 Z42.459
Y4.604 Z42.13
Y5.075 Z41.902
Y5.776 Z41.544
Y6.471 Z41.172
Y7.157 Z40.788
Y7.609 Z40.521
Y8.481 Z39.987
Y9.257 Z39.497
Y10.196 Z38.87
Y10.992 Z38.327
Y12.272 Z37.407
Y13.675 Z36.338
Y14.749 Z35.476
Y15.746 Z34.623
Y16.569 Z33.871
Y16.925 Z33.527
Y17.522 Z32.921
Y17.827 Z32.584
Y18.167 Z32.187
Y18.369 Z31.939
Y18.633 Z31.568
Y18.776 Z31.354
Y18.908 Z31.144
Y18.934 Z31.098
G3 Y19.188 Z30.958 J0.254 K0.16
G1 Y19.424
X56.854 Y19.443
X56.849 Y19.462
X56.839 Y19.48 Z30.957
X56.827 Y19.495
X56.812 Y19.507 Z30.956
X56.794 Y19.516 Z30.955
X56.776 Y19.522 Z30.954
X56.756 Y19.524 Z30.953
X56.737 Y19.522 Z30.952
X56.718 Y19.516 Z30.951
X56.701 Y19.507 Z30.95
X56.686 Y19.495 Z30.949
X56.673 Y19.48
X56.664 Y19.462 Z30.948
X56.658 Y19.443
X56.656 Y19.424
G2 Y19.164 Z31.098 K0.3
G1 Y18.899 Z31.56
Y18.762 Z31.775
Y18.619 Z31.978
Y18.462 Z32.184
Y18.3 Z32.386
Y18.135 Z32.587
Y17.966 Z32.78
Y17.608 Z33.16
Y17.144 Z33.632
Y16.361 Z34.364
Y15.695 Z34.945
Y15.195 Z35.37
Y14.176 Z36.195
Y12.806 Z37.238
Y11.65 Z38.077
Y11.112 Z38.452
Y9.95 Z39.241
Y9.19 Z39.731
Y8.323 Z40.276
Y7.819 Z40.583
Y7.195 Z40.944
Y6.508 Z41.329
Y5.809 Z41.704
Y5.371 Z41.926
Y4.661 Z42.268
Y4.209 Z42.479
Y2.951 Z43.044
Y2.045 Z43.432
Y0.83 Z43.93
Y-0.247 Z44.35
Y-1.235 Z44.707
Y-1.609 Z44.831
Y-2.085 Z44.98
Y-2.564 Z45.12
Y-3.072 Z45.256
Y-3.556 Z45.375
Y-4.068 Z45.491
Y-5.071 Z45.698
Y-6.335 Z45.947
Y-7.111 Z46.08
Y-7.37 Z46.119
Y-7.81 Z46.171
Y-8.35 Z46.21
Y-8.919 Z46.215
Y-9.45 Z46.181
Y-9.983 Z46.102
Y-10.293 Z46.03
Y-10.635 Z45.939
Y-10.862 Z45.861
Y-11.327 Z45.677
Y-11.752 Z45.46
Y-11.961 Z45.345
Y-12.457 Z45.015
Y-12.742 Z44.791
Y-13.025 Z44.555
Y-13.295 Z44.291
Y-13.543 Z44.036
Y-13.932 Z43.581
Y-14.084 Z43.388
Y-14.448 Z42.885
Y-14.816 Z42.304
Y-15.125 Z41.765
Y-15.383 Z41.268
Y-15.706 Z40.58
Y-15.899 Z40.136
Y-16.09 Z39.663
G2 Y-16.368 Z39.475 J-0.278 K0.112
G1 Y-16.369
X56.655 Y-16.391 Z39.476
X56.651 Y-16.412 Z39.479
X56.645 Y-16.432 Z39.485
X56.637 Y-16.45 Z39.493
X56.627 Y-16.467 Z39.503
X56.615 Y-16.481 Z39.514
X56.602 Y-16.492 Z39.527
X56.587 Y-16.501 Z39.541
X56.572 Y-16.506 Z39.556
X56.556 Y-16.508 Z39.571
X56.541 Y-16.506 Z39.586
X56.525 Y-16.501 Z39.6
X56.511 Y-16.492 Z39.614
X56.497 Y-16.481 Z39.627
X56.486 Y-16.467 Z39.638
X56.475 Y-16.45 Z39.648
X56.467 Y-16.432 Z39.656
X56.461 Y-16.412 Z39.662
X56.457 Y-16.391 Z39.665
X56.456 Y-16.369 Z39.666
G3 Y-16.091 Z39.854 K0.3
G1 Y-15.965 Z40.164
Y-15.67 Z40.842
Y-15.445 Z41.318
Y-15.123 Z41.936
Y-14.809 Z42.483
Y-14.472 Z43.008
Y-14.316 Z43.229
Y-13.955 Z43.708
Y-13.568 Z44.164
Y-13.125 Z44.608
Y-12.674 Z44.992
Y-12.481 Z45.141
Y-11.987 Z45.472
Y-11.57 Z45.698
Y-11.273 Z45.843
Y-10.689 Z46.062
Y-10.116 Z46.211
Y-9.856 Z46.256
Y-9.387 Z46.32
Y-8.782 Z46.351
Y-8.379 Z46.343
Y-8.117 Z46.329
Y-7.855 Z46.308
Y-7.594 Z46.281
Y-7.333 Z46.249
Y-7.074 Z46.21
Y-6.426 Z46.102
Y-5.007 Z45.827
Y-3.978 Z45.613
Y-3.594 Z45.526
Y-2.957 Z45.368
Y-2.703 Z45.299
Y-2.224 Z45.162
Y-1.748 Z45.016
Y-1.25 Z44.853
Y-0.753 Z44.682
Y-0.137 Z44.46
Y0.964 Z44.029
Y2.178 Z43.528
Y3.387 Z43.012
Y4.32 Z42.592
Y5.032 Z42.255
Y5.738 Z41.907
Y6.321 Z41.606
Y6.896 Z41.29
Y7.557 Z40.913
Y8.486 Z40.363
Y9.305 Z39.849
Y10.408 Z39.136
Y11.493 Z38.396
Y12.137 Z37.948
Y13.304 Z37.095
Y14.037 Z36.541
Y14.763 Z35.979
Y15.813 Z35.121
Y16.649 Z34.391
Y17.014 Z34.056
Y17.58 Z33.513
Y17.762 Z33.326
Y17.94 Z33.135
Y18.289 Z32.75
Y18.511 Z32.481
Y18.76 Z32.145
Y18.979 Z31.82
Y19.195 Z31.44
G3 Y19.456 Z31.288 J0.261 K0.148
G1 Y19.551
X56.455 Y19.573 Z31.289
X56.451 Y19.596 Z31.293
X56.445 Y19.617 Z31.299
X56.437 Y19.636 Z31.308
X56.427 Y19.653 Z31.318
X56.415 Y19.668 Z31.331
X56.402 Y19.68 Z31.345
X56.387 Y19.689 Z31.36
X56.372 Y19.694 Z31.376
X56.356 Y19.696 Z31.393
X56.341 Y19.694 Z31.409
X56.325 Y19.689 Z31.425
X56.311 Y19.68 Z31.441
X56.297 Y19.668 Z31.455
X56.286 Y19.653 Z31.467
X56.275 Y19.636 Z31.478
X56.267 Y19.617 Z31.487
X56.261 Y19.596 Z31.493
X56.257 Y19.573 Z31.497
X56.256 Y19.551 Z31.498
G2 Y19.291 Z31.649 K0.3
G1 Y19.038 Z32.088
Y18.827 Z32.41
Y18.598 Z32.71
Y18.434 Z32.909
Y18.111 Z33.278
Y17.911 Z33.485
Y17.398 Z33.99
Y17.162 Z34.212
Y16.377 Z34.908
Y15.977 Z35.243
Y15.165 Z35.908
Y14.022 Z36.79
Y12.495 Z37.905
Y11.613 Z38.519
Y10.908 Z38.999
Y9.665 Z39.809
Y9.111 Z40.16
Y8.123 Z40.757
Y7.272 Z41.254
Y6.756 Z41.539
Y6.06 Z41.907
Y5.322 Z42.279
Y4.672 Z42.592
Y4.194 Z42.81
Y2.99 Z43.336
Y1.78 Z43.846
Y0.806 Z44.242
Y-0.176 Z44.615
Y-0.918 Z44.881
Y-1.614 Z45.115
Y-2.116 Z45.272
Y-2.621 Z45.418
Y-3.128 Z45.553
Y-3.638 Z45.677
Y-4.666 Z45.896
Y-6.214 Z46.194
Y-6.732 Z46.284
Y-7.354 Z46.382
Y-7.876 Z46.441
Y-8.367 Z46.474
Y-8.927 Z46.478
Y-9.303 Z46.457
Y-9.566 Z46.43
Y-10.033 Z46.359
Y-10.494 Z46.247
Y-10.748 Z46.175
Y-11.316 Z45.959
Y-11.782 Z45.727
Y-11.965 Z45.628
Y-12.462 Z45.297
Y-12.747 Z45.074
Y-13.109 Z44.767
Y-13.552 Z44.327
Y-13.954 Z43.864
Y-14.343 Z43.347
Y-14.48 Z43.152
Y-14.85 Z42.578
Y-15.135 Z42.082
Y-15.423 Z41.533
Y-15.639 Z41.091
Y-15.902 Z40.498
Y-16.141 Z39.917
G2 Y-16.418 Z39.731 J-0.277 K0.114
G1 Y-16.576
X56.255 Y-16.599 Z39.73
X56.251 Y-16.622 Z39.726
X56.245 Y-16.643 Z39.719
X56.237 Y-16.663 Z39.71
X56.227 Y-16.681 Z39.699
X56.215 Y-16.696 Z39.685
X56.202 Y-16.709 Z39.671
X56.187 Y-16.718 Z39.654
X56.172 Y-16.723 Z39.638
X56.156 Y-16.725 Z39.62
X56.141 Y-16.723 Z39.603
X56.125 Y-16.718 Z39.586
X56.111 Y-16.709 Z39.57
X56.097 Y-16.696 Z39.555
X56.086 Y-16.681 Z39.542
X56.075 Y-16.663 Z39.53
X56.067 Y-16.643 Z39.521
X56.061 Y-16.622 Z39.514
X56.057 Y-16.599 Z39.51
X56.056 Y-16.576 Z39.509
G3 Y-16.296 Z39.7 K0.3
G1 Y-16.193 Z39.964
Y-15.914 Z40.649
Y-15.707 Z41.115
Y-15.382 Z41.783
Y-15.129 Z42.26
Y-14.826 Z42.774
Y-14.488 Z43.295
Y-14.261 Z43.614
Y-13.958 Z44.006
Y-13.556 Z44.466
Y-13.112 Z44.907
Y-12.562 Z45.367
Y-12.118 Z45.665
Y-11.859 Z45.819
Y-11.327 Z46.086
Y-10.857 Z46.267
Y-10.582 Z46.356
Y-10.058 Z46.486
Y-9.473 Z46.574
Y-8.911 Z46.61
Y-8.345 Z46.604
Y-8.109 Z46.59
Y-7.847 Z46.57
Y-7.587 Z46.542
Y-7.326 Z46.51
Y-7.093 Z46.474
Y-6.316 Z46.344
Y-4.793 Z46.052
Y-3.79 Z45.844
Y-3.278 Z45.725
Y-2.564 Z45.542
Y-1.762 Z45.303
Y-1.263 Z45.14
Y-0.792 Z44.978
Y-0.052 Z44.71
Y0.929 Z44.335
Y1.905 Z43.945
Y3.116 Z43.435
Y4.318 Z42.907
Y5.331 Z42.438
Y5.975 Z42.115
Y6.557 Z41.81
Y7.364 Z41.37
Y7.933 Z41.047
Y8.722 Z40.575
Y9.84 Z39.886
Y10.72 Z39.314
Y11.704 Z38.661
Y13.05 Z37.721
Y14.376 Z36.753
Y14.958 Z36.307
Y15.783 Z35.661
Y16.681 Z34.915
Y17.161 Z34.491
Y17.711 Z33.985
Y18.1 Z33.592
Y18.505 Z33.152
Y18.775 Z32.812
Y18.997 Z32.502
Y19.199 Z32.178
Y19.434 Z31.728
G3 Y19.7 Z31.567 J0.266 K0.139
G1 X56.055 Y19.727 Z31.569
X56.053 Y19.754 Z31.573
X56.049 Y19.779 Z31.581
X56.043 Y19.804 Z31.592
X56.036 Y19.826 Z31.605
X56.027 Y19.847 Z31.62
X56.017 Y19.864 Z31.638
X56.006 Y19.88 Z31.658
X55.994 Y19.891 Z31.679
X55.982 Y19.9 Z31.702
X55.969 Y19.905 Z31.725
X55.956 Y19.907 Z31.749
X55.943 Y19.905 Z31.772
X55.93 Y19.9 Z31.795
X55.918 Y19.891 Z31.818
X55.906 Y19.88 Z31.839
X55.895 Y19.864 Z31.859
X55.886 Y19.847 Z31.877
X55.877 Y19.826 Z31.892
X55.87 Y19.804 Z31.906
X55.864 Y19.779 Z31.916
X55.86 Y19.754 Z31.924
X55.857 Y19.727 Z31.928
X55.856 Y19.7 Z31.93
Y19.699
G2 Y19.434 Z32.089 K0.3
G1 Y19.27 Z32.398
Y18.984 Z32.849
Y18.772 Z33.14
Y18.439 Z33.529
Y18.052 Z33.939
Y17.611 Z34.358
Y17.181 Z34.748
Y16.273 Z35.513
Y15.398 Z36.204
Y14.795 Z36.665
Y13.758 Z37.428
Y12.104 Z38.587
Y10.594 Z39.588
Y9.728 Z40.133
Y8.637 Z40.804
Y7.927 Z41.216
Y7.058 Z41.704
Y6.306 Z42.107
Y5.663 Z42.431
Y4.976 Z42.758
Y4.284 Z43.076
Y3.105 Z43.592
Y1.891 Z44.092
Y0.939 Z44.472
Y-0.042 Z44.848
Y-0.782 Z45.116
Y-1.278 Z45.284
Y-1.778 Z45.442
Y-2.281 Z45.592
Y-2.787 Z45.731
Y-3.041 Z45.798
Y-3.526 Z45.915
Y-4.013 Z46.023
Y-5.043 Z46.231
Y-6.335 Z46.478
Y-7.085 Z46.604
Y-7.345 Z46.643
Y-7.605 Z46.675
Y-7.866 Z46.702
Y-8.128 Z46.723
Y-8.39 Z46.736
Y-8.793 Z46.744
Y-9.398 Z46.713
Y-9.948 Z46.636
Y-10.242 Z46.574
Y-10.7 Z46.453
Y-11.257 Z46.247
Y-11.529 Z46.121
Y-12. Z45.871
Y-12.521 Z45.529
Y-12.713 Z45.38
Y-13.079 Z45.079
Y-13.493 Z44.674
Y-13.689 Z44.461
Y-14.051 Z44.036
Y-14.474 Z43.47
Y-14.826 Z42.929
Y-15.04 Z42.571
Y-15.379 Z41.958
Y-15.674 Z41.353
Y-15.906 Z40.843
Y-16.129 Z40.311
Y-16.303 Z39.864
G2 Y-16.582 Z39.673 J-0.279 K0.109
G1 Y-16.584
X55.855 Y-16.605 Z39.674
X55.851 Y-16.625 Z39.677
X55.845 Y-16.645 Z39.682
X55.837 Y-16.663 Z39.69
X55.827 Y-16.679 Z39.699
X55.815 Y-16.692 Z39.709
X55.802 Y-16.703 Z39.721
X55.787 Y-16.711 Z39.734
X55.772 Y-16.716 Z39.747
X55.756 Y-16.718 Z39.761
X55.741 Y-16.716 Z39.775
X55.725 Y-16.711 Z39.788
X55.711 Y-16.703 Z39.801
X55.697 Y-16.692 Z39.813
X55.686 Y-16.679 Z39.823
X55.675 Y-16.663 Z39.832
X55.667 Y-16.645 Z39.84
X55.661 Y-16.625 Z39.845
X55.657 Y-16.605 Z39.848
X55.656 Y-16.584 Z39.849
G3 Y-16.305 Z40.04 K0.3
G1 Y-16.174 Z40.375
Y-15.966 Z40.873
Y-15.662 Z41.548
Y-15.448 Z41.98
Y-15.113 Z42.6
Y-14.758 Z43.194
Y-14.363 Z43.769
Y-13.999 Z44.245
Y-13.589 Z44.718
Y-13.072 Z45.218
Y-12.797 Z45.444
Y-12.5 Z45.675
Y-11.991 Z46.009
Y-11.547 Z46.243
Y-11.33 Z46.348
Y-10.974 Z46.486
Y-10.636 Z46.602
Y-10.061 Z46.743
Y-9.476 Z46.829
Y-8.944 Z46.863
Y-8.575 Z46.864
Y-8.179 Z46.851
Y-7.656 Z46.807
Y-7.395 Z46.775
Y-7.135 Z46.739
Y-6.421 Z46.623
Y-5.067 Z46.366
Y-4.036 Z46.158
Y-3.549 Z46.051
Y-3.038 Z45.928
Y-2.784 Z45.861
Y-2.278 Z45.722
Y-1.776 Z45.572
Y-1.275 Z45.413
Y-0.778 Z45.247
Y-0.144 Z45.024
Y0.921 Z44.621
Y1.897 Z44.231
Y3.112 Z43.731
Y4.244 Z43.246
Y5.272 Z42.771
Y5.98 Z42.427
Y6.739 Z42.038
Y7.373 Z41.694
Y8.035 Z41.319
Y8.942 Z40.79
Y9.615 Z40.381
Y10.926 Z39.556
Y11.584 Z39.125
Y12.675 Z38.392
Y14.159 Z37.353
Y14.455 Z37.138
Y15.612 Z36.275
Y16.616 Z35.48
Y17.042 Z35.123
Y17.636 Z34.609
Y17.827 Z34.433
Y18.203 Z34.068
Y18.537 Z33.72
Y18.883 Z33.298
Y19.122 Z32.966
Y19.349 Z32.587
Y19.574 Z32.14
G3 Y19.842 Z31.975 J0.268 K0.135
G1 Y19.878
X55.655 Y19.903 Z31.976
X55.651 Y19.927 Z31.981
X55.645 Y19.951 Z31.988
X55.637 Y19.972 Z31.999
X55.627 Y19.991 Z32.012
X55.615 Y20.008 Z32.027
X55.602 Y20.021 Z32.043
X55.587 Y20.031 Z32.062
X55.572 Y20.036 Z32.081
X55.556 Y20.038 Z32.101
X55.541 Y20.036 Z32.12
X55.525 Y20.031 Z32.139
X55.511 Y20.021 Z32.158
X55.497 Y20.008 Z32.174
X55.486 Y19.991 Z32.19
X55.475 Y19.972 Z32.202
X55.467 Y19.951 Z32.213
X55.461 Y19.927 Z32.22
X55.457 Y19.903 Z32.225
X55.456 Y19.878 Z32.226
G2 Y19.609 Z32.392 K0.3
G1 Y19.366 Z32.879
Y19.114 Z33.28
Y18.967 Z33.488
Y18.81 Z33.687
Y18.641 Z33.883
Y18.465 Z34.075
Y18.193 Z34.355
Y17.668 Z34.838
Y17.322 Z35.141
Y17.123 Z35.309
Y16.304 Z35.968
Y15.891 Z36.288
Y14.791 Z37.109
Y13.79 Z37.818
Y13.143 Z38.266
Y11.836 Z39.148
Y10.976 Z39.702
Y9.887 Z40.388
Y8.987 Z40.928
Y8.102 Z41.444
Y7.474 Z41.798
Y6.721 Z42.2
Y6.02 Z42.559
Y5.338 Z42.893
Y4.623 Z43.223
Y3.9 Z43.537
Y2.958 Z43.936
Y1.985 Z44.337
Y1.008 Z44.724
Y0.024 Z45.092
Y-0.718 Z45.357
Y-1.44 Z45.597
Y-1.916 Z45.746
Y-2.42 Z45.893
Y-2.927 Z46.03
Y-3.551 Z46.182
Y-4.567 Z46.395
Y-5.987 Z46.664
Y-6.504 Z46.757
Y-7.315 Z46.886
Y-7.804 Z46.943
Y-8.35 Z46.98
Y-8.927 Z46.985
Y-9.468 Z46.951
Y-9.95 Z46.883
Y-10.253 Z46.82
Y-10.668 Z46.714
Y-11.018 Z46.592
Y-11.35 Z46.465
Y-11.883 Z46.201
Y-12.141 Z46.045
Y-12.584 Z45.747
Y-13.068 Z45.354
Y-13.498 Z44.943
Y-13.748 Z44.674
Y-14.079 Z44.288
Y-14.348 Z43.933
Y-14.491 Z43.733
Y-14.853 Z43.187
Y-15.133 Z42.72
Y-15.428 Z42.174
Y-15.65 Z41.736
Y-15.893 Z41.211
Y-16.197 Z40.489
Y-16.316 Z40.193
G2 Y-16.594 Z40.005 J-0.278 K0.112
G1 Y-16.607
X55.455 Y-16.628 Z40.006
X55.45 Y-16.649 Z40.009
X55.443 Y-16.668 Z40.014
X55.433 Y-16.685 Z40.021
X55.421 Y-16.7 Z40.029
X55.406 Y-16.712 Z40.038
X55.39 Y-16.721 Z40.049
X55.374 Y-16.726 Z40.06
X55.356 Y-16.728 Z40.072
X55.339 Y-16.726 Z40.084
X55.322 Y-16.721 Z40.095
X55.306 Y-16.712 Z40.106
X55.292 Y-16.7 Z40.115
X55.28 Y-16.685 Z40.124
X55.27 Y-16.668 Z40.13
X55.262 Y-16.649 Z40.135
X55.258 Y-16.628 Z40.138
X55.256 Y-16.607 Z40.139
G3 Y-16.329 Z40.328 K0.3
G1 Y-16.239 Z40.552
Y-15.979 Z41.18
Y-15.65 Z41.891
Y-15.423 Z42.34
Y-15.145 Z42.848
Y-14.918 Z43.226
Y-14.644 Z43.652
Y-14.369 Z44.049
Y-13.991 Z44.532
Y-13.666 Z44.9
Y-13.458 Z45.115
Y-13.068 Z45.487
Y-12.726 Z45.766
Y-12.484 Z45.949
Y-11.982 Z46.269
Y-11.507 Z46.513
Y-11.233 Z46.634
Y-10.674 Z46.834
Y-10.214 Z46.951
Y-9.969 Z47.001
Y-9.487 Z47.07
Y-8.897 Z47.107
Y-8.361 Z47.101
Y-8.098 Z47.086
Y-7.836 Z47.066
Y-7.341 Z47.01
Y-7.081 Z46.971
Y-6.304 Z46.843
Y-5.038 Z46.607
Y-4.033 Z46.409
Y-3.52 Z46.298
Y-2.881 Z46.145
Y-2.122 Z45.938
Y-1.495 Z45.746
Y-0.773 Z45.506
Y-0.031 Z45.243
Y0.928 Z44.886
Y1.908 Z44.504
Y2.881 Z44.109
Y4.067 Z43.607
Y4.773 Z43.297
Y5.652 Z42.892
Y6.211 Z42.615
Y6.793 Z42.314
Y7.58 Z41.893
Y8.382 Z41.446
Y9.174 Z40.981
Y10.299 Z40.303
Y10.966 Z39.885
Y12.214 Z39.083
Y13.89 Z37.951
Y14.823 Z37.293
Y15.461 Z36.832
Y16.508 Z36.041
Y16.917 Z35.714
Y17.526 Z35.214
Y17.917 Z34.872
Y18.296 Z34.515
Y18.481 Z34.331
Y18.657 Z34.144
Y18.907 Z33.847
Y19.17 Z33.494
Y19.406 Z33.111
Y19.635 Z32.663
G3 Y19.902 Z32.5 J0.267 K0.137
G1 Y19.978
X55.255 Y19.999 Z32.501
X55.25 Y20.019 Z32.504
X55.243 Y20.038 Z32.509
X55.233 Y20.055 Z32.516
X55.221 Y20.07 Z32.524
X55.206 Y20.082 Z32.534
X55.19 Y20.091 Z32.544
X55.174 Y20.097 Z32.556
X55.156 Y20.098 Z32.568
X55.139 Y20.097 Z32.579
X55.122 Y20.091 Z32.591
X55.106 Y20.082 Z32.602
X55.092 Y20.07 Z32.611
X55.08 Y20.055 Z32.62
X55.07 Y20.038 Z32.626
X55.062 Y20.019 Z32.631
X55.058 Y19.999 Z32.634
X55.056 Y19.978 Z32.636
G2 Y19.707 Z32.805 K0.3
G1 Y19.487 Z33.262
Y19.296 Z33.583
Y19.08 Z33.898
Y18.823 Z34.221
Y18.587 Z34.479
Y18.174 Z34.889
Y17.834 Z35.191
Y17.232 Z35.697
Y16.614 Z36.181
Y15.987 Z36.658
Y15.351 Z37.12
Y14.404 Z37.794
Y12.803 Z38.875
Y11.677 Z39.607
Y10.835 Z40.139
Y9.713 Z40.823
Y8.947 Z41.278
Y8.146 Z41.732
Y7.455 Z42.113
Y6.656 Z42.539
Y6.081 Z42.826
Y5.341 Z43.179
Y4.678 Z43.48
Y4.197 Z43.692
Y3.108 Z44.154
Y1.767 Z44.69
Y0.787 Z45.07
Y-0.174 Z45.426
Y-0.794 Z45.643
Y-1.418 Z45.847
Y-1.92 Z46.001
Y-2.425 Z46.145
Y-2.933 Z46.278
Y-3.571 Z46.43
Y-3.956 Z46.514
Y-4.961 Z46.713
Y-6.226 Z46.95
Y-6.744 Z47.037
Y-7.328 Z47.129
Y-7.916 Z47.192
Y-8.375 Z47.222
Y-8.937 Z47.226
Y-9.465 Z47.193
Y-9.946 Z47.126
Y-10.221 Z47.07
Y-10.651 Z46.962
Y-10.99 Z46.845
Y-11.322 Z46.72
Y-11.857 Z46.458
Y-12.118 Z46.308
Y-12.565 Z46.015
Y-13.079 Z45.607
Y-13.574 Z45.132
Y-13.982 Z44.676
Y-14.401 Z44.143
Y-14.744 Z43.647
Y-15.146 Z42.991
Y-15.409 Z42.519
Y-15.69 Z41.964
Y-15.842 Z41.643
Y-16.145 Z40.954
Y-16.33 Z40.494
G2 Y-16.608 Z40.305 J-0.278 K0.112
G1 Y-16.609
X55.055 Y-16.631 Z40.307
X55.05 Y-16.653 Z40.31
X55.043 Y-16.674 Z40.317
X55.033 Y-16.693 Z40.325
X55.021 Y-16.709 Z40.335
X55.006 Y-16.722 Z40.347
X54.99 Y-16.731 Z40.361
X54.974 Y-16.737 Z40.375
X54.956 Y-16.739 Z40.389
X54.939 Y-16.737 Z40.404
X54.922 Y-16.731 Z40.418
X54.906 Y-16.722 Z40.431
X54.892 Y-16.709 Z40.443
X54.88 Y-16.693 Z40.454
X54.87 Y-16.674 Z40.462
X54.862 Y-16.653 Z40.468
X54.858 Y-16.631 Z40.472
X54.856 Y-16.609 Z40.473
G3 Y-16.331 Z40.659 K0.3
G1 Y-16.126 Z41.157
Y-15.929 Z41.607
Y-15.665 Z42.17
Y-15.555 Z42.385
Y-15.329 Z42.812
Y-15.124 Z43.175
Y-14.83 Z43.655
Y-14.493 Z44.148
Y-14.115 Z44.645
Y-13.962 Z44.831
Y-13.546 Z45.292
Y-13.082 Z45.728
Y-12.593 Z46.116
Y-12.198 Z46.378
Y-11.889 Z46.564
Y-11.356 Z46.827
Y-11.024 Z46.954
Y-10.673 Z47.076
Y-10.085 Z47.22
Y-9.591 Z47.294
Y-9.328 Z47.321
Y-8.942 Z47.342
Y-8.359 Z47.339
Y-7.9 Z47.309
Y-7.378 Z47.253
Y-6.437 Z47.108
Y-4.919 Z46.825
Y-4.043 Z46.652
Y-3.402 Z46.512
Y-2.892 Z46.388
Y-2.41 Z46.26
Y-1.904 Z46.116
Y-1.428 Z45.971
Y-0.927 Z45.81
Y-0.181 Z45.555
Y0.805 Z45.193
Y2.029 Z44.718
Y2.98 Z44.336
Y3.709 Z44.035
Y4.54 Z43.683
Y5.391 Z43.297
Y6.102 Z42.957
Y6.805 Z42.604
Y7.358 Z42.317
Y8.135 Z41.891
Y9.105 Z41.34
Y9.897 Z40.876
Y11.107 Z40.136
Y11.886 Z39.649
Y13.317 Z38.716
Y13.971 Z38.278
Y15.055 Z37.537
Y16.12 Z36.769
Y16.541 Z36.458
Y17.368 Z35.815
Y17.708 Z35.538
Y18.163 Z35.139
Y18.356 Z34.962
Y18.542 Z34.783
Y18.887 Z34.404
Y19.154 Z34.066
Y19.342 Z33.788
Y19.531 Z33.461
Y19.708 Z33.103
G3 Y19.977 Z32.936 J0.269 K0.133
G1 Y20.054
X54.855 Y20.074 Z32.937
X54.85 Y20.093 Z32.94
X54.843 Y20.111 Z32.944
X54.833 Y20.127 Z32.949
X54.821 Y20.141 Z32.956
X54.806 Y20.152 Z32.963
X54.79 Y20.161 Z32.972
X54.774 Y20.166 Z32.981
X54.756 Y20.167 Z32.99
X54.739 Y20.166 Z32.999
X54.722 Y20.161 Z33.008
X54.706 Y20.152 Z33.016
X54.692 Y20.141 Z33.024
X54.68 Y20.127 Z33.031
X54.67 Y20.111 Z33.036
X54.662 Y20.093 Z33.04
X54.658 Y20.074 Z33.042
X54.656 Y20.054 Z33.043
G2 Y19.782 Z33.216 K0.3
G1 Y19.595 Z33.617
Y19.444 Z33.891
Y19.236 Z34.211
Y18.965 Z34.567
Y18.664 Z34.898
Y18.479 Z35.082
Y18.146 Z35.394
Y17.699 Z35.77
Y17.057 Z36.28
Y16.453 Z36.731
Y15.625 Z37.333
Y14.214 Z38.305
Y12.279 Z39.569
Y11.06 Z40.329
Y10.304 Z40.791
Y9.255 Z41.405
Y8.199 Z42.007
Y7.419 Z42.426
Y6.72 Z42.789
Y6.015 Z43.14
Y5.305 Z43.477
Y4.825 Z43.692
Y4.102 Z44.002
Y2.888 Z44.503
Y1.937 Z44.884
Y0.956 Z45.262
Y-0.031 Z45.622
Y-0.75 Z45.871
Y-1.499 Z46.114
Y-1.976 Z46.258
Y-2.481 Z46.401
Y-2.963 Z46.527
Y-3.602 Z46.677
Y-4.116 Z46.786
Y-5.277 Z47.01
Y-6.312 Z47.198
Y-7.09 Z47.323
Y-7.349 Z47.361
Y-7.845 Z47.415
Y-8.107 Z47.435
Y-8.369 Z47.45
Y-8.906 Z47.455
Y-9.496 Z47.418
Y-10.081 Z47.333
Y-10.67 Z47.19
Y-11.021 Z47.07
Y-11.354 Z46.946
Y-11.948 Z46.654
Y-12.446 Z46.34
Y-12.691 Z46.163
Y-13.082 Z45.85
Y-13.518 Z45.442
Y-13.767 Z45.177
Y-14.058 Z44.85
Y-14.484 Z44.295
Y-14.834 Z43.782
Y-15.177 Z43.224
Y-15.324 Z42.965
Y-15.55 Z42.539
Y-15.763 Z42.113
Y-15.968 Z41.677
Y-16.17 Z41.21
Y-16.35 Z40.769
Y-16.469 Z40.462
X54.456 Y-16.531 Z40.46
Y-16.379 Z40.851
Y-16.152 Z41.41
Y-15.898 Z41.977
Y-15.691 Z42.406
Y-15.443 Z42.889
Y-15.133 Z43.435
Y-14.792 Z43.981
Y-14.404 Z44.539
Y-14.002 Z45.041
Y-13.552 Z45.531
Y-13.118 Z45.94
Y-12.727 Z46.256
Y-12.533 Z46.402
Y-12.134 Z46.657
Y-11.925 Z46.78
Y-11.392 Z47.041
Y-10.893 Z47.228
Y-10.609 Z47.318
Y-10.032 Z47.453
Y-9.505 Z47.528
Y-8.948 Z47.564
Y-8.412 Z47.561
Y-8.149 Z47.549
Y-7.887 Z47.529
Y-7.653 Z47.507
Y-7.392 Z47.476
Y-7.132 Z47.441
Y-6.445 Z47.332
Y-5.114 Z47.091
Y-4.081 Z46.892
Y-3.567 Z46.785
Y-3.055 Z46.667
Y-2.293 Z46.468
Y-1.789 Z46.322
Y-1.314 Z46.175
Y-0.815 Z46.012
Y-0.096 Z45.766
Y0.891 Z45.407
Y2.119 Z44.939
Y3.095 Z44.55
Y4.066 Z44.147
Y4.67 Z43.89
Y5.509 Z43.515
Y6.222 Z43.18
Y6.924 Z42.825
Y7.622 Z42.459
Y8.546 Z41.959
Y9.458 Z41.439
Y10.567 Z40.787
Y11.443 Z40.257
Y12.866 Z39.362
Y13.857 Z38.718
Y14.733 Z38.14
Y16.007 Z37.258
Y16.432 Z36.952
Y17.253 Z36.341
Y17.665 Z36.019
Y18.116 Z35.642
Y18.549 Z35.253
Y18.82 Z34.971
Y18.948 Z34.826
Y19.207 Z34.504
Y19.435 Z34.163
Y19.621 Z33.834
Y19.782 Z33.495
G3 Y20.053 Z33.323 J0.271 K0.129
G1 Y20.146
X54.454 Y20.166 Z33.324
X54.449 Y20.186 Z33.325
X54.439 Y20.203 Z33.327
X54.427 Y20.219 Z33.33
X54.412 Y20.232 Z33.334
X54.395 Y20.241 Z33.338
X54.376 Y20.247 Z33.342
X54.356 Y20.249 Z33.347
X54.337 Y20.247 Z33.352
X54.318 Y20.241 Z33.356
X54.301 Y20.232 Z33.36
X54.286 Y20.219 Z33.364
X54.273 Y20.203 Z33.367
X54.264 Y20.186 Z33.369
X54.258 Y20.166 Z33.371
