%
O00001001
(T9  D=3. CR=0. - ZMIN=44. - FLAT END MILL)
G90 G94 G17
G21
G91
G28 Z0.
G90
(??1)
T9 M6
S10000 M3
G54
G0 X1.778 Y39.914
G43 Z72. H9
G0 Z56.
G1 Z54.3 F720.
G19 G2 Y39.614 Z54. J-0.3
G1 Y39.464
G17 G3 X2.028 Y39.214 I0.25
Y40.214 Z53.75 J0.5
Y39.214 Z53.5 J-0.5
Y40.214 Z53.25 J0.5
Y39.214 Z53. J-0.5
Y40.214 Z52.75 J0.5
Y39.214 Z52.5 J-0.5
Y40.214 Z52.25 J0.5
Y39.214 Z52. J-0.5
Y40.214 Z51.75 J0.5
Y39.214 Z51.5 J-0.5
Y40.214 Z51.25 J0.5
Y39.214 Z51. J-0.5
Y40.214 Z50.75 J0.5
Y39.214 Z50.5 J-0.5
Y40.214 Z50.25 J0.5
Y39.214 Z50. J-0.5
Y40.214 Z49.75 J0.5
Y39.214 Z49.5 J-0.5
Y40.214 Z49.25 J0.5
Y39.214 Z49. J-0.5
Y40.214 Z48.75 J0.5
Y39.214 Z48.5 J-0.5
Y40.214 Z48.25 J0.5
Y39.214 Z48. J-0.5
Y40.214 Z47.75 J0.5
Y39.214 Z47.5 J-0.5
Y40.214 Z47.25 J0.5
Y39.214 Z47. J-0.5
Y40.214 Z46.75 J0.5
Y39.214 Z46.5 J-0.5
Y40.214 Z46.25 J0.5
Y39.214 Z46. J-0.5
Y40.214 Z45.75 J0.5
Y39.214 Z45.5 J-0.5
Y40.214 Z45.25 J0.5
Y39.214 Z45. J-0.5
Y40.214 Z44.75 J0.5
Y39.214 Z44.5 J-0.5
Y40.214 Z44.25 J0.5
Y39.214 Z44. J-0.5
Y40.214 J0.5
Y39.214 J-0.5
X2.278 Y39.464 J0.25
G1 Y39.614
G19 G3 Y39.914 Z44.3 K0.3
G0 Z62.
X1.778 Y-39.086
Z56.
G1 Z54.3 F720.
G2 Y-39.386 Z54. J-0.3
G1 Y-39.536
G17 G3 X2.028 Y-39.786 I0.25
Y-38.786 Z53.75 J0.5
Y-39.786 Z53.5 J-0.5
Y-38.786 Z53.25 J0.5
Y-39.786 Z53. J-0.5
Y-38.786 Z52.75 J0.5
Y-39.786 Z52.5 J-0.5
Y-38.786 Z52.25 J0.5
Y-39.786 Z52. J-0.5
Y-38.786 Z51.75 J0.5
Y-39.786 Z51.5 J-0.5
Y-38.786 Z51.25 J0.5
Y-39.786 Z51. J-0.5
Y-38.786 Z50.75 J0.5
Y-39.786 Z50.5 J-0.5
Y-38.786 Z50.25 J0.5
Y-39.786 Z50. J-0.5
Y-38.786 Z49.75 J0.5
Y-39.786 Z49.5 J-0.5
Y-38.786 Z49.25 J0.5
Y-39.786 Z49. J-0.5
Y-38.786 Z48.75 J0.5
Y-39.786 Z48.5 J-0.5
Y-38.786 Z48.25 J0.5
Y-39.786 Z48. J-0.5
Y-38.786 Z47.75 J0.5
Y-39.786 Z47.5 J-0.5
Y-38.786 Z47.25 J0.5
Y-39.786 Z47. J-0.5
Y-38.786 Z46.75 J0.5
Y-39.786 Z46.5 J-0.5
Y-38.786 Z46.25 J0.5
Y-39.786 Z46. J-0.5
Y-38.786 Z45.75 J0.5
Y-39.786 Z45.5 J-0.5
Y-38.786 Z45.25 J0.5
Y-39.786 Z45. J-0.5
Y-38.786 Z44.75 J0.5
Y-39.786 Z44.5 J-0.5
Y-38.786 Z44.25 J0.5
Y-39.786 Z44. J-0.5
Y-38.786 J0.5
Y-39.786 J-0.5
X2.278 Y-39.536 J0.25
G1 Y-39.386
G19 G3 Y-39.086 Z44.3 K0.3
G0 Z72.
G17
G91
G28 Z0.
G90
M5
G91
G28 X0. Y0.
G90
M30
%
