%
O00001002
(T9  D=3. CR=0. - ZMIN=-12. - FLAT END MILL)
G90 G94 G17
G21
G91
G28 Z0.
G90
(??1 _?????)
T9 M6
S10000 M3
G54
G0 X1.778 Y39.914
G43 Z18. H9
G0 Z2.
G1 Z0.3 F720.
G19 G2 Y39.614 Z0. J-0.3
G1 Y39.464
G17 G3 X2.028 Y39.214 I0.25
Y40.214 Z-0.25 J0.5
Y39.214 Z-0.5 J-0.5
Y40.214 Z-0.75 J0.5
Y39.214 Z-1. J-0.5
Y40.214 Z-1.25 J0.5
Y39.214 Z-1.5 J-0.5
Y40.214 Z-1.75 J0.5
Y39.214 Z-2. J-0.5
Y40.214 Z-2.25 J0.5
Y39.214 Z-2.5 J-0.5
Y40.214 Z-2.75 J0.5
Y39.214 Z-3. J-0.5
Y40.214 Z-3.25 J0.5
Y39.214 Z-3.5 J-0.5
Y40.214 Z-3.75 J0.5
Y39.214 Z-4. J-0.5
Y40.214 Z-4.25 J0.5
Y39.214 Z-4.5 J-0.5
Y40.214 Z-4.75 J0.5
Y39.214 Z-5. J-0.5
Y40.214 Z-5.25 J0.5
Y39.214 Z-5.5 J-0.5
Y40.214 Z-5.75 J0.5
Y39.214 Z-6. J-0.5
Y40.214 Z-6.25 J0.5
Y39.214 Z-6.5 J-0.5
Y40.214 Z-6.75 J0.5
Y39.214 Z-7. J-0.5
Y40.214 Z-7.25 J0.5
Y39.214 Z-7.5 J-0.5
Y40.214 Z-7.75 J0.5
Y39.214 Z-8. J-0.5
Y40.214 Z-8.25 J0.5
Y39.214 Z-8.5 J-0.5
Y40.214 Z-8.75 J0.5
Y39.214 Z-9. J-0.5
Y40.214 Z-9.25 J0.5
Y39.214 Z-9.5 J-0.5
Y40.214 Z-9.75 J0.5
Y39.214 Z-10. J-0.5
Y40.214 Z-10.25 J0.5
Y39.214 Z-10.5 J-0.5
Y40.214 Z-10.75 J0.5
Y39.214 Z-11. J-0.5
Y40.214 Z-11.25 J0.5
Y39.214 Z-11.5 J-0.5
Y40.214 Z-11.75 J0.5
Y39.214 Z-12. J-0.5
Y40.214 J0.5
Y39.214 J-0.5
X2.278 Y39.464 J0.25
G1 Y39.614
G19 G3 Y39.914 Z-11.7 K0.3
G0 Z8.
X1.778 Y-39.086
Z2.
G1 Z0.3 F720.
G2 Y-39.386 Z0. J-0.3
G1 Y-39.536
G17 G3 X2.028 Y-39.786 I0.25
Y-38.786 Z-0.25 J0.5
Y-39.786 Z-0.5 J-0.5
Y-38.786 Z-0.75 J0.5
Y-39.786 Z-1. J-0.5
Y-38.786 Z-1.25 J0.5
Y-39.786 Z-1.5 J-0.5
Y-38.786 Z-1.75 J0.5
Y-39.786 Z-2. J-0.5
Y-38.786 Z-2.25 J0.5
Y-39.786 Z-2.5 J-0.5
Y-38.786 Z-2.75 J0.5
Y-39.786 Z-3. J-0.5
Y-38.786 Z-3.25 J0.5
Y-39.786 Z-3.5 J-0.5
Y-38.786 Z-3.75 J0.5
Y-39.786 Z-4. J-0.5
Y-38.786 Z-4.25 J0.5
Y-39.786 Z-4.5 J-0.5
Y-38.786 Z-4.75 J0.5
Y-39.786 Z-5. J-0.5
Y-38.786 Z-5.25 J0.5
Y-39.786 Z-5.5 J-0.5
Y-38.786 Z-5.75 J0.5
Y-39.786 Z-6. J-0.5
Y-38.786 Z-6.25 J0.5
Y-39.786 Z-6.5 J-0.5
Y-38.786 Z-6.75 J0.5
Y-39.786 Z-7. J-0.5
Y-38.786 Z-7.25 J0.5
Y-39.786 Z-7.5 J-0.5
Y-38.786 Z-7.75 J0.5
Y-39.786 Z-8. J-0.5
Y-38.786 Z-8.25 J0.5
Y-39.786 Z-8.5 J-0.5
Y-38.786 Z-8.75 J0.5
Y-39.786 Z-9. J-0.5
Y-38.786 Z-9.25 J0.5
Y-39.786 Z-9.5 J-0.5
Y-38.786 Z-9.75 J0.5
Y-39.786 Z-10. J-0.5
Y-38.786 Z-10.25 J0.5
Y-39.786 Z-10.5 J-0.5
Y-38.786 Z-10.75 J0.5
Y-39.786 Z-11. J-0.5
Y-38.786 Z-11.25 J0.5
Y-39.786 Z-11.5 J-0.5
Y-38.786 Z-11.75 J0.5
Y-39.786 Z-12. J-0.5
Y-38.786 J0.5
Y-39.786 J-0.5
X2.278 Y-39.536 J0.25
G1 Y-39.386
G19 G3 Y-39.086 Z-11.7 K0.3
G0 Z18.
G17
G91
G28 Z0.
G90
M5
G91
G28 X0. Y0.
G90
M30
%
