%
O00003001
(T5  D=6. CR=3. - ZMIN=27.003 - BALL END MILL)
G90 G94 G17
G21
G91
G28 Z0.
G90
(????2 (2))
T5 M6
S10000 M3
G54
G0 X-21.673 Y-17.889
G43 Z69. H5
G0 Z59.
Z56.5
G3 X-20.348 Y-17.186 Z56.418 I0.663 J0.351 F1440.
X-21.673 Y-17.889 Z56.335 I-0.663 J-0.351
X-20.348 Y-17.186 Z56.253 I0.663 J0.351
X-21.673 Y-17.889 Z56.171 I-0.663 J-0.351
X-20.348 Y-17.186 Z56.089 I0.663 J0.351
X-21.673 Y-17.889 Z56.006 I-0.663 J-0.351
X-20.348 Y-17.186 Z55.924 I0.663 J0.351
X-21.673 Y-17.889 Z55.842 I-0.663 J-0.351
X-20.348 Y-17.186 Z55.759 I0.663 J0.351
X-21.673 Y-17.889 Z55.677 I-0.663 J-0.351
X-20.348 Y-17.186 Z55.595 I0.663 J0.351
X-21.673 Y-17.889 Z55.513 I-0.663 J-0.351
X-20.348 Y-17.186 Z55.43 I0.663 J0.351
X-21.673 Y-17.889 Z55.348 I-0.663 J-0.351
X-20.348 Y-17.186 Z55.266 I0.663 J0.351
X-21.673 Y-17.889 Z55.184 I-0.663 J-0.351
X-20.348 Y-17.186 Z55.101 I0.663 J0.351
X-21.673 Y-17.889 Z55.019 I-0.663 J-0.351
X-20.348 Y-17.186 Z54.937 I0.663 J0.351
X-21.673 Y-17.889 Z54.854 I-0.663 J-0.351
X-20.348 Y-17.186 Z54.772 I0.663 J0.351
X-21.673 Y-17.889 Z54.69 I-0.663 J-0.351
X-20.348 Y-17.186 Z54.608 I0.663 J0.351
X-21.673 Y-17.889 Z54.525 I-0.663 J-0.351
X-20.348 Y-17.186 Z54.443 I0.663 J0.351
X-21.673 Y-17.889 Z54.361 I-0.663 J-0.351
X-20.348 Y-17.186 Z54.278 I0.663 J0.351
X-21.673 Y-17.889 Z54.196 I-0.663 J-0.351
X-20.348 Y-17.186 Z54.114 I0.663 J0.351
X-21.673 Y-17.889 Z54.032 I-0.663 J-0.351
X-20.348 Y-17.186 Z53.949 I0.663 J0.351
X-21.673 Y-17.889 Z53.867 I-0.663 J-0.351
X-20.348 Y-17.186 Z53.785 I0.663 J0.351
X-21.673 Y-17.889 Z53.702 I-0.663 J-0.351
X-20.348 Y-17.186 Z53.62 I0.663 J0.351
X-21.673 Y-17.889 Z53.538 I-0.663 J-0.351
X-20.348 Y-17.186 Z53.456 I0.663 J0.351
X-21.673 Y-17.889 Z53.373 I-0.663 J-0.351
X-20.348 Y-17.186 Z53.291 I0.663 J0.351
X-21.673 Y-17.889 Z53.209 I-0.663 J-0.351
X-20.348 Y-17.186 Z53.127 I0.663 J0.351
X-21.673 Y-17.889 Z53.044 I-0.663 J-0.351
X-20.348 Y-17.186 Z52.962 I0.663 J0.351
X-21.673 Y-17.889 Z52.88 I-0.663 J-0.351
X-20.348 Y-17.186 Z52.797 I0.663 J0.351
X-21.673 Y-17.889 Z52.715 I-0.663 J-0.351
X-20.348 Y-17.186 Z52.633 I0.663 J0.351
X-21.673 Y-17.889 Z52.551 I-0.663 J-0.351
X-20.348 Y-17.186 Z52.468 I0.663 J0.351
X-21.673 Y-17.889 Z52.386 I-0.663 J-0.351
X-20.348 Y-17.186 Z52.304 I0.663 J0.351
X-21.673 Y-17.889 Z52.221 I-0.663 J-0.351
X-20.348 Y-17.186 Z52.139 I0.663 J0.351
X-21.673 Y-17.889 Z52.057 I-0.663 J-0.351
X-20.348 Y-17.186 Z51.975 I0.663 J0.351
X-21.673 Y-17.889 Z51.892 I-0.663 J-0.351
X-20.348 Y-17.186 Z51.81 I0.663 J0.351
X-21.673 Y-17.889 Z51.728 I-0.663 J-0.351
X-20.348 Y-17.186 Z51.645 I0.663 J0.351
X-21.673 Y-17.889 Z51.563 I-0.663 J-0.351
X-20.348 Y-17.186 Z51.481 I0.663 J0.351
X-21.673 Y-17.889 Z51.399 I-0.663 J-0.351
X-20.348 Y-17.186 Z51.316 I0.663 J0.351
X-21.673 Y-17.889 Z51.234 I-0.663 J-0.351
X-20.348 Y-17.186 Z51.152 I0.663 J0.351
X-21.673 Y-17.889 Z51.07 I-0.663 J-0.351
X-20.261 Y-17.537 Z51. I0.663 J0.351
X-21.761 I-0.75
X-20.261 I0.75
S15000
G1 X-20.226 Y-17.06
X-20.207 Y-16.911
X-20.229 Y-16.763
X-20.282 Y-16.622
X-20.359 Y-16.494
X-20.458 Y-16.38
X-20.572 Y-16.283
X-20.699 Y-16.203
X-20.835 Y-16.141
X-20.979 Y-16.097
X-21.126 Y-16.071
X-21.276 Y-16.063
X-21.426 Y-16.072
X-21.574 Y-16.098
X-21.718 Y-16.14
X-21.857 Y-16.196
X-21.989 Y-16.267
X-22.113 Y-16.352
X-22.228 Y-16.448
X-22.333 Y-16.555
X-22.427 Y-16.672
X-22.509 Y-16.797
X-22.579 Y-16.93
X-22.637 Y-17.068
X-22.681 Y-17.212
X-22.711 Y-17.359
X-22.728 Y-17.508
X-22.732 Y-17.658
X-22.721 Y-17.807
X-22.698 Y-17.955
X-22.661 Y-18.101
X-22.612 Y-18.242
X-22.55 Y-18.379
X-22.476 Y-18.51
X-22.392 Y-18.634
X-22.297 Y-18.75
X-22.192 Y-18.857
X-22.078 Y-18.955
X-21.957 Y-19.043
X-21.828 Y-19.12
X-21.693 Y-19.185
X-21.553 Y-19.239
X-21.409 Y-19.281
X-21.262 Y-19.311
X-21.113 Y-19.328
X-20.963 Y-19.332
X-20.813 Y-19.323
X-20.665 Y-19.302
X-20.518 Y-19.269
X-20.376 Y-19.223
X-20.237 Y-19.166
X-20.104 Y-19.097
X-19.977 Y-19.017
X-19.857 Y-18.927
X-19.713 Y-18.802
X-19.579 Y-18.667
X-19.464 Y-18.533
X-19.358 Y-18.391
X-19.265 Y-18.244
X-19.187 Y-18.099
X-19.117 Y-17.943
X-19.062 Y-17.791
X-19.017 Y-17.634
X-18.984 Y-17.475
X-18.963 Y-17.318
X-18.953 Y-17.156
X-18.955 Y-16.999
X-18.969 Y-16.836
X-18.993 Y-16.681
X-19.03 Y-16.522
X-19.077 Y-16.37
X-19.137 Y-16.217
X-19.206 Y-16.071
X-19.287 Y-15.928
X-19.38 Y-15.79
X-19.48 Y-15.66
X-19.594 Y-15.533
X-19.715 Y-15.418
X-19.847 Y-15.308
X-19.987 Y-15.207
X-20.134 Y-15.117
X-20.292 Y-15.036
X-20.454 Y-14.966
X-20.621 Y-14.908
X-20.798 Y-14.861
X-20.976 Y-14.827
X-21.157 Y-14.806
X-21.345 Y-14.797
X-21.532 Y-14.802
X-21.718 Y-14.821
X-21.908 Y-14.854
X-22.096 Y-14.901
X-22.278 Y-14.96
X-22.46 Y-15.034
X-22.638 Y-15.123
X-22.81 Y-15.224
X-22.973 Y-15.337
X-23.131 Y-15.464
X-23.282 Y-15.604
X-23.421 Y-15.753
X-23.55 Y-15.913
X-23.668 Y-16.084
X-23.775 Y-16.266
X-23.869 Y-16.454
X-23.949 Y-16.649
X-24.015 Y-16.851
X-24.067 Y-17.059
X-24.104 Y-17.273
X-24.126 Y-17.488
X-24.132 Y-17.705
X-24.123 Y-17.922
X-24.098 Y-18.141
X-24.056 Y-18.359
X-23.999 Y-18.573
X-23.927 Y-18.783
X-23.84 Y-18.986
X-23.737 Y-19.185
X-23.619 Y-19.378
X-23.488 Y-19.562
X-23.343 Y-19.736
X-23.186 Y-19.899
X-23.019 Y-20.051
X-22.839 Y-20.191
X-22.648 Y-20.318
X-22.448 Y-20.432
X-22.24 Y-20.531
X-22.026 Y-20.615
X-21.807 Y-20.683
X-21.583 Y-20.735
X-21.354 Y-20.771
X-21.122 Y-20.791
X-20.889 Y-20.794
X-20.651 Y-20.78
X-20.41 Y-20.748
X-20.167 Y-20.697
X-19.925 Y-20.629
X-19.685 Y-20.542
X-19.448 Y-20.436
X-19.218 Y-20.312
X-18.995 Y-20.171
X-18.782 Y-20.014
X-18.58 Y-19.84
X-18.39 Y-19.652
X-18.214 Y-19.45
X-18.052 Y-19.236
X-17.907 Y-19.01
X-17.777 Y-18.773
X-17.665 Y-18.528
X-17.57 Y-18.274
X-17.494 Y-18.014
X-17.437 Y-17.748
X-17.398 Y-17.479
X-17.38 Y-17.206
X-17.381 Y-16.933
X-17.401 Y-16.659
X-17.442 Y-16.386
X-17.502 Y-16.117
X-17.582 Y-15.851
X-17.682 Y-15.591
X-17.8 Y-15.338
X-17.937 Y-15.092
X-18.091 Y-14.856
X-18.264 Y-14.631
X-18.453 Y-14.418
X-18.658 Y-14.218
X-18.878 Y-14.032
X-19.112 Y-13.861
X-19.359 Y-13.707
X-19.618 Y-13.571
X-19.888 Y-13.453
X-20.167 Y-13.354
X-20.454 Y-13.274
X-20.748 Y-13.216
X-21.048 Y-13.178
X-21.351 Y-13.163
X-21.656 Y-13.169
X-21.962 Y-13.197
X-22.267 Y-13.247
X-22.57 Y-13.32
X-22.868 Y-13.415
X-23.161 Y-13.532
X-23.445 Y-13.67
X-23.721 Y-13.83
X-23.986 Y-14.01
X-24.238 Y-14.21
X-24.477 Y-14.428
X-24.7 Y-14.664
X-24.907 Y-14.918
X-25.097 Y-15.186
X-25.266 Y-15.469
X-25.416 Y-15.765
X-25.545 Y-16.071
X-25.651 Y-16.388
X-25.735 Y-16.713
X-25.796 Y-17.045
X-25.832 Y-17.381
X-25.845 Y-17.72
X-25.832 Y-18.06
X-25.796 Y-18.4
X-25.734 Y-18.738
X-25.648 Y-19.071
X-25.538 Y-19.398
X-25.404 Y-19.717
X-25.248 Y-20.027
X-25.068 Y-20.325
X-24.868 Y-20.611
X-24.646 Y-20.882
X-24.405 Y-21.137
X-24.146 Y-21.374
X-23.87 Y-21.592
X-23.578 Y-21.791
X-23.272 Y-21.968
X-22.953 Y-22.123
X-22.623 Y-22.256
X-22.282 Y-22.364
X-21.931 Y-22.449
X-21.573 Y-22.508
X-21.209 Y-22.542
X-20.97 Y-22.547
X-20.599 Y-22.537
X-20.227 Y-22.501
X-19.857 Y-22.437
X-19.489 Y-22.347
X-19.127 Y-22.229
X-18.772 Y-22.085
X-18.427 Y-21.915
X-18.093 Y-21.719
X-17.772 Y-21.499
X-17.467 Y-21.255
X-17.18 Y-20.989
X-16.911 Y-20.701
X-16.663 Y-20.395
X-16.437 Y-20.07
X-16.235 Y-19.728
X-16.057 Y-19.372
X-15.905 Y-19.004
X-15.779 Y-18.624
X-15.681 Y-18.235
X-15.611 Y-17.839
X-15.57 Y-17.438
X-15.557 Y-17.034
X-15.574 Y-16.629
X-15.62 Y-16.225
X-15.696 Y-15.825
X-15.8 Y-15.429
X-15.933 Y-15.041
X-16.094 Y-14.662
X-16.282 Y-14.295
X-16.498 Y-13.941
X-16.739 Y-13.602
X-17.005 Y-13.28
X-17.294 Y-12.977
X-17.606 Y-12.695
X-17.939 Y-12.434
X-18.291 Y-12.198
X-18.661 Y-11.987
X-19.046 Y-11.802
X-19.446 Y-11.644
X-19.858 Y-11.515
X-20.279 Y-11.416
X-20.709 Y-11.347
X-21.145 Y-11.31
X-21.584 Y-11.303
X-22.024 Y-11.329
X-22.464 Y-11.386
X-22.9 Y-11.475
X-23.33 Y-11.596
X-23.753 Y-11.748
X-24.165 Y-11.931
X-24.564 Y-12.145
X-24.949 Y-12.387
X-25.316 Y-12.658
X-25.665 Y-12.955
X-25.992 Y-13.279
X-26.296 Y-13.626
X-26.576 Y-13.995
X-26.829 Y-14.385
X-27.054 Y-14.794
X-27.25 Y-15.219
X-27.415 Y-15.659
X-27.548 Y-16.111
X-27.649 Y-16.573
X-27.716 Y-17.042
X-27.75 Y-17.516
X-27.749 Y-17.993
X-27.714 Y-18.47
X-27.644 Y-18.944
X-27.54 Y-19.414
X-27.402 Y-19.875
X-27.231 Y-20.327
X-27.027 Y-20.766
X-26.792 Y-21.191
X-26.526 Y-21.598
X-26.231 Y-21.985
X-25.908 Y-22.351
X-25.559 Y-22.694
X-25.185 Y-23.011
X-24.788 Y-23.301
X-24.37 Y-23.563
X-23.933 Y-23.795
X-23.484 Y-23.993
X-23.011 Y-24.161
X-22.526 Y-24.296
X-22.03 Y-24.396
X-21.526 Y-24.46
X-21.017 Y-24.488
X-20.505 Y-24.479
X-19.993 Y-24.433
X-19.483 Y-24.349
X-18.978 Y-24.229
X-18.482 Y-24.072
X-17.996 Y-23.879
X-17.523 Y-23.651
X-17.067 Y-23.388
X-16.629 Y-23.092
X-16.213 Y-22.764
X-15.82 Y-22.405
X-15.452 Y-22.019
X-15.113 Y-21.605
X-14.803 Y-21.168
X-14.526 Y-20.707
X-14.281 Y-20.227
X-14.071 Y-19.73
X-13.897 Y-19.217
X-13.761 Y-18.691
X-13.662 Y-18.157
X-13.602 Y-17.615
X-13.581 Y-17.069
X-13.597 Y-16.59
X-13.65 Y-16.044
X-13.742 Y-15.502
X-13.873 Y-14.967
X-14.044 Y-14.441
X-14.252 Y-13.927
X-14.497 Y-13.428
X-14.778 Y-12.947
X-15.095 Y-12.486
X-15.444 Y-12.048
X-15.826 Y-11.635
X-16.238 Y-11.249
X-16.677 Y-10.893
X-17.143 Y-10.568
X-17.632 Y-10.277
X-18.143 Y-10.021
X-18.673 Y-9.802
X-19.219 Y-9.621
X-19.779 Y-9.479
X-20.349 Y-9.378
X-20.927 Y-9.318
X-21.51 Y-9.299
X-22.095 Y-9.323
X-22.679 Y-9.389
X-23.258 Y-9.497
X-23.83 Y-9.647
X-24.392 Y-9.839
X-24.94 Y-10.072
X-25.472 Y-10.344
X-25.984 Y-10.655
X-26.474 Y-11.003
X-26.939 Y-11.386
X-27.377 Y-11.804
X-27.785 Y-12.253
X-28.16 Y-12.732
X-28.501 Y-13.238
X-28.805 Y-13.769
X-29.071 Y-14.322
X-29.297 Y-14.894
X-29.482 Y-15.483
X-29.624 Y-16.085
X-29.723 Y-16.696
X-29.777 Y-17.315
X-29.787 Y-17.938
X-29.751 Y-18.561
X-29.671 Y-19.181
X-29.546 Y-19.796
X-29.377 Y-20.4
X-29.164 Y-20.993
X-28.908 Y-21.569
X-28.611 Y-22.127
X-28.274 Y-22.662
X-27.899 Y-23.173
X-27.487 Y-23.657
X-27.04 Y-24.11
X-26.561 Y-24.531
X-26.052 Y-24.917
X-25.515 Y-25.266
X-24.951 Y-25.577
X-24.365 Y-25.848
X-23.758 Y-26.076
X-23.134 Y-26.261
X-22.497 Y-26.401
X-21.848 Y-26.495
X-21.193 Y-26.542
X-20.533 Y-26.541
X-19.873 Y-26.493
X-19.216 Y-26.397
X-18.565 Y-26.254
X-17.924 Y-26.063
X-17.297 Y-25.826
X-16.686 Y-25.544
X-16.096 Y-25.217
X-15.529 Y-24.848
X-14.989 Y-24.437
X-14.478 Y-23.988
X-14.001 Y-23.502
X-13.558 Y-22.981
X-13.153 Y-22.429
X-12.788 Y-21.847
X-12.466 Y-21.24
X-12.187 Y-20.61
X-12.026 Y-20.159
X-11.825 Y-19.5
X-11.674 Y-18.834
X-11.569 Y-18.147
X-11.514 Y-17.454
X-11.51 Y-16.757
X-11.555 Y-16.06
X-11.651 Y-15.367
X-11.797 Y-14.682
X-11.992 Y-14.007
X-12.236 Y-13.346
X-12.528 Y-12.704
X-12.865 Y-12.083
X-13.248 Y-11.486
X-13.674 Y-10.917
X-14.14 Y-10.379
X-14.646 Y-9.874
X-15.188 Y-9.407
X-15.764 Y-8.978
X-16.37 Y-8.591
X-17.005 Y-8.248
X-17.665 Y-7.95
X-18.346 Y-7.701
X-19.045 Y-7.5
X-19.759 Y-7.35
X-20.484 Y-7.251
X-21.217 Y-7.205
X-21.953 Y-7.212
X-22.688 Y-7.272
X-23.419 Y-7.385
X-24.143 Y-7.551
X-24.854 Y-7.77
X-25.55 Y-8.039
X-26.226 Y-8.359
X-26.879 Y-8.728
X-27.506 Y-9.145
X-28.102 Y-9.606
X-28.665 Y-10.11
X-29.192 Y-10.655
X-29.679 Y-11.238
X-30.123 Y-11.857
X-30.523 Y-12.507
X-30.876 Y-13.185
X-31.18 Y-13.889
X-31.433 Y-14.615
X-31.633 Y-15.358
X-31.78 Y-16.116
X-31.872 Y-16.884
X-31.908 Y-17.657
X-31.888 Y-18.433
X-31.813 Y-19.207
X-31.681 Y-19.975
X-31.494 Y-20.733
X-31.253 Y-21.476
X-30.958 Y-22.201
X-30.611 Y-22.904
X-30.214 Y-23.582
X-29.768 Y-24.23
X-29.276 Y-24.846
X-28.74 Y-25.425
X-28.162 Y-25.965
X-27.545 Y-26.464
X-26.893 Y-26.918
X-26.207 Y-27.325
X-25.493 Y-27.682
X-24.752 Y-27.988
X-23.989 Y-28.24
X-23.207 Y-28.437
X-22.736 Y-28.52
X-21.936 Y-28.627
X-21.127 Y-28.676
X-20.314 Y-28.666
X-19.502 Y-28.598
X-18.694 Y-28.471
X-17.895 Y-28.285
X-17.109 Y-28.042
X-16.341 Y-27.742
X-15.595 Y-27.387
X-14.874 Y-26.977
X-14.183 Y-26.516
X-13.526 Y-26.005
X-12.906 Y-25.447
X-12.327 Y-24.844
X-11.791 Y-24.2
X-11.302 Y-23.517
X-10.868 Y-22.807
X-10.479 Y-22.054
X-10.146 Y-21.278
X-9.869 Y-20.478
X-9.651 Y-19.66
X-9.492 Y-18.826
X-9.393 Y-17.982
X-9.355 Y-17.131
X-9.379 Y-16.279
X-9.464 Y-15.429
X-9.611 Y-14.586
X-9.818 Y-13.754
X-10.085 Y-12.938
X-10.411 Y-12.142
X-10.794 Y-11.37
X-11.233 Y-10.626
X-11.725 Y-9.914
X-12.268 Y-9.238
X-12.859 Y-8.602
X-13.497 Y-8.009
X-14.177 Y-7.462
X-14.896 Y-6.965
X-15.651 Y-6.519
X-16.437 Y-6.128
X-17.252 Y-5.795
X-18.09 Y-5.52
X-18.949 Y-5.306
X-19.822 Y-5.153
X-20.706 Y-5.064
X-21.597 Y-5.039
X-22.489 Y-5.079
X-23.378 Y-5.182
X-24.259 Y-5.35
X-25.128 Y-5.581
X-25.98 Y-5.876
X-26.81 Y-6.231
X-27.614 Y-6.647
X-28.388 Y-7.12
X-29.128 Y-7.649
X-29.829 Y-8.231
X-30.488 Y-8.864
X-31.1 Y-9.544
X-31.394 Y-9.922
X-31.924 Y-10.65
X-32.403 Y-11.419
X-32.827 Y-12.226
X-33.195 Y-13.065
X-33.501 Y-13.932
X-33.746 Y-14.822
X-33.926 Y-15.73
X-34.041 Y-16.65
X-34.089 Y-17.579
X-34.07 Y-18.511
X-33.984 Y-19.441
X-33.831 Y-20.364
X-33.611 Y-21.275
X-33.325 Y-22.169
X-32.976 Y-23.042
X-32.564 Y-23.888
X-32.091 Y-24.704
X-31.56 Y-25.484
X-30.973 Y-26.226
X-30.333 Y-26.924
X-29.643 Y-27.576
X-28.907 Y-28.177
X-28.127 Y-28.725
X-27.308 Y-29.217
X-26.454 Y-29.649
X-25.603 Y-30.005
X-24.695 Y-30.31
X-23.768 Y-30.551
X-22.826 Y-30.724
X-21.875 Y-30.831
X-20.918 Y-30.87
X-19.961 Y-30.841
X-19.008 Y-30.744
X-18.064 Y-30.581
X-17.134 Y-30.351
X-16.223 Y-30.056
X-15.335 Y-29.698
X-14.474 Y-29.279
X-13.645 Y-28.8
X-12.851 Y-28.264
X-12.097 Y-27.674
X-11.385 Y-27.033
X-10.72 Y-26.343
X-10.105 Y-25.609
X-9.542 Y-24.835
X-9.034 Y-24.023
X-8.584 Y-23.178
X-8.192 Y-22.304
X-7.861 Y-21.405
X-7.593 Y-20.485
X-7.389 Y-19.55
X-7.249 Y-18.602
X-7.174 Y-17.648
X-7.164 Y-16.69
X-7.219 Y-15.734
X-7.339 Y-14.784
X-7.523 Y-13.844
X-7.771 Y-12.919
X-8.081 Y-12.013
X-8.452 Y-11.13
X-8.883 Y-10.275
X-9.371 Y-9.451
X-9.914 Y-8.661
X-10.508 Y-7.911
X-11.152 Y-7.202
X-11.842 Y-6.537
X-12.574 Y-5.92
X-13.346 Y-5.353
X-14.154 Y-4.839
X-14.994 Y-4.38
X-15.863 Y-3.976
X-16.756 Y-3.632
X-17.671 Y-3.347
X-18.602 Y-3.125
X-19.547 Y-2.965
X-20.5 Y-2.869
X-21.457 Y-2.835
X-22.414 Y-2.865
X-23.367 Y-2.956
X-24.313 Y-3.11
X-25.246 Y-3.324
X-26.164 Y-3.598
X-27.062 Y-3.931
X-27.936 Y-4.322
X-28.518 Y-4.63
X-28.783 Y-4.805
X-29.01 Y-5.026
X-29.191 Y-5.287
X-29.319 Y-5.577
X-29.323 Y-5.591
X-29.476 Y-5.894
X-29.534 Y-5.985
X-29.911 Y-6.531
X-30.137 Y-6.856
X-30.329 Y-7.073
X-30.731 Y-7.509
X-30.782 Y-7.562
X-31.434 Y-8.219
X-31.484 Y-8.267
X-31.534 Y-8.31
X-32.087 Y-8.691
X-32.271 Y-8.815
X-32.66 Y-9.093
X-33.016 Y-9.387
X-33.359 Y-9.715
X-33.743 Y-10.137
X-34.112 Y-10.608
X-34.49 Y-11.169
X-34.87 Y-11.832
X-35.214 Y-12.546
X-35.525 Y-13.335
X-35.8 Y-14.209
X-36.02 Y-15.141
X-36.173 Y-16.086
X-36.261 Y-17.04
X-36.287 Y-17.997
X-36.249 Y-18.954
X-36.148 Y-19.907
X-35.985 Y-20.85
X-35.762 Y-21.782
X-35.481 Y-22.697
X-35.143 Y-23.593
X-34.75 Y-24.467
X-34.304 Y-25.314
X-33.805 Y-26.132
X-33.255 Y-26.916
X-32.656 Y-27.663
X-32.012 Y-28.372
X-31.325 Y-29.039
X-30.598 Y-29.663
X-29.835 Y-30.241
X-29.038 Y-30.772
X-28.208 Y-31.25
X-28.017 Y-31.345
X-27.804 Y-31.43
X-27.581 Y-31.482
X-27.352 Y-31.5
X-16.207
X-15.728 Y-31.476
X-15.277 Y-31.425
X-14.783 Y-31.333
X-14.229 Y-31.187
X-13.641 Y-30.986
X-12.972 Y-30.702
X-12.291 Y-30.354
X-11.577 Y-29.921
X-10.829 Y-29.39
X-10.09 Y-28.78
X-9.396 Y-28.121
X-8.747 Y-27.417
X-8.143 Y-26.673
X-7.59 Y-25.891
X-7.273 Y-25.379
X-7.15 Y-25.132
X-7.074 Y-24.866
X-7.049 Y-24.59
Y-11.426
X-7.073 Y-10.948
X-7.109 Y-10.577
X-7.182 Y-10.156
X-7.3 Y-9.681
X-7.467 Y-9.168
X-7.698 Y-8.601
X-8.012 Y-7.966
X-8.385 Y-7.331
X-8.862 Y-6.64
X-9.44 Y-5.918
X-10.091 Y-5.216
X-10.789 Y-4.561
X-11.528 Y-3.952
X-12.305 Y-3.391
X-13.115 Y-2.88
X-13.954 Y-2.419
X-14.819 Y-2.008
X-15.707 Y-1.648
X-16.613 Y-1.34
X-17.536 Y-1.084
X-18.472 Y-0.882
X-19.419 Y-0.735
X-20.372 Y-0.645
X-21.329 Y-0.609
X-22.287 Y-0.627
X-23.242 Y-0.699
X-24.191 Y-0.824
X-25.132 Y-1.002
X-26.062 Y-1.232
X-26.976 Y-1.517
X-27.789 Y-1.822
X-28.319 Y-2.065
X-28.734 Y-2.294
X-28.822 Y-2.351
X-29.057 Y-2.54
X-29.25 Y-2.772
X-29.392 Y-3.037
X-29.479 Y-3.326
X-29.506 Y-3.626
X-29.472 Y-3.926
X-29.379 Y-4.213
X-29.259 Y-4.487
X-29.255 Y-4.499
X-29.202 Y-5.019
X-29.201 Y-5.033
X-29.319 Y-5.577
G3 X-28.885 Y-6.262 I0.591 J-0.106
G1 X-7.806 Y-11.984
G3 X-7.049 Y-11.426 I0.157 J0.579
G1 Y-7.726
X-7.061 Y-7.487
X-7.086 Y-7.202
X-7.139 Y-6.879
X-7.219 Y-6.546
X-7.344 Y-6.149
X-7.507 Y-5.739
X-7.734 Y-5.27
X-8.016 Y-4.781
X-8.394 Y-4.222
X-8.835 Y-3.663
X-9.382 Y-3.063
X-10.045 Y-2.433
X-10.785 Y-1.826
X-11.565 Y-1.27
X-12.378 Y-0.764
X-13.219 Y-0.306
X-14.085 Y0.103
X-14.973 Y0.463
X-15.878 Y0.776
X-16.798 Y1.04
X-17.731 Y1.256
X-18.674 Y1.425
X-19.624 Y1.545
X-20.579 Y1.617
X-21.537 Y1.641
X-22.494 Y1.615
X-23.449 Y1.542
X-24.399 Y1.42
X-25.342 Y1.252
X-26.275 Y1.037
X-27.195 Y0.772
X-27.915 Y0.513
X-28.446 Y0.278
X-28.863 Y0.056
X-29.201 Y-0.156
X-29.514 Y-0.386
X-29.769 Y-0.603
X-30.011 Y-0.842
X-30.212 Y-1.07
X-30.395 Y-1.311
X-30.539 Y-1.594
X-30.62 Y-1.902
X-30.634 Y-2.219
X-30.582 Y-2.533
X-30.464 Y-2.828
X-30.287 Y-3.092
X-30.057 Y-3.313
X-30.023 Y-3.34
X-29.987 Y-3.373
X-29.766 Y-3.591
X-29.694 Y-3.668
X-29.509 Y-3.923
X-29.502 Y-3.934
X-29.379 Y-4.213
G3 X-28.943 Y-4.543 I0.541 J0.26
G1 X-28.73 Y-4.581
X-7.753 Y-8.296
G3 X-7.049 Y-7.726 I0.105 J0.591
G1 Y-4.679
X-7.061 Y-4.44
X-7.089 Y-4.183
X-7.143 Y-3.893
X-7.221 Y-3.595
X-7.34 Y-3.244
X-7.495 Y-2.878
X-7.701 Y-2.474
X-7.967 Y-2.034
X-8.3 Y-1.564
X-8.709 Y-1.067
X-9.228 Y-0.521
X-9.847 Y0.042
X-10.569 Y0.609
X-11.362 Y1.145
X-12.19 Y1.627
X-13.045 Y2.059
X-13.922 Y2.443
X-14.818 Y2.781
X-15.73 Y3.074
X-16.655 Y3.322
X-17.59 Y3.527
X-18.535 Y3.687
X-19.485 Y3.803
X-20.44 Y3.874
X-21.398 Y3.901
X-22.355 Y3.885
X-23.311 Y3.826
X-24.263 Y3.724
X-25.21 Y3.58
X-26.149 Y3.393
X-27.078 Y3.157
X-27.94 Y2.876
X-28.64 Y2.592
X-29.256 Y2.287
X-29.8 Y1.968
X-30.271 Y1.643
X-30.633 Y1.354
X-30.95 Y1.06
X-31.203 Y0.79
X-31.431 Y0.507
X-31.611 Y0.248
X-31.78 Y-0.036
X-31.85 Y-0.178
X-31.907 Y-0.307
X-31.952 Y-0.44
X-31.984 Y-0.577
X-32.018 Y-0.762
X-32.1 Y-1.197
X-32.154 Y-1.529
X-32.147 Y-1.748
X-32.086 Y-1.958
X-31.975 Y-2.147
X-31.821 Y-2.303
X-31.633 Y-2.416
G3 X-30.822 Y-1.735 I0.224 J0.557
G1 X-30.931 Y-1.219
G3 X-32.1 Y-1.197 I-0.587 J-0.124
G1 X-32.147 Y-1.415
X-32.201 Y-1.632
X-32.21 Y-1.687
X-32.215 Y-1.741
Y-1.796
X-32.21 Y-1.85
X-32.2 Y-1.904
X-32.185 Y-1.959
X-32.163 Y-2.013
X-32.135 Y-2.068
X-32.087 Y-2.139
X-32.05 Y-2.182
X-32.004 Y-2.225
X-31.921 Y-2.285
X-31.869 Y-2.315
X-31.616 Y-2.423
X-31.434 Y-2.504
X-31.217 Y-2.609
X-30.992 Y-2.721
X-30.782 Y-2.836
X-30.62 Y-2.938
X-30.057 Y-3.313
G3 X-29.756 Y-3.424 I0.351 J0.486
G1 X-29.298 Y-3.462
X-7.698 Y-5.256
G3 X-7.049 Y-4.679 I0.05 J0.598
G1 Y-1.85
X-7.055 Y-1.73
X-7.081 Y-1.487
X-7.129 Y-1.229
X-7.202 Y-0.947
X-7.312 Y-0.62
X-7.45 Y-0.293
X-7.642 Y0.085
X-7.878 Y0.477
X-8.182 Y0.908
X-8.549 Y1.356
X-9.02 Y1.853
X-9.559 Y2.346
X-10.225 Y2.871
X-11.017 Y3.409
X-11.846 Y3.888
X-12.704 Y4.316
X-13.583 Y4.694
X-14.481 Y5.027
X-15.394 Y5.316
X-16.32 Y5.563
X-17.255 Y5.766
X-18.199 Y5.928
X-19.149 Y6.048
X-20.104 Y6.128
X-21.061 Y6.168
X-22.018
X-22.975 Y6.13
X-23.93 Y6.053
X-24.881 Y5.937
X-25.825 Y5.78
X-26.761 Y5.577
X-26.962 Y5.522
X-27.267 Y5.406
X-27.545 Y5.236
X-27.787 Y5.016
X-27.983 Y4.755
X-28.127 Y4.462
X-28.328 Y3.932
X-28.335 Y3.921
X-28.669 Y3.531
X-28.72 Y3.489
X-28.824 Y3.406
X-28.87 Y3.373
X-29.229 Y3.156
X-29.259 Y3.14
X-29.911 Y2.871
X-30.129 Y2.792
X-30.347 Y2.715
X-30.564 Y2.642
X-30.673 Y2.606
X-30.727 Y2.583
X-30.782 Y2.555
X-30.857 Y2.503
X-30.999 Y2.393
X-31.434 Y2.035
X-31.538 Y1.943
X-31.576 Y1.896
X-31.608 Y1.85
X-31.652 Y1.762
X-31.674 Y1.697
X-31.689 Y1.632
X-31.709 Y1.415
X-31.742 Y0.979
X-31.762 Y0.762
X-31.869 Y0.085
X-31.984 Y-0.577
G3 X-31.419 Y-1.264 I0.594 J-0.088
G1 X-7.678 Y-2.428
G3 X-7.049 Y-1.85 I0.029 J0.599
G1 Y0.664
X-7.061 Y0.903
X-7.088 Y1.13
X-7.137 Y1.378
X-7.215 Y1.664
X-7.315 Y1.951
X-7.459 Y2.282
X-7.641 Y2.631
X-7.873 Y3.006
X-8.171 Y3.417
X-8.526 Y3.841
X-8.967 Y4.295
X-9.517 Y4.786
X-10.152 Y5.275
X-10.926 Y5.786
X-11.761 Y6.256
X-12.624 Y6.67
X-13.509 Y7.035
X-14.412 Y7.355
X-15.329 Y7.63
X-16.258 Y7.864
X-17.196 Y8.058
X-18.141 Y8.213
X-19.092 Y8.33
X-20.046 Y8.408
X-21.003 Y8.449
X-21.961 Y8.453
X-22.918 Y8.421
X-23.873 Y8.353
X-24.825 Y8.247
X-25.69 Y8.115
X-26.27 Y7.983
X-26.724 Y7.844
X-27.146 Y7.682
X-27.492 Y7.519
X-27.594 Y7.461
X-27.861 Y7.27
X-28.08 Y7.026
X-28.24 Y6.739
X-28.334 Y6.425
X-28.358 Y6.097
X-28.31 Y5.773
X-28.252 Y5.55
X-28.122 Y5.019
X-28.12 Y5.006
X-28.127 Y4.462
G3 X-27.639 Y3.867 I0.6 J-0.005
G1 X-7.76 Y0.095
G3 X-7.049 Y0.664 I0.112 J0.589
G1 Y3.156
X-7.061 Y3.395
X-7.087 Y3.611
X-7.133 Y3.851
X-7.208 Y4.128
X-7.304 Y4.405
X-7.443 Y4.726
X-7.616 Y5.058
X-7.838 Y5.419
X-8.121 Y5.812
X-8.459 Y6.216
X-8.88 Y6.652
X-9.4 Y7.118
X-9.998 Y7.58
X-10.737 Y8.071
X-11.571 Y8.541
X-12.435 Y8.955
X-13.321 Y9.318
X-14.226 Y9.634
X-15.144 Y9.906
X-16.073 Y10.138
X-17.011 Y10.331
X-17.956 Y10.486
X-18.906 Y10.604
X-19.861 Y10.686
X-20.817 Y10.732
X-21.775 Y10.744
X-22.732 Y10.722
X-23.688 Y10.666
X-24.641 Y10.57
X-25.537 Y10.428
X-26.278 Y10.255
X-26.836 Y10.081
X-27.259 Y9.915
X-27.653 Y9.727
X-27.966 Y9.549
X-28.27 Y9.345
X-28.523 Y9.148
X-28.572 Y9.103
X-28.779 Y8.873
X-28.934 Y8.606
X-29.032 Y8.312
X-29.067 Y8.005
X-29.038 Y7.696
X-28.946 Y7.401
X-28.796 Y7.13
X-28.756 Y7.073
X-28.656 Y6.856
X-28.491 Y6.42
X-28.423 Y6.203
X-28.31 Y5.773
G3 X-27.817 Y5.351 I0.575 J0.173
G1 X-27.718 Y5.337
X-7.73 Y2.582
G3 X-7.049 Y3.156 I0.082 J0.594
G1 Y5.55
X-7.061 Y5.789
X-7.081 Y5.993
X-7.122 Y6.224
X-7.187 Y6.486
X-7.275 Y6.752
X-7.401 Y7.061
X-7.556 Y7.373
X-7.762 Y7.722
X-8.018 Y8.091
X-8.332 Y8.481
X-8.719 Y8.897
X-9.195 Y9.339
X-9.747 Y9.782
X-10.432 Y10.255
X-11.256 Y10.741
X-12.114 Y11.166
X-12.997 Y11.538
X-13.898 Y11.862
X-14.814 Y12.141
X-15.742 Y12.379
X-16.679 Y12.578
X-17.623 Y12.739
X-18.572 Y12.864
X-19.526 Y12.955
X-20.482 Y13.012
X-21.439 Y13.037
X-22.397 Y13.029
X-23.353 Y12.985
X-24.307 Y12.9
X-25.255 Y12.764
X-26.119 Y12.583
X-26.838 Y12.377
X-27.487 Y12.139
X-27.995 Y11.91
X-28.433 Y11.672
X-28.772 Y11.456
X-29.089 Y11.22
X-29.344 Y11.
X-29.589 Y10.756
X-29.784 Y10.531
X-29.972 Y10.279
X-30.124 Y10.042
X-30.137 Y10.019
X-30.256 Y9.735
X-30.314 Y9.432
X-30.309 Y9.125
X-30.241 Y8.825
X-30.114 Y8.544
X-29.932 Y8.296
X-29.704 Y8.09
X-29.381 Y7.855
X-29.368 Y7.844
X-29.255 Y7.726
X-29.064 Y7.509
X-28.796 Y7.13
G3 X-28.372 Y6.894 I0.479 J0.361
G1 X-28.087 Y6.867
X-7.704 Y4.973
G3 X-7.049 Y5.55 I0.056 J0.597
G1 Y7.944
X-7.061 Y8.183
X-7.081 Y8.388
X-7.122 Y8.625
X-7.182 Y8.865
X-7.272 Y9.142
X-7.39 Y9.431
X-7.546 Y9.744
X-7.75 Y10.091
X-7.991 Y10.44
X-8.314 Y10.842
X-8.674 Y11.23
X-9.14 Y11.664
X-9.692 Y12.108
X-10.345 Y12.561
X-11.145 Y13.033
X-12.003 Y13.46
X-12.886 Y13.831
X-13.787 Y14.153
X-14.704 Y14.43
X-15.632 Y14.666
X-16.569 Y14.864
X-17.513 Y15.025
X-18.463 Y15.152
X-19.416 Y15.245
X-20.372 Y15.306
X-21.329 Y15.333
X-22.287 Y15.327
X-23.243 Y15.285
X-24.197 Y15.201
X-25.146 Y15.071
X-26.086 Y14.886
X-26.982 Y14.648
X-27.727 Y14.391
X-28.393 Y14.106
X-28.978 Y13.804
X-29.488 Y13.493
X-29.949 Y13.163
X-30.344 Y12.836
X-30.666 Y12.527
X-30.826 Y12.349
X-30.996 Y12.12
X-31.12 Y11.863
X-31.192 Y11.587
X-31.212 Y11.303
X-31.177 Y11.019
X-31.14 Y10.855
X-31.139 Y10.841
X-31.234 Y10.367
X-31.244 Y10.353
X-31.307 Y10.251
X-31.316 Y10.231
X-31.401 Y9.964
X-31.422 Y9.685
X-31.378 Y9.408
X-31.27 Y9.149
X-31.105 Y8.923
X-30.892 Y8.741
X-30.643 Y8.613
G3 X-29.113 Y9.338 I0.463 J0.999
X-31.244 Y10.353 I-1.165 J0.299
G1 X-31.554 Y9.903
X-31.652 Y9.77
X-31.707 Y9.685
X-31.732 Y9.631
X-31.751 Y9.576
X-31.765 Y9.522
X-31.773 Y9.467
X-31.776 Y9.413
X-31.775 Y9.359
X-31.768 Y9.304
X-31.756 Y9.25
X-31.739 Y9.197
X-31.717 Y9.144
X-31.688 Y9.091
X-31.647 Y9.032
X-31.599 Y8.979
X-31.541 Y8.925
X-31.487 Y8.887
X-31.434 Y8.856
X-31.381 Y8.832
X-31.328 Y8.815
X-30.696 Y8.63
X-30.654 Y8.617
X-30.643 Y8.613
X-30.129 Y8.352
X-29.911 Y8.233
X-29.801 Y8.162
X-29.704 Y8.09
G3 X-29.384 Y7.987 I0.337 J0.497
G1 X-28.939 Y7.975
X-7.666 Y7.365
G3 X-7.049 Y7.944 I0.017 J0.6
G1 Y10.338
X-7.061 Y10.577
X-7.083 Y10.787
X-7.125 Y11.017
X-7.187 Y11.26
X-7.281 Y11.541
X-7.399 Y11.822
X-7.56 Y12.141
X-7.76 Y12.475
X-8.01 Y12.831
X-8.325 Y13.218
X-8.698 Y13.613
X-9.156 Y14.033
X-9.722 Y14.482
X-10.371 Y14.924
X-11.166 Y15.386
X-12.027 Y15.806
X-12.913 Y16.17
X-13.817 Y16.485
X-14.736 Y16.755
X-15.666 Y16.985
X-16.604 Y17.177
X-17.549 Y17.334
X-18.498 Y17.457
X-19.452 Y17.548
X-20.408 Y17.607
X-21.365 Y17.632
X-22.323 Y17.622
X-23.279 Y17.576
X-24.233 Y17.49
X-25.182 Y17.361
X-26.123 Y17.184
X-27.053 Y16.953
X-27.965 Y16.663
X-28.809 Y16.328
X-29.554 Y15.967
X-30.21 Y15.589
X-30.744 Y15.228
X-31.144 Y14.913
X-31.48 Y14.607
X-31.741 Y14.332
X-31.903 Y14.135
X-32.069 Y13.884
X-32.183 Y13.605
X-32.238 Y13.309
X-32.233 Y13.008
X-32.168 Y12.714
X-32.045 Y12.438
X-31.87 Y12.193
X-31.652 Y11.944
X-31.592 Y11.861
X-31.252 Y11.345
X-31.246 Y11.331
X-31.177 Y11.019
G3 X-30.617 Y10.57 I0.581 J0.15
G1 X-30.601
X-7.67 Y9.759
G3 X-7.049 Y10.338 I0.021 J0.6
G1 Y12.732
X-7.061 Y12.971
X-7.087 Y13.184
X-7.132 Y13.415
X-7.199 Y13.66
X-7.298 Y13.944
X-7.421 Y14.227
X-7.59 Y14.55
X-7.795 Y14.882
X-8.055 Y15.242
X-8.376 Y15.624
X-8.763 Y16.022
X-9.227 Y16.437
X-9.806 Y16.882
X-10.476 Y17.325
X-11.286 Y17.78
X-12.153 Y18.188
X-13.043 Y18.54
X-13.951 Y18.844
X-14.873 Y19.105
X-15.805 Y19.325
X-16.745 Y19.509
X-17.691 Y19.658
X-18.641 Y19.775
X-19.595 Y19.859
X-20.552 Y19.911
X-21.509 Y19.93
X-22.467 Y19.914
X-23.423 Y19.862
X-24.377 Y19.772
X-25.325 Y19.641
X-26.267 Y19.467
X-27.199 Y19.247
X-28.118 Y18.976
X-29.019 Y18.652
X-29.897 Y18.271
X-30.679 Y17.863
X-31.335 Y17.458
X-31.858 Y17.08
X-32.277 Y16.729
X-32.598 Y16.418
X-32.86 Y16.125
X-33.088 Y15.829
X-33.273 Y15.55
X-33.433 Y15.265
X-33.494 Y15.136
X-33.601 Y14.825
X-33.638 Y14.499
X-33.602 Y14.172
X-33.496 Y13.861
X-33.326 Y13.581
X-33.098 Y13.344
X-32.625 Y12.95
X-32.304 Y12.673
X-32.154 Y12.514
X-31.87 Y12.193
G3 X-31.43 Y12.005 I0.437 J0.411
G1 X-31.137 Y12.007
X-7.645 Y12.153
G3 X-7.049 Y12.732 I-0.004 J0.6
G1 Y15.126
X-7.055 Y15.246
X-7.073 Y15.439
X-7.11 Y15.665
X-7.168 Y15.903
X-7.251 Y16.162
X-7.368 Y16.456
X-7.511 Y16.749
X-7.708 Y17.089
X-7.935 Y17.423
X-8.236 Y17.803
X-8.583 Y18.181
X-9.029 Y18.602
X-9.529 Y19.01
X-10.156 Y19.451
X-10.915 Y19.906
X-11.769 Y20.338
X-12.651 Y20.712
X-13.553 Y21.035
X-14.47 Y21.311
X-15.398 Y21.546
X-16.335 Y21.743
X-17.279 Y21.904
X-18.228 Y22.032
X-19.181 Y22.128
X-20.137 Y22.191
X-21.094 Y22.222
X-22.052 Y22.221
X-23.009 Y22.186
X-23.964 Y22.116
X-24.916 Y22.01
X-25.863 Y21.866
X-26.802 Y21.68
X-27.732 Y21.451
X-28.65 Y21.177
X-29.552 Y20.856
X-30.434 Y20.484
X-31.292 Y20.058
X-32.049 Y19.614
X-32.671 Y19.187
X-33.218 Y18.75
X-33.682 Y18.32
X-34.048 Y17.929
X-34.359 Y17.544
X-34.584 Y17.221
X-34.787 Y16.879
X-34.935 Y16.582
X-35.066 Y16.264
X-35.104 Y16.15
X-35.173 Y15.826
X-35.168 Y15.494
X-35.091 Y15.171
X-34.945 Y14.873
X-34.737 Y14.615
X-34.477 Y14.409
X-34.262 Y14.274
X-33.938 Y14.038
X-33.827 Y13.952
X-33.098 Y13.344
G3 X-32.698 Y13.219 I0.368 J0.474
G1 X-32.341 Y13.238
X-7.617 Y14.548
G3 X-7.049 Y15.126 I-0.032 J0.599
G1 Y17.422
X-7.055 Y17.542
X-7.071 Y17.742
X-7.104 Y17.959
X-7.157 Y18.191
X-7.238 Y18.456
X-7.34 Y18.722
X-7.484 Y19.029
X-7.661 Y19.342
X-7.887 Y19.685
X-8.169 Y20.05
X-8.507 Y20.429
X-8.923 Y20.833
X-9.43 Y21.258
X-10.015 Y21.681
X-10.739 Y22.128
X-11.587 Y22.572
X-12.465 Y22.955
X-13.364 Y23.285
X-14.279 Y23.568
X-15.206 Y23.81
X-16.142 Y24.013
X-17.085 Y24.18
X-18.033 Y24.313
X-18.985 Y24.413
X-19.941 Y24.482
X-20.898 Y24.518
X-21.855 Y24.523
X-22.813 Y24.496
X-23.769 Y24.437
X-24.722 Y24.344
X-25.671 Y24.216
X-26.614 Y24.051
X-27.55 Y23.849
X-28.477 Y23.607
X-29.391 Y23.322
X-30.291 Y22.994
X-31.173 Y22.62
X-32.032 Y22.198
X-32.864 Y21.723
X-33.634 Y21.21
X-34.279 Y20.709
X-34.836 Y20.21
X-35.318 Y19.71
X-35.717 Y19.23
X-36.023 Y18.804
X-36.278 Y18.389
X-36.457 Y18.044
X-36.612 Y17.684
X-36.72 Y17.374
X-36.808 Y17.043
X-36.842 Y16.868
X-36.869 Y16.552
X-36.828 Y16.237
X-36.722 Y15.938
X-36.556 Y15.668
X-36.336 Y15.439
X-36.074 Y15.261
X-34.48 Y14.411
X-34.477 Y14.409
G3 X-34.119 Y14.331 I0.301 J0.519
G1 X-33.708 Y14.37
X-7.592 Y16.846
G3 X-7.049 Y17.422 I-0.057 J0.597
G1 Y19.697
X-7.061 Y19.936
X-7.082 Y20.14
X-7.12 Y20.356
X-7.184 Y20.608
X-7.268 Y20.862
X-7.387 Y21.149
X-7.539 Y21.453
X-7.73 Y21.774
X-7.978 Y22.131
X-8.266 Y22.486
X-8.642 Y22.888
X-9.067 Y23.281
X-9.596 Y23.704
X-10.243 Y24.148
X-11.002 Y24.592
X-11.861 Y25.015
X-12.747 Y25.379
X-13.652 Y25.692
X-14.572 Y25.959
X-15.502 Y26.186
X-16.441 Y26.375
X-17.386 Y26.529
X-18.336 Y26.65
X-19.29 Y26.739
X-20.246 Y26.796
X-21.203 Y26.824
X-22.161 Y26.821
X-23.118 Y26.787
X-24.073 Y26.722
X-25.026 Y26.624
X-25.975 Y26.494
X-26.918 Y26.328
X-27.855 Y26.128
X-28.783 Y25.891
X-29.7 Y25.617
X-30.606 Y25.305
X-31.496 Y24.952
X-32.368 Y24.557
X-33.218 Y24.116
X-34.042 Y23.627
X-34.834 Y23.088
X-35.573 Y22.509
X-36.209 Y21.933
X-36.764 Y21.352
X-37.225 Y20.793
X-37.601 Y20.264
X-37.919 Y19.741
X-38.156 Y19.28
X-38.336 Y18.856
X-38.465 Y18.478
X-38.56 Y18.12
X-38.622 Y17.789
X-38.659 Y17.458
X-38.664 Y17.339
X-38.642 Y17.012
X-38.549 Y16.698
X-38.391 Y16.412
X-38.174 Y16.167
X-37.909 Y15.974
X-37.609 Y15.844
X-37.308 Y15.751
X-37.09 Y15.681
X-36.655 Y15.523
X-36.438 Y15.443
X-36.22 Y15.339
X-36.074 Y15.261
G3 X-35.728 Y15.206 I0.263 J0.539
G1 X-35.302 Y15.265
X-7.566 Y19.123
G3 X-7.049 Y19.697 I-0.083 J0.594
G1 Y22.091
X-7.055 Y22.21
X-7.072 Y22.409
X-7.108 Y22.629
X-7.162 Y22.859
X-7.246 Y23.127
X-7.352 Y23.395
X-7.497 Y23.698
X-7.682 Y24.02
X-7.909 Y24.358
X-8.2 Y24.729
X-8.538 Y25.102
X-8.964 Y25.509
X-9.469 Y25.925
X-10.063 Y26.348
X-10.794 Y26.792
X-11.646 Y27.229
X-12.527 Y27.605
X-13.428 Y27.929
X-14.345 Y28.206
X-15.273 Y28.441
X-16.211 Y28.638
X-17.155 Y28.8
X-18.104 Y28.927
X-19.057 Y29.023
X-20.012 Y29.088
X-20.969 Y29.123
X-21.927 Y29.129
X-22.884 Y29.105
X-23.84 Y29.051
X-24.794 Y28.967
X-25.745 Y28.853
X-26.692 Y28.707
X-27.633 Y28.529
X-28.567 Y28.319
X-29.493 Y28.074
X-30.409 Y27.794
X-31.313 Y27.479
X-32.203 Y27.125
X-33.077 Y26.733
X-33.932 Y26.301
X-34.765 Y25.828
X-35.572 Y25.313
X-36.348 Y24.752
X-37.088 Y24.145
X-37.781 Y23.494
X-38.392 Y22.832
X-38.915 Y22.176
X-39.348 Y21.544
X-39.691 Y20.956
X-39.972 Y20.384
X-40.189 Y19.848
X-40.34 Y19.378
X-40.44 Y18.972
X-40.506 Y18.584
X-40.539 Y18.234
X-40.547 Y17.903
X-40.531 Y17.579
X-40.525 Y17.531
X-40.453 Y17.218
X-40.315 Y16.928
X-40.119 Y16.673
X-39.873 Y16.467
X-39.589 Y16.317
X-39.279 Y16.231
X-38.613 Y16.121
X-38.395 Y16.077
X-38.178 Y16.017
X-37.743 Y15.886
X-37.609 Y15.844
G3 X-36.933 Y16.122 I0.157 J0.579
G1 X-36.886 Y16.203 Z51.007
X-36.84 Y16.282 Z51.029
X-36.796 Y16.357 Z51.065
X-36.756 Y16.426 Z51.115
X-36.72 Y16.488 Z51.176
X-36.689 Y16.541 Z51.247
X-36.664 Y16.584 Z51.328
X-36.646 Y16.615 Z51.415
X-36.635 Y16.634 Z51.506
X-36.631 Y16.64 Z51.6
G0 Z59.
X-7.577 Y20.821
Z52.2
G1 Z51.6 F1440.
X-7.573 Y20.828 Z51.506
X-7.562 Y20.847 Z51.415
X-7.543 Y20.878 Z51.328
X-7.518 Y20.92 Z51.247
X-7.487 Y20.972 Z51.176
X-7.45 Y21.034 Z51.115
X-7.409 Y21.103 Z51.065
X-7.365 Y21.178 Z51.029
X-7.318 Y21.256 Z51.007
X-7.27 Y21.337 Z51.
G3 X-7.049 Y22.091 I-1.36 J0.809
G1 Y24.485
X-7.055 Y24.604
X-7.08 Y24.814
X-7.121 Y25.033
X-7.19 Y25.287
X-7.279 Y25.546
X-7.404 Y25.835
X-7.563 Y26.143
X-7.762 Y26.467
X-8.02 Y26.826
X-8.318 Y27.184
X-8.705 Y27.586
X-9.145 Y27.981
X-9.688 Y28.403
X-10.352 Y28.845
X-11.141 Y29.292
X-12.006 Y29.703
X-12.896 Y30.056
X-13.805 Y30.359
X-14.727 Y30.616
X-15.66 Y30.833
X-16.601 Y31.014
X-17.547 Y31.16
X-18.498 Y31.273
X-19.452 Y31.356
X-20.408 Y31.41
X-21.366 Y31.434
X-22.323 Y31.43
X-23.28 Y31.398
X-24.236 Y31.337
X-25.19 Y31.248
X-26.14 Y31.129
X-27.086 Y30.98
X-28.027 Y30.801
X-28.961 Y30.591
X-29.888 Y30.35
X-30.806 Y30.077
X-31.713 Y29.77
X-32.609 Y29.43
X-33.49 Y29.056
X-34.356 Y28.646
X-35.203 Y28.2
X-36.029 Y27.715
X-36.831 Y27.191
X-37.604 Y26.626
X-38.346 Y26.02
X-39.052 Y25.373
X-39.717 Y24.684
X-40.335 Y23.953
X-40.877 Y23.211
X-41.329 Y22.489
X-41.681 Y21.822
X-41.965 Y21.178
X-42.184 Y20.563
X-42.343 Y19.988
X-42.44 Y19.507
X-42.498 Y19.05
X-42.518 Y18.673
X-42.511 Y18.294
X-42.482 Y17.974
X-42.428 Y17.642
X-42.414 Y17.585
X-42.304 Y17.277
X-42.13 Y17.001
X-41.9 Y16.769
X-41.625 Y16.592
X-41.319 Y16.478
X-40.995 Y16.434
X-40.788 Y16.429
X-40.571 Y16.419
X-39.918 Y16.336
X-39.279 Y16.231
G3 X-38.648 Y16.598 I0.077 J0.595
G1 X-38.612 Y16.685 Z51.007
X-38.577 Y16.77 Z51.029
X-38.544 Y16.85 Z51.065
X-38.514 Y16.925 Z51.115
X-38.487 Y16.991 Z51.176
X-38.464 Y17.047 Z51.247
X-38.445 Y17.093 Z51.328
X-38.431 Y17.126 Z51.415
X-38.423 Y17.147 Z51.506
X-38.42 Y17.153 Z51.6
G0 Z59.
X-7.577 Y23.215
Z52.2
G1 Z51.6 F1440.
X-7.573 Y23.222 Z51.506
X-7.562 Y23.241 Z51.415
X-7.543 Y23.272 Z51.328
X-7.518 Y23.314 Z51.247
X-7.487 Y23.366 Z51.176
X-7.45 Y23.428 Z51.115
X-7.409 Y23.497 Z51.065
X-7.365 Y23.572 Z51.029
X-7.318 Y23.65 Z51.007
X-7.27 Y23.731 Z51.
G3 X-7.049 Y24.485 I-1.36 J0.809
G1 Y26.661
X-7.061 Y26.9
X-7.082 Y27.101
X-7.123 Y27.329
X-7.183 Y27.561
X-7.273 Y27.831
X-7.388 Y28.106
X-7.542 Y28.41
X-7.738 Y28.739
X-7.976 Y29.078
X-8.284 Y29.456
X-8.636 Y29.829
X-9.083 Y30.24
X-9.609 Y30.657
X-10.23 Y31.08
X-10.769 Y31.394
X-11.007 Y31.505
X-11.261 Y31.574
X-11.523 Y31.597
G3 X-11.949 Y30.598 I0.021 J-0.6
G1 X-8.096 Y26.282
G3 X-7.049 Y26.661 I0.448 J0.4
G1 Y29.055
X-7.055 Y29.175
X-7.074 Y29.375
X-7.111 Y29.597
X-7.168 Y29.829
X-7.254 Y30.098
X-7.363 Y30.368
X-7.513 Y30.673
X-7.617 Y30.852
X-7.802 Y31.104
X-8.034 Y31.313
X-8.305 Y31.468
X-8.602 Y31.564
X-8.913 Y31.597
G3 X-9.396 Y30.671 I0.021 J-0.6
G1 X-8.152 Y28.75
G3 X-7.049 Y29.055 I0.504 J0.326
G1 Y30.796
X-7.05 Y31.014
X-7.057 Y31.075
X-7.07 Y31.136
X-7.105 Y31.232
X-7.134 Y31.286
X-7.171 Y31.34
X-7.218 Y31.395
X-7.275 Y31.449
X-7.288 Y31.46
X-7.342 Y31.5
X-7.396 Y31.531
X-7.451 Y31.556
X-7.505 Y31.574
X-7.559 Y31.587
X-7.614 Y31.594
X-7.723 Y31.597
X-30.999
X-31.477 Y31.573
X-32.055 Y31.52
X-32.747 Y31.406
X-33.528 Y31.219
X-34.423 Y30.935
X-35.313 Y30.58
X-36.178 Y30.17
X-37.019 Y29.711
X-37.833 Y29.208
X-38.621 Y28.663
X-39.38 Y28.079
X-40.108 Y27.457
X-40.801 Y26.796
X-41.454 Y26.095
X-42.064 Y25.357
X-42.627 Y24.582
X-43.137 Y23.771
X-43.552 Y22.99
X-43.884 Y22.241
X-44.143 Y21.519
X-44.331 Y20.85
X-44.456 Y20.233
X-44.531 Y19.651
X-44.558 Y19.169
X-44.551 Y18.739
X-44.518 Y18.358
X-44.46 Y18.001
X-44.386 Y17.688
X-44.287 Y17.372
X-44.28 Y17.356
X-44.131 Y17.073
X-43.924 Y16.828
X-43.669 Y16.635
X-43.379 Y16.5
X-43.066 Y16.432
X-42.746 Y16.433
X-42.529 Y16.444
X-42.094 Y16.459
X-41.876 Y16.458
X-40.995 Y16.434
G3 X-40.512 Y16.685 I-0.005 J0.6
G1 X-40.384 Y16.864
X-30.532 Y30.648
G3 X-30.999 Y31.597 I-0.488 J0.349
G1 X-35.785
X-36.263 Y31.573
X-36.646 Y31.532
X-37.072 Y31.456
X-37.568 Y31.329
X-38.118 Y31.145
X-38.734 Y30.889
X-39.436 Y30.536
X-40.203 Y30.077
X-40.988 Y29.528
X-41.731 Y28.925
X-42.434 Y28.274
X-43.095 Y27.581
X-43.714 Y26.85
X-44.288 Y26.084
X-44.814 Y25.284
X-45.288 Y24.451
X-45.704 Y23.589
X-46.039 Y22.744
X-46.295 Y21.934
X-46.469 Y21.2
X-46.581 Y20.51
X-46.639 Y19.859
X-46.649 Y19.261
X-46.623 Y18.778
X-46.565 Y18.326
X-46.491 Y17.961
X-46.39 Y17.598
X-46.283 Y17.298
X-46.148 Y16.994
X-46.135 Y16.968
X-45.957 Y16.705
X-45.727 Y16.485
X-45.456 Y16.318
X-45.156 Y16.212
X-44.841 Y16.172
X-44.524 Y16.199
X-44.269 Y16.249
X-44.051 Y16.287
X-42.746 Y16.433
G3 X-42.298 Y16.757 I-0.087 J0.594
G1 X-42.203 Y16.945
X-35.27 Y30.728
G3 X-35.785 Y31.597 I-0.536 J0.27
G1 X-39.483
X-39.722 Y31.585
X-40.002 Y31.567
X-40.314 Y31.524
X-40.685 Y31.446
X-41.063 Y31.337
X-41.511 Y31.172
X-41.98 Y30.96
X-42.527 Y30.664
X-43.083 Y30.308
X-43.703 Y29.846
X-44.367 Y29.271
X-45.044 Y28.594
X-45.671 Y27.871
X-46.249 Y27.107
X-46.775 Y26.306
X-47.248 Y25.474
X-47.668 Y24.613
X-48.03 Y23.726
X-48.328 Y22.821
X-48.546 Y21.956
X-48.687 Y21.156
X-48.765 Y20.399
X-48.787 Y19.698
X-48.76 Y19.064
X-48.693 Y18.479
X-48.605 Y18.009
X-48.494 Y17.589
X-48.37 Y17.229
X-48.229 Y16.897
X-48.081 Y16.609
X-47.91 Y16.328
X-47.896 Y16.308
X-47.688 Y16.074
X-47.436 Y15.891
X-47.149 Y15.766
X-46.843 Y15.705
X-46.531 Y15.711
X-46.227 Y15.783
X-46.009 Y15.842
X-44.922 Y16.114
X-44.704 Y16.164
X-44.524 Y16.199
G3 X-44.095 Y16.579 I-0.135 J0.585
G1 X-44.031 Y16.756
X-38.94 Y30.793
G3 X-39.483 Y31.597 I-0.564 J0.205
G1 X-42.746
X-42.985 Y31.585
X-43.26 Y31.553
X-43.557 Y31.498
X-43.877 Y31.413
X-44.255 Y31.284
X-44.634 Y31.123
X-45.074 Y30.897
X-45.529 Y30.62
X-46.048 Y30.251
X-46.559 Y29.829
X-47.118 Y29.295
X-47.702 Y28.651
X-48.285 Y27.905
X-48.819 Y27.11
X-49.297 Y26.28
X-49.719 Y25.42
X-50.084 Y24.535
X-50.391 Y23.628
X-50.637 Y22.702
X-50.816 Y21.772
X-50.919 Y20.897
X-50.956 Y20.093
X-50.936 Y19.344
X-50.868 Y18.653
X-50.761 Y18.035
X-50.621 Y17.468
X-50.474 Y17.018
X-50.312 Y16.62
X-50.145 Y16.283
X-49.964 Y15.974
X-49.783 Y15.713
X-49.579 Y15.458
X-49.568 Y15.446
X-49.331 Y15.239
X-49.055 Y15.086
X-48.754 Y14.994
X-48.439 Y14.967
X-48.126 Y15.006
X-47.829 Y15.11
X-47.315 Y15.353
X-46.879 Y15.549
X-46.848 Y15.561
X-46.227 Y15.783
G3 X-45.866 Y16.195 I-0.221 J0.558
G1 X-45.813 Y16.405
X-42.185 Y30.851
G3 X-42.746 Y31.597 I-0.582 J0.146
G1 X-45.574
X-45.813 Y31.585
X-46.06 Y31.556
X-46.338 Y31.502
X-46.623 Y31.425
X-46.958 Y31.309
X-47.305 Y31.159
X-47.689 Y30.96
X-48.107 Y30.704
X-48.544 Y30.39
X-49.011 Y30.
X-49.516 Y29.513
X-50.005 Y28.968
X-50.519 Y28.305
X-51.033 Y27.533
X-51.504 Y26.699
X-51.918 Y25.835
X-52.275 Y24.947
X-52.573 Y24.037
X-52.812 Y23.109
X-52.99 Y22.168
X-53.104 Y21.217
X-53.149 Y20.302
X-53.13 Y19.444
X-53.054 Y18.648
X-52.93 Y17.914
X-52.771 Y17.265
X-52.583 Y16.681
X-52.372 Y16.159
X-52.166 Y15.737
X-51.961 Y15.386
X-51.745 Y15.07
X-51.531 Y14.801
X-51.308 Y14.559
X-51.161 Y14.421
X-50.897 Y14.223
X-50.596 Y14.087
X-50.273 Y14.021
X-49.943 Y14.027
X-49.622 Y14.104
X-49.326 Y14.251
X-48.837 Y14.563
X-48.635 Y14.691
X-48.256 Y14.908
X-47.829 Y15.11
G3 X-47.511 Y15.547 I-0.275 J0.533
G1 X-47.475 Y15.769
X-45.003 Y30.9
G3 X-45.574 Y31.597 I-0.592 J0.097
G1 X-48.185
X-48.424 Y31.585
X-48.662 Y31.558
X-48.905 Y31.513
X-49.183 Y31.44
X-49.484 Y31.337
X-49.801 Y31.203
X-50.165 Y31.017
X-50.524 Y30.799
X-50.943 Y30.502
X-51.348 Y30.169
X-51.807 Y29.731
X-52.262 Y29.23
X-52.731 Y28.632
X-53.212 Y27.919
X-53.681 Y27.102
X-54.096 Y26.239
X-54.452 Y25.35
X-54.75 Y24.44
X-54.988 Y23.512
X-55.169 Y22.572
X-55.29 Y21.622
X-55.351 Y20.666
X-55.347 Y19.708
X-55.279 Y18.777
X-55.152 Y17.914
X-54.981 Y17.142
X-54.772 Y16.44
X-54.53 Y15.801
X-54.269 Y15.24
X-54.006 Y14.765
X-53.732 Y14.345
X-53.491 Y14.029
X-53.226 Y13.729
X-52.987 Y13.495
X-52.725 Y13.272
X-52.475 Y13.089
X-52.18 Y12.947
X-51.862 Y12.871
X-51.535 Y12.867
X-51.215 Y12.934
X-50.917 Y13.068
X-50.655 Y13.264
X-50.578 Y13.336
X-50.36 Y13.518
X-50.25 Y13.603
X-49.925 Y13.847
X-49.707 Y14.006
X-49.659 Y14.038
X-49.326 Y14.251
G3 X-49.069 Y14.691 I-0.341 J0.494
G1 X-49.046 Y14.949
X-47.608 Y30.943
G3 X-48.185 Y31.597 I-0.598 J0.054
G1 X-50.795
X-50.915 Y31.591
X-51.126 Y31.569
X-51.363 Y31.526
X-51.631 Y31.458
X-51.903 Y31.367
X-52.22 Y31.235
X-52.537 Y31.076
X-52.896 Y30.862
X-53.266 Y30.604
X-53.669 Y30.277
X-54.08 Y29.89
X-54.529 Y29.403
X-54.957 Y28.866
X-55.406 Y28.209
X-55.853 Y27.443
X-56.274 Y26.583
X-56.634 Y25.695
X-56.933 Y24.786
X-57.175 Y23.859
X-57.359 Y22.919
X-57.488 Y21.97
X-57.561 Y21.015
X-57.577 Y20.058
X-57.533 Y19.101
X-57.428 Y18.149
X-57.258 Y17.221
X-57.035 Y16.354
X-56.769 Y15.565
X-56.483 Y14.88
X-56.17 Y14.263
X-55.838 Y13.71
X-55.495 Y13.223
X-55.194 Y12.854
X-54.883 Y12.525
X-54.61 Y12.276
X-54.315 Y12.042
X-54.052 Y11.863
X-53.764 Y11.696
X-53.686 Y11.658
X-53.381 Y11.549
X-53.06 Y11.507
X-52.738 Y11.536
X-52.429 Y11.632
X-52.148 Y11.793
X-51.908 Y12.011
X-51.846 Y12.079
X-51.665 Y12.273
X-51.43 Y12.514
X-51.209 Y12.732
X-50.758 Y13.167
X-50.655 Y13.264
G3 X-50.479 Y13.679 I-0.424 J0.424
G1 X-50.475 Y14.002
X-50.216 Y30.988
G3 X-50.795 Y31.597 I-0.6 J0.009
G1 X-53.188
X-53.308 Y31.591
X-53.507 Y31.572
X-53.742 Y31.534
X-53.985 Y31.475
X-54.254 Y31.39
X-54.549 Y31.272
X-54.853 Y31.124
X-55.2 Y30.924
X-55.54 Y30.692
X-55.933 Y30.382
X-56.31 Y30.037
X-56.736 Y29.587
X-57.149 Y29.083
X-57.574 Y28.479
X-58.006 Y27.761
X-58.424 Y26.938
X-58.794 Y26.055
X-59.103 Y25.148
X-59.352 Y24.223
X-59.546 Y23.286
X-59.687 Y22.338
X-59.774 Y21.384
X-59.809 Y20.427
X-59.791 Y19.47
X-59.72 Y18.515
X-59.59 Y17.566
X-59.401 Y16.627
X-59.151 Y15.703
X-58.849 Y14.838
X-58.503 Y14.037
X-58.129 Y13.319
X-57.741 Y12.689
X-57.353 Y12.151
X-56.955 Y11.674
X-56.564 Y11.27
X-56.205 Y10.949
X-55.881 Y10.699
X-55.557 Y10.483
X-55.255 Y10.313
X-54.957 Y10.172
X-54.659 Y10.057
X-54.538 Y10.019
X-54.241 Y9.96
X-53.938 Y9.962
X-53.642 Y10.025
X-53.365 Y10.145
X-53.117 Y10.319
X-52.909 Y10.539
X-52.75 Y10.796
X-52.524 Y11.26
X-52.397 Y11.426
X-52.041 Y11.861
X-51.908 Y12.011
G3 X-51.771 Y12.42 I-0.462 J0.383
G1 X-51.786 Y12.763
X-52.61 Y31.024
G3 X-53.188 Y31.597 I-0.599 J-0.027
G1 X-55.581
X-55.701 Y31.591
X-55.911 Y31.57
X-56.132 Y31.531
X-56.376 Y31.47
X-56.647 Y31.381
X-56.924 Y31.267
X-57.243 Y31.109
X-57.557 Y30.923
X-57.916 Y30.674
X-58.271 Y30.389
X-58.67 Y30.017
X-59.054 Y29.603
X-59.478 Y29.076
X-59.885 Y28.486
X-60.291 Y27.797
X-60.692 Y26.987
X-61.055 Y26.101
X-61.356 Y25.191
X-61.599 Y24.265
X-61.79 Y23.327
X-61.928 Y22.379
X-62.015 Y21.425
X-62.052 Y20.468
X-62.039 Y19.511
X-61.976 Y18.555
X-61.862 Y17.604
X-61.696 Y16.661
X-61.477 Y15.729
X-61.202 Y14.811
X-60.869 Y13.913
X-60.48 Y13.048
X-60.052 Y12.255
X-59.594 Y11.535
X-59.122 Y10.9
X-58.663 Y10.367
X-58.205 Y9.907
X-57.743 Y9.505
X-57.306 Y9.178
X-56.898 Y8.916
X-56.546 Y8.724
X-56.187 Y8.561
X-55.872 Y8.444
X-55.542 Y8.348
X-55.246 Y8.285
X-54.941 Y8.243
X-54.655 Y8.224
X-54.381 Y8.225
X-54.101 Y8.247
X-53.995 Y8.263
X-53.767 Y8.316
X-53.55 Y8.404
X-53.349 Y8.525
X-53.248 Y8.597
X-53.188 Y8.632
X-52.971 Y8.749
X-52.841 Y8.815
X-52.753 Y8.878
X-52.712 Y8.916
X-52.678 Y8.955
X-52.626 Y9.032
X-52.598 Y9.087
X-52.577 Y9.141
X-52.561 Y9.195
X-52.551 Y9.25
X-52.546 Y9.304
Y9.359
X-52.551 Y9.413
X-52.561 Y9.467
X-52.655 Y9.685
X-52.733 Y9.903
X-52.737 Y9.911
G2 X-53.872 Y12.038 I23.795 J14.062
G1 X-53.906 Y12.127
X-53.926 Y12.22
X-56.092 Y28.99
X-56.097 Y29.085
X-56.086 Y29.18
G2 X-55.529 Y31.526 I27.144 J-5.207
G1 X-55.528 Y31.551
X-55.538 Y31.574
X-55.557 Y31.59
X-55.581 Y31.597
X-57.876
X-57.996 Y31.591
X-58.194 Y31.574
X-58.411 Y31.54
X-58.64 Y31.487
X-58.906 Y31.405
X-59.173 Y31.301
X-59.476 Y31.157
X-59.786 Y30.981
X-60.124 Y30.755
X-60.475 Y30.483
X-60.848 Y30.147
X-61.229 Y29.751
X-61.639 Y29.259
X-62.028 Y28.716
X-62.436 Y28.049
X-62.841 Y27.268
X-63.218 Y26.388
X-63.533 Y25.483
X-63.789 Y24.56
X-63.99 Y23.624
X-64.139 Y22.678
X-64.239 Y21.725
X-64.292 Y20.769
X-64.298 Y19.811
X-64.258 Y18.855
X-64.173 Y17.901
X-64.041 Y16.952
X-63.861 Y16.012
X-63.63 Y15.082
X-63.349 Y14.166
X-63.017 Y13.268
X-62.633 Y12.391
X-62.195 Y11.539
X-61.702 Y10.718
X-61.17 Y9.959
X-60.617 Y9.281
X-60.073 Y8.702
X-59.536 Y8.209
X-58.999 Y7.782
X-58.479 Y7.427
X-57.978 Y7.136
X-57.481 Y6.893
X-56.989 Y6.695
X-56.508 Y6.54
X-56.384 Y6.51
X-56.078 Y6.469
X-55.769 Y6.491
X-55.472 Y6.576
X-55.198 Y6.72
X-54.96 Y6.917
X-54.767 Y7.159
X-54.682 Y7.291
X-54.534 Y7.509
X-54.493 Y7.554
X-54.058 Y7.965
X-53.838 Y8.162
X-53.623 Y8.324
X-53.406 Y8.484
X-53.349 Y8.525
G3 X-53.125 Y9.113 I-0.365 J0.476
G1 X-53.147 Y9.233
X-57.308 Y31.109
G3 X-57.876 Y31.597 I-0.589 J-0.112
G1 X-60.149
X-60.388 Y31.585
X-60.588 Y31.562
X-60.807 Y31.521
X-61.057 Y31.454
X-61.309 Y31.368
X-61.599 Y31.244
X-61.889 Y31.095
X-62.214 Y30.897
X-62.547 Y30.66
X-62.907 Y30.362
X-63.276 Y30.009
X-63.67 Y29.573
X-64.056 Y29.078
X-64.466 Y28.467
X-64.866 Y27.766
X-65.246 Y26.972
X-65.597 Y26.08
X-65.885 Y25.167
X-66.117 Y24.238
X-66.297 Y23.297
X-66.428 Y22.348
X-66.513 Y21.395
X-66.554 Y20.438
X-66.551 Y19.48
X-66.505 Y18.523
X-66.414 Y17.57
X-66.28 Y16.622
X-66.101 Y15.681
X-65.878 Y14.75
X-65.61 Y13.83
X-65.297 Y12.925
X-64.939 Y12.037
X-64.534 Y11.169
X-64.08 Y10.326
X-63.576 Y9.511
X-63.023 Y8.729
X-62.42 Y7.985
X-61.789 Y7.307
X-61.159 Y6.722
X-60.519 Y6.209
X-59.872 Y5.762
X-59.246 Y5.394
X-58.734 Y5.14
X-58.318 Y4.97
X-57.908 Y4.836
X-57.56 Y4.75
X-57.201 Y4.688
X-56.89 Y4.657
X-56.799 Y4.654
X-56.508 Y4.675
X-56.226 Y4.751
X-55.964 Y4.881
X-55.732 Y5.059
X-55.54 Y5.279
X-55.393 Y5.532
X-55.299 Y5.808
X-55.205 Y6.203
X-55.146 Y6.38
X-54.928 Y6.884
X-54.821 Y7.073
X-54.767 Y7.159
G3 X-54.696 Y7.587 I-0.516 J0.306
G1 X-54.765 Y7.921
X-59.583 Y31.119
G3 X-60.149 Y31.597 I-0.587 J-0.122
G1 X-62.542
X-62.662 Y31.591
X-62.867 Y31.568
X-63.086 Y31.527
X-63.322 Y31.464
X-63.588 Y31.373
X-63.857 Y31.26
X-64.166 Y31.101
X-64.472 Y30.915
X-64.818 Y30.669
X-65.161 Y30.386
X-65.542 Y30.022
X-65.909 Y29.618
X-66.315 Y29.1
X-66.699 Y28.529
X-67.091 Y27.845
X-67.48 Y27.036
X-67.831 Y26.145
X-68.121 Y25.232
X-68.356 Y24.304
X-68.54 Y23.364
X-68.676 Y22.416
X-68.767 Y21.463
X-68.814 Y20.506
X-68.818 Y19.548
X-68.782 Y18.591
X-68.704 Y17.637
X-68.586 Y16.686
X-68.428 Y15.742
X-68.23 Y14.805
X-67.992 Y13.877
X-67.714 Y12.961
X-67.393 Y12.059
X-67.03 Y11.172
X-66.624 Y10.305
X-66.175 Y9.459
X-65.684 Y8.637
X-65.15 Y7.842
X-64.573 Y7.078
X-63.951 Y6.349
X-63.284 Y5.662
X-62.574 Y5.02
X-61.858 Y4.458
X-61.171 Y3.995
X-60.521 Y3.621
X-59.923 Y3.333
X-59.357 Y3.109
X-58.874 Y2.957
X-58.461 Y2.859
X-58.06 Y2.795
X-57.716 Y2.764
X-57.364 Y2.758
X-57.059 Y2.775
X-56.745 Y2.816
X-56.721 Y2.821
X-56.435 Y2.91
X-56.173 Y3.056
X-55.947 Y3.253
X-55.766 Y3.491
X-55.637 Y3.762
X-55.567 Y4.053
X-55.557 Y4.353
X-55.497 Y4.897
X-55.456 Y5.115
X-55.359 Y5.55
X-55.299 Y5.808
G3 X-55.307 Y6.08 I-0.588 J0.118
G1 X-55.439 Y6.574
X-61.978 Y31.132
X-61.983 Y31.152
G3 X-62.542 Y31.597 I-0.58 J-0.154
G1 X-64.718
X-64.957 Y31.585
X-65.164 Y31.56
X-65.376 Y31.52
X-65.616 Y31.456
X-65.878 Y31.365
X-66.15 Y31.248
X-66.456 Y31.09
X-66.759 Y30.904
X-67.105 Y30.656
X-67.44 Y30.377
X-67.822 Y30.01
X-68.184 Y29.607
X-68.583 Y29.093
X-68.975 Y28.506
X-69.363 Y27.822
X-69.751 Y27.007
X-70.098 Y26.114
X-70.386 Y25.201
X-70.619 Y24.272
X-70.801 Y23.332
X-70.938 Y22.384
X-71.03 Y21.431
X-71.079 Y20.474
X-71.088 Y19.517
X-71.057 Y18.559
X-70.988 Y17.604
X-70.881 Y16.652
X-70.738 Y15.706
X-70.557 Y14.765
X-70.339 Y13.833
X-70.084 Y12.909
X-69.792 Y11.997
X-69.461 Y11.099
X-69.091 Y10.215
X-68.683 Y9.349
X-68.236 Y8.502
X-67.751 Y7.676
X-67.227 Y6.874
X-66.666 Y6.099
X-66.065 Y5.352
X-65.426 Y4.639
X-64.747 Y3.964
X-64.029 Y3.33
X-63.272 Y2.743
X-62.508 Y2.229
X-61.778 Y1.81
X-61.079 Y1.475
X-60.427 Y1.217
X-59.822 Y1.027
X-59.241 Y0.89
X-58.719 Y0.806
X-58.259 Y0.766
X-57.874 Y0.76
X-57.494 Y0.782
X-57.169 Y0.824
X-56.844 Y0.89
X-56.555 Y0.971
X-56.279 Y1.071
X-56.016 Y1.187
X-55.785 Y1.31
X-55.711 Y1.357
X-55.454 Y1.563
X-55.25 Y1.822
X-55.11 Y2.12
X-55.04 Y2.442
X-55.046 Y2.772
X-55.125 Y3.092
X-55.275 Y3.385
X-55.48 Y3.795
X-55.482 Y3.809
X-55.556 Y4.339
X-55.557 Y4.353
X-55.567 Y4.413
X-55.583 Y4.473
X-55.785 Y5.104
X-64.152 Y31.133
X-64.167 Y31.181
G3 X-64.718 Y31.597 I-0.571 J-0.184
G1 X-67.013
X-67.132 Y31.591
X-67.322 Y31.575
X-67.535 Y31.542
X-67.755 Y31.492
X-68.011 Y31.414
X-68.271 Y31.313
X-68.559 Y31.177
X-68.863 Y31.005
X-69.185 Y30.792
X-69.528 Y30.527
X-69.881 Y30.211
X-70.256 Y29.823
X-70.639 Y29.364
X-71.025 Y28.829
X-71.427 Y28.176
X-71.822 Y27.417
X-72.198 Y26.547
X-72.514 Y25.643
X-72.772 Y24.721
X-72.978 Y23.786
X-73.137 Y22.841
X-73.251 Y21.89
X-73.324 Y20.936
X-73.358 Y19.978
X-73.353 Y19.021
X-73.312 Y18.064
X-73.235 Y17.109
X-73.123 Y16.158
X-72.975 Y15.212
X-72.793 Y14.272
X-72.575 Y13.339
X-72.323 Y12.415
X-72.037 Y11.501
X-71.715 Y10.599
X-71.358 Y9.711
X-70.967 Y8.836
X-70.541 Y7.979
X-70.081 Y7.139
X-69.586 Y6.319
X-69.056 Y5.521
X-68.49 Y4.749
X-67.888 Y4.003
X-67.252 Y3.287
X-66.582 Y2.604
X-65.877 Y1.955
X-65.138 Y1.346
X-64.365 Y0.781
X-63.557 Y0.266
X-62.739 Y-0.179
X-61.934 Y-0.544
X-61.157 Y-0.831
X-60.447 Y-1.036
X-59.787 Y-1.177
X-59.16 Y-1.263
X-58.57 Y-1.302
X-58.023 Y-1.298
X-57.502 Y-1.257
X-57.013 Y-1.182
X-56.601 Y-1.089
X-56.21 Y-0.97
X-55.89 Y-0.847
X-55.57 Y-0.696
X-55.305 Y-0.547
X-55.046 Y-0.376
X-54.814 Y-0.197
X-54.615 Y-0.02
X-54.415 Y0.186
X-54.249 Y0.384
X-54.102 Y0.587
X-53.962 Y0.813
X-53.85 Y1.028
X-53.761 Y1.311
X-53.731 Y1.607
X-53.763 Y1.902
X-53.855 Y2.185
X-54.003 Y2.442
X-54.201 Y2.664
X-54.441 Y2.84
X-54.711 Y2.963
G3 X-55.393 Y2.702 I-0.171 J-0.575
G1 X-55.442 Y2.622 Z51.007
X-55.49 Y2.544 Z51.029
X-55.536 Y2.47 Z51.065
X-55.578 Y2.402 Z51.115
X-55.615 Y2.341 Z51.176
X-55.647 Y2.289 Z51.247
X-55.673 Y2.247 Z51.328
X-55.692 Y2.216 Z51.415
X-55.704 Y2.197 Z51.506
X-55.707 Y2.191 Z51.6
G0 Z59.
X-30.918 Y-8.572
Z52.2
G1 Z51.6 F1440.
X-30.925 Z51.506
X-30.947 Y-8.573 Z51.415
X-30.983 Y-8.574 Z51.328
X-31.032 Y-8.576 Z51.247
X-31.093 Y-8.578 Z51.176
X-31.165 Y-8.58 Z51.115
X-31.245 Y-8.583 Z51.065
X-31.332 Y-8.586 Z51.029
X-31.423 Y-8.59 Z51.007
X-31.517 Y-8.593 Z51.
G3 X-32.271 Y-8.815 I0.056 J-1.582
G1 X-32.957 Y-9.256
X-33.392 Y-9.528
X-33.61 Y-9.657
X-34.262 Y-9.962
X-34.634 Y-10.12
X-34.915 Y-10.239
X-35.023 Y-10.292
X-35.235 Y-10.408
X-35.456 Y-10.552
X-35.707 Y-10.742
X-35.956 Y-10.96
X-36.223 Y-11.23
X-36.505 Y-11.561
X-36.781 Y-11.935
X-37.075 Y-12.402
X-37.352 Y-12.92
X-37.625 Y-13.532
X-37.886 Y-14.256
X-38.105 Y-15.034
X-38.284 Y-15.909
X-38.408 Y-16.859
X-38.465 Y-17.815
X-38.458 Y-18.773
X-38.393 Y-19.728
X-38.27 Y-20.678
X-38.093 Y-21.619
X-37.861 Y-22.548
X-37.576 Y-23.463
X-37.241 Y-24.36
X-36.857 Y-25.237
X-36.425 Y-26.092
X-35.947 Y-26.922
X-35.425 Y-27.725
X-34.859 Y-28.498
X-34.252 Y-29.238
X-33.604 Y-29.943
X-32.918 Y-30.612
X-32.33 Y-31.128
X-32.112 Y-31.287
X-31.869 Y-31.404
X-31.609 Y-31.476
X-31.341 Y-31.5
X-27.352
G3 X-26.81 Y-30.695 I-0.021 J0.6
G1 X-34.136 Y-10.594
G3 X-34.915 Y-10.239 I-0.564 J-0.205
G1 X-35.661 Y-10.556
X-35.785 Y-10.601
X-36.3 Y-10.773
X-36.438 Y-10.816
X-36.873 Y-10.933
X-36.987 Y-10.969
X-37.167 Y-11.036
X-37.353 Y-11.12
X-37.566 Y-11.235
X-37.78 Y-11.372
X-38.011 Y-11.544
X-38.262 Y-11.762
X-38.506 Y-12.005
X-38.778 Y-12.319
X-39.032 Y-12.659
X-39.31 Y-13.093
X-39.561 Y-13.557
X-39.824 Y-14.139
X-40.056 Y-14.768
X-40.266 Y-15.497
X-40.444 Y-16.338
X-40.573 Y-17.276
X-40.634 Y-18.232
X-40.633 Y-19.189
X-40.572 Y-20.145
X-40.454 Y-21.096
X-40.284 Y-22.038
X-40.063 Y-22.97
X-39.795 Y-23.889
X-39.48 Y-24.794
X-39.121 Y-25.682
X-38.72 Y-26.551
X-38.276 Y-27.4
X-37.791 Y-28.226
X-37.265 Y-29.026
X-36.699 Y-29.799
X-36.097 Y-30.544
X-35.692 Y-30.998
X-35.459 Y-31.21
X-35.186 Y-31.369
X-34.886 Y-31.467
X-34.572 Y-31.5
X-31.341
G3 X-30.784 Y-30.74 I-0.021 J0.6
G1 X-36.16 Y-11.357
G3 X-36.873 Y-10.933 I-0.578 J-0.16
G1 X-37.091 Y-10.991
X-37.743 Y-11.162
X-37.976 Y-11.209
X-38.395 Y-11.284
X-38.613 Y-11.32
X-38.733 Y-11.339
X-38.85 Y-11.363
X-39.014 Y-11.404
X-39.194 Y-11.464
X-39.392 Y-11.545
X-39.594 Y-11.645
X-39.824 Y-11.781
X-40.05 Y-11.937
X-40.3 Y-12.138
X-40.548 Y-12.369
X-40.811 Y-12.652
X-41.074 Y-12.979
X-41.344 Y-13.369
X-41.607 Y-13.815
X-41.873 Y-14.352
X-42.111 Y-14.934
X-42.341 Y-15.636
X-42.538 Y-16.426
X-42.687 Y-17.284
X-42.783 Y-18.237
X-42.811 Y-19.194
X-42.779 Y-20.151
X-42.691 Y-21.105
X-42.552 Y-22.052
X-42.365 Y-22.992
X-42.133 Y-23.921
X-41.856 Y-24.838
X-41.538 Y-25.741
X-41.177 Y-26.628
X-40.777 Y-27.498
X-40.337 Y-28.349
X-39.86 Y-29.179
X-39.347 Y-29.988
X-38.799 Y-30.773
X-38.677 Y-30.928
X-38.491 Y-31.125
X-38.272 Y-31.285
X-38.029 Y-31.403
X-37.768 Y-31.476
X-37.499 Y-31.5
X-34.572
G3 X-34.007 Y-30.775 I-0.021 J0.6
G1 X-38.074 Y-11.809
G3 X-38.733 Y-11.339 I-0.587 J-0.126
G1 X-39.483 Y-11.456
X-39.701 Y-11.489
X-39.918 Y-11.522
X-40.571 Y-11.56
X-40.69 Y-11.572
X-40.86 Y-11.602
X-41.033 Y-11.645
X-41.23 Y-11.71
X-41.435 Y-11.794
X-41.655 Y-11.903
X-41.894 Y-12.044
X-42.134 Y-12.21
X-42.396 Y-12.421
X-42.653 Y-12.66
X-42.934 Y-12.962
X-43.202 Y-13.295
X-43.488 Y-13.708
X-43.757 Y-14.165
X-44.025 Y-14.704
X-44.284 Y-15.336
X-44.505 Y-16.013
X-44.704 Y-16.812
X-44.862 Y-17.716
X-44.957 Y-18.669
X-44.988 Y-19.626
X-44.961 Y-20.583
X-44.88 Y-21.537
X-44.749 Y-22.486
X-44.572 Y-23.427
X-44.351 Y-24.359
X-44.088 Y-25.28
X-43.786 Y-26.189
X-43.445 Y-27.084
X-43.067 Y-27.964
X-42.653 Y-28.827
X-42.205 Y-29.674
X-41.722 Y-30.501
X-41.497 Y-30.836
X-41.311 Y-31.062
X-41.083 Y-31.248
X-40.825 Y-31.386
X-40.544 Y-31.471
X-40.252 Y-31.5
X-37.499
G3 X-36.927 Y-30.804 I-0.021 J0.6
G1 X-39.969 Y-12.064
G3 X-40.571 Y-11.56 I-0.592 J-0.096
G1 X-41.223 Y-11.593
X-41.441 Y-11.603
X-41.876 Y-11.619
X-42.094
X-42.213 Y-11.612
X-42.333
X-42.483 Y-11.616
X-42.65 Y-11.634
X-42.824 Y-11.665
X-43.025 Y-11.716
X-43.228 Y-11.783
X-43.457 Y-11.878
X-43.688 Y-11.994
X-43.942 Y-12.146
X-44.2 Y-12.326
X-44.475 Y-12.549
X-44.754 Y-12.812
X-45.047 Y-13.129
X-45.331 Y-13.485
X-45.633 Y-13.926
X-45.909 Y-14.399
X-46.195 Y-14.982
X-46.456 Y-15.627
X-46.69 Y-16.354
X-46.897 Y-17.197
X-47.057 Y-18.142
X-47.149 Y-19.095
X-47.179 Y-20.052
X-47.155 Y-21.01
X-47.079 Y-21.964
X-46.954 Y-22.914
X-46.786 Y-23.857
X-46.575 Y-24.791
X-46.326 Y-25.715
X-46.038 Y-26.629
X-45.715 Y-27.53
X-45.357 Y-28.419
X-44.965 Y-29.293
X-44.54 Y-30.151
X-44.211 Y-30.726
X-44.136 Y-30.837
X-43.95 Y-31.063
X-43.723 Y-31.249
X-43.464 Y-31.386
X-43.183 Y-31.471
X-42.892 Y-31.5
X-40.252
G3 X-39.676 Y-30.837 I-0.021 J0.6
G1 X-41.67 Y-12.146
G3 X-42.213 Y-11.612 I-0.597 J-0.064
G1 X-43.399 Y-11.547
X-44.051 Y-11.491
X-44.171 Y-11.481
X-44.34 Y-11.485
X-44.513 Y-11.502
X-44.713 Y-11.536
X-44.917 Y-11.587
X-45.147 Y-11.662
X-45.385 Y-11.758
X-45.643 Y-11.886
X-45.907 Y-12.041
X-46.191 Y-12.236
X-46.479 Y-12.467
X-46.786 Y-12.751
X-47.086 Y-13.072
X-47.408 Y-13.471
X-47.707 Y-13.901
X-48.021 Y-14.43
X-48.318 Y-15.026
X-48.595 Y-15.696
X-48.853 Y-16.48
X-49.076 Y-17.366
X-49.243 Y-18.309
X-49.344 Y-19.261
X-49.386 Y-20.218
X-49.373 Y-21.175
X-49.311 Y-22.131
X-49.203 Y-23.083
X-49.053 Y-24.029
X-48.863 Y-24.967
X-48.635 Y-25.897
X-48.371 Y-26.818
X-48.073 Y-27.728
X-47.742 Y-28.627
X-47.378 Y-29.513
X-47.02 Y-30.282
X-46.746 Y-30.772
X-46.713 Y-30.823
X-46.527 Y-31.053
X-46.299 Y-31.243
X-46.038 Y-31.384
X-45.754 Y-31.471
X-45.459 Y-31.5
X-42.892
G3 X-42.314 Y-30.861 I-0.021 J0.6
G1 X-43.556 Y-12.043
G3 X-44.051 Y-11.491 I-0.599 J-0.04
G1 X-44.269 Y-11.461
X-45.357 Y-11.286
X-45.574 Y-11.249
X-45.634 Y-11.237
X-45.753 Y-11.219
X-45.91 Y-11.205
X-46.077 Y-11.203
X-46.266 Y-11.214
X-46.467 Y-11.24
X-46.686 Y-11.286
X-46.924 Y-11.353
X-47.174 Y-11.443
X-47.443 Y-11.563
X-47.722 Y-11.712
X-48.02 Y-11.901
X-48.328 Y-12.128
X-48.645 Y-12.399
X-48.979 Y-12.729
X-49.302 Y-13.098
X-49.649 Y-13.559
X-49.972 Y-14.057
X-50.3 Y-14.655
X-50.623 Y-15.357
X-50.903 Y-16.105
X-51.157 Y-16.97
X-51.36 Y-17.906
X-51.499 Y-18.853
X-51.579 Y-19.808
X-51.606 Y-20.765
X-51.585 Y-21.722
X-51.518 Y-22.678
X-51.409 Y-23.629
X-51.26 Y-24.575
X-51.073 Y-25.515
X-50.85 Y-26.446
X-50.593 Y-27.368
X-50.304 Y-28.281
X-49.981 Y-29.183
X-49.633 Y-30.033
X-49.369 Y-30.565
X-49.254 Y-30.761
X-49.069 Y-31.012
X-48.837 Y-31.218
X-48.567 Y-31.372
X-48.271 Y-31.468
X-47.962 Y-31.5
X-45.459
G3 X-44.88 Y-30.891 I-0.021 J0.6
G1 X-45.175 Y-11.811
G3 X-45.634 Y-11.237 I-0.6 J-0.009
G1 X-46.227 Y-11.115
X-46.686 Y-10.991
X-46.879 Y-10.935
X-47.097 Y-10.868
X-47.213 Y-10.839
X-47.359 Y-10.805
X-47.509 Y-10.782
X-47.684 Y-10.767
X-47.868 Y-10.766
X-48.077 Y-10.779
X-48.298 Y-10.809
X-48.541 Y-10.859
X-48.797 Y-10.933
X-49.074 Y-11.034
X-49.364 Y-11.165
X-49.676 Y-11.333
X-49.991 Y-11.534
X-50.336 Y-11.791
X-50.671 Y-12.079
X-51.04 Y-12.447
X-51.392 Y-12.853
X-51.755 Y-13.337
X-52.127 Y-13.917
X-52.463 Y-14.534
X-52.797 Y-15.268
X-53.107 Y-16.108
X-53.374 Y-17.028
X-53.576 Y-17.965
X-53.718 Y-18.912
X-53.806 Y-19.865
X-53.843 Y-20.822
X-53.833 Y-21.78
X-53.78 Y-22.736
X-53.687 Y-23.689
X-53.556 Y-24.638
X-53.388 Y-25.581
X-53.187 Y-26.517
X-52.952 Y-27.446
X-52.686 Y-28.365
X-52.385 Y-29.275
X-52.085 Y-30.038
X-51.848 Y-30.534
X-51.73 Y-30.743
X-51.546 Y-30.999
X-51.312 Y-31.21
X-51.04 Y-31.369
X-50.74 Y-31.467
X-50.426 Y-31.5
X-47.962
G3 X-47.383 Y-30.922 I-0.021 J0.6
G1 X-46.695 Y-11.479
X-46.694 Y-11.457
G3 X-47.097 Y-10.868 I-0.6 J0.021
G1 X-47.532 Y-10.734
X-47.75 Y-10.66
X-48.185 Y-10.502
X-48.402 Y-10.417
X-48.587 Y-10.338
X-48.699 Y-10.297
X-48.842 Y-10.25
X-48.994 Y-10.213
X-49.161 Y-10.185
X-49.353 Y-10.167
X-49.554 Y-10.163
X-49.782 Y-10.174
X-50.02 Y-10.204
X-50.289 Y-10.257
X-50.563 Y-10.332
X-50.867 Y-10.439
X-51.179 Y-10.575
X-51.514 Y-10.752
X-51.865 Y-10.969
X-52.227 Y-11.232
X-52.615 Y-11.559
X-52.986 Y-11.92
X-53.385 Y-12.368
X-53.783 Y-12.887
X-54.165 Y-13.467
X-54.554 Y-14.162
X-54.925 Y-14.955
X-55.259 Y-15.828
X-55.537 Y-16.745
X-55.752 Y-17.678
X-55.911 Y-18.622
X-56.018 Y-19.574
X-56.078 Y-20.53
X-56.093 Y-21.487
X-56.066 Y-22.445
X-56.001 Y-23.4
X-55.899 Y-24.352
X-55.761 Y-25.3
X-55.591 Y-26.243
X-55.388 Y-27.178
X-55.152 Y-28.107
X-54.881 Y-29.025
X-54.596 Y-29.832
X-54.359 Y-30.373
X-54.189 Y-30.698
X-54.007 Y-30.968
X-53.772 Y-31.192
X-53.493 Y-31.36
X-53.185 Y-31.465
X-52.861 Y-31.5
X-50.426
G3 X-49.849 Y-30.948 I-0.021 J0.6
G1 X-48.248 Y-10.987
X-48.243 Y-10.929
G3 X-48.587 Y-10.338 I-0.598 J0.048
G1 X-49.095 Y-10.12
X-49.707 Y-9.855
X-50.039 Y-9.685
X-50.148 Y-9.636
X-50.287 Y-9.578
X-50.434 Y-9.529
X-50.599 Y-9.487
X-50.784 Y-9.455
X-50.986 Y-9.434
X-51.211 Y-9.427
X-51.451 Y-9.437
X-51.718 Y-9.467
X-51.999 Y-9.52
X-52.304 Y-9.6
X-52.627 Y-9.711
X-52.968 Y-9.856
X-53.338 Y-10.045
X-53.708 Y-10.27
X-54.115 Y-10.56
X-54.512 Y-10.887
X-54.935 Y-11.291
X-55.376 Y-11.779
X-55.793 Y-12.31
X-56.225 Y-12.953
X-56.651 Y-13.697
X-57.046 Y-14.521
X-57.398 Y-15.412
X-57.686 Y-16.325
X-57.917 Y-17.255
X-58.095 Y-18.196
X-58.224 Y-19.145
X-58.308 Y-20.099
X-58.349 Y-21.055
X-58.351 Y-22.013
X-58.315 Y-22.97
X-58.243 Y-23.925
X-58.138 Y-24.877
X-57.999 Y-25.825
X-57.829 Y-26.767
X-57.625 Y-27.703
X-57.385 Y-28.63
X-57.104 Y-29.541
X-56.859 Y-30.168
X-56.639 Y-30.629
X-56.576 Y-30.741
X-56.392 Y-30.997
X-56.159 Y-31.21
X-55.886 Y-31.369
X-55.586 Y-31.467
X-55.272 Y-31.5
X-52.861
G3 X-52.287 Y-30.974 I-0.021 J0.6
G1 X-49.747 Y-10.357
X-49.737 Y-10.282
G3 X-50.039 Y-9.685 I-0.596 J0.073
G1 X-50.143 Y-9.632
X-50.36 Y-9.499
X-51.23 Y-8.937
X-51.329 Y-8.87
X-51.431 Y-8.807
X-51.565 Y-8.739
X-51.717 Y-8.676
X-51.881 Y-8.621
X-52.073 Y-8.572
X-52.275 Y-8.535
X-52.508 Y-8.51
X-52.751 Y-8.502
X-53.028 Y-8.513
X-53.317 Y-8.544
X-53.633 Y-8.603
X-53.97 Y-8.69
X-54.326 Y-8.81
X-54.715 Y-8.974
X-55.106 Y-9.173
X-55.536 Y-9.433
X-55.965 Y-9.735
X-56.414 Y-10.104
X-56.896 Y-10.561
X-57.353 Y-11.062
X-57.826 Y-11.662
X-58.303 Y-12.367
X-58.761 Y-13.161
X-59.179 Y-14.023
X-59.534 Y-14.912
X-59.833 Y-15.822
X-60.078 Y-16.748
X-60.274 Y-17.686
X-60.424 Y-18.631
X-60.532 Y-19.583
X-60.599 Y-20.538
X-60.627 Y-21.496
X-60.62 Y-22.453
X-60.578 Y-23.41
X-60.503 Y-24.365
X-60.396 Y-25.317
X-60.257 Y-26.264
X-60.085 Y-27.206
X-59.879 Y-28.142
X-59.632 Y-29.067
X-59.39 Y-29.802
X-59.175 Y-30.327
X-58.957 Y-30.764
X-58.772 Y-31.013
X-58.54 Y-31.219
X-58.27 Y-31.373
X-57.974 Y-31.468
X-57.666 Y-31.5
X-55.272
G3 X-54.701 Y-30.999 I-0.021 J0.6
G1 X-51.113 Y-9.574
X-51.093 Y-9.452
G3 X-51.329 Y-8.87 I-0.592 J0.099
G1 X-51.448 Y-8.788
X-51.722 Y-8.597
X-51.883 Y-8.473
X-52.1 Y-8.291
X-52.251 Y-8.162
X-52.318 Y-8.103
X-52.415 Y-8.015
X-52.508 Y-7.94
X-52.63 Y-7.852
X-52.758 Y-7.775
X-52.91 Y-7.697
X-53.072 Y-7.629
X-53.265 Y-7.564
X-53.468 Y-7.511
X-53.704 Y-7.468
X-53.95 Y-7.441
X-54.234 Y-7.43
X-54.526 Y-7.44
X-54.858 Y-7.475
X-55.2 Y-7.537
X-55.574 Y-7.633
X-55.975 Y-7.767
X-56.391 Y-7.941
X-56.847 Y-8.171
X-57.298 Y-8.441
X-57.781 Y-8.779
X-58.298 Y-9.201
X-58.794 Y-9.668
X-59.315 Y-10.235
X-59.846 Y-10.905
X-60.363 Y-11.663
X-60.845 Y-12.491
X-61.266 Y-13.351
X-61.631 Y-14.236
X-61.943 Y-15.142
X-62.207 Y-16.062
X-62.425 Y-16.995
X-62.6 Y-17.936
X-62.735 Y-18.885
X-62.83 Y-19.837
X-62.889 Y-20.793
X-62.914 Y-21.751
X-62.904 Y-22.708
X-62.862 Y-23.665
X-62.788 Y-24.62
X-62.683 Y-25.572
X-62.546 Y-26.52
X-62.377 Y-27.462
X-62.171 Y-28.398
X-61.92 Y-29.322
X-61.701 Y-29.963
X-61.502 Y-30.43
X-61.371 Y-30.685
X-61.19 Y-30.959
X-60.954 Y-31.187
X-60.674 Y-31.358
X-60.363 Y-31.464
X-60.037 Y-31.5
X-57.666
G3 X-57.1 Y-31.027 I-0.021 J0.6
G1 X-52.283 Y-8.746
X-52.245 Y-8.574
G3 X-52.415 Y-8.015 I-0.586 J0.127
G1 X-52.494 Y-7.944
X-52.753 Y-7.683
X-52.919 Y-7.509
X-53.101 Y-7.291
X-53.188 Y-7.18
X-53.269 Y-7.073
X-53.345 Y-6.981
X-53.451 Y-6.875
X-53.565 Y-6.777
X-53.697 Y-6.681
X-53.84 Y-6.592
X-53.925 Y-6.546
X-54.013 Y-6.504
X-54.196 Y-6.423
X-54.411 Y-6.346
X-54.638 Y-6.283
X-54.899 Y-6.23
X-55.177 Y-6.194
X-55.487 Y-6.177
X-55.822 Y-6.182
X-56.177 Y-6.214
X-56.574 Y-6.278
X-56.975 Y-6.374
X-57.427 Y-6.516
X-57.892 Y-6.7
X-58.375 Y-6.933
X-58.903 Y-7.236
X-59.433 Y-7.594
X-59.98 Y-8.024
X-60.561 Y-8.552
X-61.149 Y-9.17
X-61.705 Y-9.845
X-62.259 Y-10.626
X-62.755 Y-11.445
X-63.198 Y-12.295
X-63.589 Y-13.169
X-63.932 Y-14.063
X-64.23 Y-14.973
X-64.485 Y-15.896
X-64.698 Y-16.83
X-64.872 Y-17.772
X-65.008 Y-18.72
X-65.107 Y-19.672
X-65.172 Y-20.628
X-65.204 Y-21.585
X-65.205 Y-22.543
X-65.174 Y-23.5
X-65.112 Y-24.456
X-65.021 Y-25.409
X-64.899 Y-26.359
X-64.745 Y-27.304
X-64.557 Y-28.243
X-64.322 Y-29.171
X-64.099 Y-29.862
X-63.905 Y-30.339
X-63.746 Y-30.662
X-63.566 Y-30.943
X-63.329 Y-31.178
X-63.046 Y-31.354
X-62.731 Y-31.463
X-62.4 Y-31.5
X-60.037
G3 X-59.478 Y-31.056 I-0.021 J0.6
G1 X-59.473 Y-31.035
X-53.248 Y-7.826
X-53.181 Y-7.573
G3 X-53.269 Y-7.073 I-0.58 J0.155
G1 X-53.432 Y-6.856
X-53.751 Y-6.42
X-53.841 Y-6.295
X-53.869 Y-6.249
X-54.07 Y-5.687
X-54.069 Y-5.55
X-54.095 Y-4.89
X-54.517 Y-4.229
X-55.368 Y-3.791
X-56.326 Y-3.803
X-56.562 Y-3.843
X-56.797 Y-3.889
X-57.703 Y-4.2
X-58.561 Y-4.563
X-59.372 Y-4.977
X-60.159 Y-5.453
X-60.929 Y-5.999
X-61.669 Y-6.607
X-62.363 Y-7.266
X-63.011 Y-7.971
X-63.611 Y-8.718
X-64.161 Y-9.502
X-64.664 Y-10.317
X-65.12 Y-11.159
X-65.531 Y-12.024
X-65.899 Y-12.909
X-66.225 Y-13.809
X-66.511 Y-14.723
X-66.758 Y-15.648
X-66.969 Y-16.583
X-67.142 Y-17.524
X-67.281 Y-18.472
X-67.385 Y-19.424
X-67.457 Y-20.379
X-67.498 Y-21.336
X-67.509 Y-22.293
X-67.49 Y-23.251
X-67.442 Y-24.207
X-67.365 Y-25.162
X-67.259 Y-26.114
X-67.122 Y-27.062
X-66.951 Y-28.004
X-66.735 Y-28.937
X-66.507 Y-29.701
X-66.312 Y-30.215
X-66.105 Y-30.659
X-66.067 Y-30.728
X-65.884 Y-30.989
X-65.65 Y-31.205
X-65.375 Y-31.366
X-65.072 Y-31.466
X-64.756 Y-31.5
X-62.4
G3 X-61.847 Y-31.076 I-0.021 J0.6
G1 X-61.835 Y-31.036
X-54.28 Y-6.305
X-54.094 Y-5.698
X-54.077 Y-5.625
X-54.069 Y-5.55
X-54.065 Y-5.178
X-54.062 Y-5.167
X-53.881 Y-4.679
X-53.593 Y-3.766
X-53.478 Y-3.556
X-53.402 Y-3.409
X-53.346 Y-3.251
X-53.309 Y-3.085
X-53.293 Y-2.913
X-53.299 Y-2.737
X-53.328 Y-2.559
X-53.355 Y-2.471
X-53.387 Y-2.384
X-53.463 Y-2.21
X-53.565 Y-2.042
X-53.694 Y-1.878
X-53.855 Y-1.721
X-54.049 Y-1.574
X-54.282 Y-1.441
X-54.554 Y-1.328
X-54.857 Y-1.246
X-55.184 Y-1.201
X-56.141 Y-1.191
X-56.996 Y-1.277
X-57.604 Y-1.418
X-58.502 Y-1.75
X-58.868 Y-1.868
X-59.735 Y-2.274
X-60.128 Y-2.439
X-60.262 Y-2.524
X-60.404 Y-2.616
X-60.554 Y-2.715
X-60.714 Y-2.821
X-60.884 Y-2.936
X-61.025 Y-3.033
X-61.148 Y-3.119
X-61.27 Y-3.205
X-61.392 Y-3.293
X-61.513 Y-3.381
X-61.639 Y-3.474
X-61.771 Y-3.573
X-61.898 Y-3.669
X-62.017 Y-3.761
X-62.135 Y-3.854
X-62.252 Y-3.947
X-62.369 Y-4.041
X-62.485 Y-4.137
X-62.6 Y-4.233
X-62.83 Y-4.43
X-62.943 Y-4.528
X-63.056 Y-4.628
X-63.167 Y-4.728
X-63.277 Y-4.83
X-63.387 Y-4.932
X-63.496 Y-5.035
X-63.604 Y-5.139
X-63.711 Y-5.244
X-63.818 Y-5.35
X-63.923 Y-5.457
X-64.028 Y-5.564
X-64.131 Y-5.673
X-64.234 Y-5.782
X-64.336 Y-5.892
X-64.437 Y-6.003
X-64.537 Y-6.114
X-64.636 Y-6.227
X-64.735 Y-6.34
X-64.832 Y-6.455
X-64.928 Y-6.57
X-65.023 Y-6.685
X-65.118 Y-6.802
X-65.212 Y-6.919
X-65.304 Y-7.037
X-65.396 Y-7.156
X-65.486 Y-7.275
X-65.576 Y-7.396
X-65.665 Y-7.517
X-65.752 Y-7.638
X-65.839 Y-7.761
X-65.925 Y-7.884
X-66.01 Y-8.007
X-66.094 Y-8.132
X-66.177 Y-8.257
X-66.259 Y-8.382
X-66.34 Y-8.509
X-66.42 Y-8.635
X-66.499 Y-8.763
X-66.577 Y-8.891
X-66.654 Y-9.02
X-66.73 Y-9.149
X-66.805 Y-9.279
X-66.953 Y-9.542
X-67.026 Y-9.673
X-67.097 Y-9.805
X-67.167 Y-9.938
X-67.236 Y-10.071
X-67.306 Y-10.206
X-67.377 Y-10.348
X-67.444 Y-10.482
X-67.509 Y-10.617
X-67.574 Y-10.752
X-67.637 Y-10.888
X-67.7 Y-11.025
X-67.766 Y-11.171
X-67.832 Y-11.32
X-67.892 Y-11.458
X-67.951 Y-11.596
X-68.009 Y-11.734
X-68.066 Y-11.873
X-68.125 Y-12.021
X-68.187 Y-12.177
X-68.246 Y-12.33
X-68.299 Y-12.471
X-68.351 Y-12.611
X-68.403 Y-12.753
X-68.456 Y-12.903
X-68.512 Y-13.063
X-68.57 Y-13.232
X-68.665 Y-13.52
X-68.711 Y-13.665
X-68.758 Y-13.818
X-68.808 Y-13.981
X-68.859 Y-14.154
X-68.909 Y-14.325
X-68.95 Y-14.469
X-68.991 Y-14.618
X-69.033 Y-14.776
X-69.077 Y-14.944
X-69.123 Y-15.123
X-69.168 Y-15.308
X-69.204 Y-15.458
X-69.24 Y-15.613
X-69.278 Y-15.779
X-69.317 Y-15.955
X-69.357 Y-16.143
X-69.396 Y-16.335
X-69.427 Y-16.492
X-69.459 Y-16.656
X-69.491 Y-16.832
X-69.525 Y-17.019
X-69.559 Y-17.22
X-69.59 Y-17.408
X-69.617 Y-17.574
X-69.643 Y-17.751
X-69.671 Y-17.94
X-69.699 Y-18.143
X-69.727 Y-18.357
X-69.748 Y-18.529
X-69.769 Y-18.709
X-69.791 Y-18.902
X-69.812 Y-19.108
X-69.834 Y-19.331
X-69.851 Y-19.518
X-69.867 Y-19.703
X-69.882 Y-19.9
X-69.897 Y-20.112
X-69.912 Y-20.341
X-69.923 Y-20.539
X-69.933 Y-20.729
X-69.942 Y-20.932
X-69.951 Y-21.151
X-69.958 Y-21.388
X-69.963 Y-21.586
X-69.967 Y-21.781
X-69.969 Y-21.991
X-69.97 Y-22.217
Y-22.46
X-69.968 Y-22.652
X-69.966 Y-22.852
X-69.961 Y-23.066
X-69.955 Y-23.298
X-69.946 Y-23.537
X-69.939 Y-23.725
X-69.929 Y-23.926
X-69.917 Y-24.142
X-69.903 Y-24.375
X-69.888 Y-24.603
X-69.875 Y-24.784
X-69.859 Y-24.978
X-69.841 Y-25.186
X-69.82 Y-25.41
X-69.797 Y-25.633
X-69.78 Y-25.795
X-69.761 Y-25.963
X-69.739 Y-26.141
X-69.715 Y-26.331
X-69.688 Y-26.534
X-69.661 Y-26.727
X-69.639 Y-26.875
X-69.616 Y-27.023
X-69.592 Y-27.171
X-69.566 Y-27.325
X-69.538 Y-27.487
X-69.508 Y-27.648
X-69.48 Y-27.795
X-69.451 Y-27.942
X-69.421 Y-28.089
X-69.389 Y-28.236
X-69.357 Y-28.382
X-69.323 Y-28.528
X-69.287 Y-28.674
X-69.251 Y-28.819
X-69.212 Y-28.964
X-69.173 Y-29.109
X-69.132 Y-29.253
X-69.089 Y-29.397
X-69.044 Y-29.54
X-68.997 Y-29.683
X-68.947 Y-29.824
X-68.896 Y-29.965
X-68.842 Y-30.105
X-68.786 Y-30.244
X-68.726 Y-30.382
X-68.663 Y-30.518
X-68.598 Y-30.653
X-68.581 Y-30.685
X-68.4 Y-30.959
X-68.164 Y-31.187
X-67.884 Y-31.358
X-67.573 Y-31.464
X-67.247 Y-31.5
X-64.756
G3 X-64.218 Y-31.119 I-0.021 J0.6
G1 X-64.186 Y-31.037
X-54.167 Y-5.411
X-53.881 Y-4.679
X-53.854 Y-4.606
X-53.848 Y-4.594
X-53.841 Y-4.582
X-53.746 Y-4.462
X-53.397 Y-4.026
X-53.293 Y-3.927
X-53.188 Y-3.833
X-52.971 Y-3.667
X-52.879 Y-3.589
X-52.775 Y-3.482
X-52.684 Y-3.363
X-52.606 Y-3.234
X-52.541 Y-3.099
X-52.489 Y-2.958
X-52.237 Y-2.034
X-51.97 Y-1.115
X-51.991 Y-0.997
X-52.048 Y-0.764
X-52.126 Y0.19
X-52.062 Y0.504
X-52.025 Y0.785
X-52.009 Y1.073
X-52.013 Y1.348
X-52.071 Y1.651
X-52.191 Y1.936
X-52.367 Y2.19
X-52.592 Y2.402
X-52.855 Y2.564
X-53.146 Y2.668
X-53.452 Y2.709
G3 X-54.05 Y2.094 I0.002 J-0.6
G1 X-53.918 Y-3.193
G3 X-52.971 Y-3.667 I0.6 J0.015
G1 X-52.753 Y-3.501
X-52.585 Y-3.373
X-52.535 Y-3.344
X-51.883 Y-2.976
X-51.752 Y-2.902
X-51.561 Y-2.725
X-51.416 Y-2.507
X-51.327 Y-2.262
X-51.299 Y-2.003
X-51.332 Y-1.744
G3 X-53.035 Y-1.391 I-0.945 J-0.274
X-51.883 Y-2.976 I0.779 J-0.644
G1 X-51.557 Y-2.835
X-51.502 Y-2.804
X-51.448 Y-2.765
X-51.396 Y-2.721
X-51.346 Y-2.666
X-51.307 Y-2.612
X-51.276 Y-2.557
X-51.252 Y-2.503
X-51.23 Y-2.436
X-51.216 Y-2.361
X-51.212 Y-2.285
X-51.216 Y-2.212
X-51.23 Y-2.139
X-51.249 Y-2.068
X-51.36 Y-1.632
X-51.415 Y-1.415
X-51.448 Y-1.279
X-51.722 Y0.109
X-51.814 Y0.762
X-51.838 Y0.979
X-51.954 Y2.068
X-51.971 Y2.176
X-51.987 Y2.231
X-52.009 Y2.285
X-52.047 Y2.356
X-52.1 Y2.428
X-52.179 Y2.503
X-52.248 Y2.555
X-52.318 Y2.593
X-52.535 Y2.678
X-52.644 Y2.699
X-52.753 Y2.703
X-53.406 Y2.708
X-53.623 Y2.714
X-54.058 Y2.762
X-54.167 Y2.782
X-54.276 Y2.817
X-54.711 Y2.963
G3 X-55.393 Y2.702 I-0.171 J-0.575
G1 X-55.442 Y2.622 Z51.007
X-55.49 Y2.544 Z51.029
X-55.536 Y2.47 Z51.065
X-55.578 Y2.402 Z51.115
X-55.615 Y2.341 Z51.176
X-55.647 Y2.289 Z51.247
X-55.673 Y2.247 Z51.328
X-55.692 Y2.216 Z51.415
X-55.704 Y2.197 Z51.506
X-55.707 Y2.191 Z51.6
G0 Z59.
X-65.743 Y31.069
Z52.2
G1 Z51.6 F1440.
X-65.75 Y31.073 Z51.506
X-65.769 Y31.084 Z51.415
X-65.8 Y31.102 Z51.328
X-65.842 Y31.127 Z51.247
X-65.894 Y31.159 Z51.176
X-65.956 Y31.195 Z51.115
X-66.025 Y31.236 Z51.065
X-66.1 Y31.281 Z51.029
X-66.178 Y31.327 Z51.007
X-66.259 Y31.375 Z51.
G3 X-67.013 Y31.597 I-0.809 J-1.36
G1 X-69.286
X-69.405 Y31.591
X-69.596 Y31.574
X-69.803 Y31.541
X-70.04 Y31.486
X-70.279 Y31.411
X-70.555 Y31.303
X-70.833 Y31.17
X-71.142 Y30.994
X-71.465 Y30.776
X-71.806 Y30.51
X-72.167 Y30.184
X-72.54 Y29.795
X-72.923 Y29.332
X-73.326 Y28.766
X-73.707 Y28.142
X-74.097 Y27.383
X-74.472 Y26.502
X-74.785 Y25.597
X-75.041 Y24.674
X-75.246 Y23.738
X-75.405 Y22.794
X-75.521 Y21.843
X-75.597 Y20.889
X-75.634 Y19.932
Y18.974
X-75.599 Y18.017
X-75.53 Y17.062
X-75.427 Y16.11
X-75.291 Y15.162
X-75.122 Y14.219
X-74.921 Y13.282
X-74.688 Y12.354
X-74.423 Y11.433
X-74.126 Y10.523
X-73.797 Y9.623
X-73.436 Y8.737
X-73.042 Y7.863
X-72.616 Y7.006
X-72.158 Y6.165
X-71.669 Y5.342
X-71.147 Y4.538
X-70.593 Y3.757
X-70.008 Y2.999
X-69.392 Y2.266
X-68.745 Y1.56
X-68.066 Y0.884
X-67.355 Y0.242
X-66.613 Y-0.363
X-65.956 Y-1.06
X-65.143 Y-1.566
X-64.323 Y-2.06
X-64.109 Y-2.168
X-63.25 Y-2.59
X-63.028 Y-2.681
X-62.805 Y-2.768
G3 X-62.111 Y-2.541 I0.199 J0.566
G1 X-62.058 Y-2.464 Z51.007
X-62.006 Y-2.388 Z51.029
X-61.957 Y-2.316 Z51.065
X-61.912 Y-2.25 Z51.115
X-61.871 Y-2.191 Z51.176
X-61.837 Y-2.14 Z51.247
X-61.809 Y-2.1 Z51.328
X-61.789 Y-2.07 Z51.415
X-61.776 Y-2.052 Z51.506
X-61.772 Y-2.046 Z51.6
G0 Z59.
X-68.017 Y31.069
Z52.2
G1 Z51.6 F1440.
X-68.023 Y31.073 Z51.506
X-68.042 Y31.084 Z51.415
X-68.073 Y31.102 Z51.328
X-68.115 Y31.127 Z51.247
X-68.168 Y31.159 Z51.176
X-68.229 Y31.195 Z51.115
X-68.298 Y31.236 Z51.065
X-68.373 Y31.281 Z51.029
X-68.452 Y31.327 Z51.007
X-68.532 Y31.375 Z51.
G3 X-69.286 Y31.597 I-0.809 J-1.36
G1 X-71.461
X-71.7 Y31.585
X-71.894 Y31.566
X-72.104 Y31.529
X-72.344 Y31.47
X-72.586 Y31.391
X-72.865 Y31.277
X-73.149 Y31.137
X-73.461 Y30.953
X-73.785 Y30.731
X-74.13 Y30.454
X-74.488 Y30.121
X-74.865 Y29.717
X-75.246 Y29.245
X-75.65 Y28.662
X-76.035 Y28.012
X-76.343 Y27.396
X-76.429 Y27.182
X-76.482 Y26.957
X-76.5 Y26.727
G3 X-75.484 Y26.315 I0.6 J0.021
G1 X-71.066 Y30.565
G3 X-71.461 Y31.597 I-0.416 J0.432
G1 X-73.854
X-73.974 Y31.591
X-74.177 Y31.569
X-74.385 Y31.531
X-74.628 Y31.468
X-74.875 Y31.385
X-75.151 Y31.269
X-75.446 Y31.119
X-75.754 Y30.934
X-75.864 Y30.857
X-76.081 Y30.67
X-76.259 Y30.446
X-76.391 Y30.191
X-76.473 Y29.916
X-76.5 Y29.631
G3 X-75.568 Y29.152 I0.6 J0.021
G1 X-73.543 Y30.497
G3 X-73.854 Y31.597 I-0.332 J0.5
G1 X-75.812
X-75.921 Y31.596
X-75.975 Y31.59
X-76.03 Y31.578
X-76.084 Y31.562
X-76.138 Y31.539
X-76.193 Y31.51
X-76.247 Y31.473
X-76.276 Y31.449
X-76.331 Y31.395
X-76.378 Y31.34
X-76.415 Y31.286
X-76.444 Y31.232
X-76.465 Y31.18
X-76.488 Y31.097
X-76.499 Y31.014
X-76.5 Y30.796
Y12.732
X-76.476 Y12.254
X-76.426 Y11.549
X-76.308 Y10.732
X-76.103 Y9.796
X-75.835 Y8.877
X-75.516 Y7.974
X-75.152 Y7.088
X-74.75 Y6.219
X-74.312 Y5.367
X-73.841 Y4.533
X-73.338 Y3.718
X-72.805 Y2.923
X-72.241 Y2.148
X-71.649 Y1.396
X-71.027 Y0.668
X-70.375 Y-0.034
X-69.694 Y-0.707
X-69.018 Y-1.386
X-68.306 Y-2.026
X-67.676 Y-2.747
X-66.905 Y-3.315
X-66.079 Y-3.801
X-65.977 Y-3.863
X-65.15 Y-4.346
X-65.041 Y-4.396
G3 X-64.308 Y-3.51 I0.235 J0.552
G1 X-75.402 Y13.045
G3 X-76.5 Y12.732 I-0.498 J-0.334
G1 Y7.073
X-76.476 Y6.595
X-76.428 Y6.141
X-76.336 Y5.627
X-76.179 Y5.01
X-75.946 Y4.31
X-75.605 Y3.49
X-75.175 Y2.635
X-74.691 Y1.808
X-74.163 Y1.009
X-73.596 Y0.237
X-72.995 Y-0.509
X-72.368 Y-1.232
X-71.719 Y-1.937
X-71.062 Y-2.634
X-70.397 Y-3.323
X-69.694 Y-3.973
X-69.091 Y-4.717
X-68.3 Y-5.257
X-67.894 Y-5.51
X-67.483 Y-5.756
X-67.071 Y-6.001
X-66.865 Y-6.122
X-66.68 Y-6.275
X-66.522 Y-6.455
X-66.395 Y-6.657
X-66.302 Y-6.878
X-66.244 Y-7.11
X-66.225 Y-7.349
X-66.244 Y-7.588
X-66.3 Y-7.82
X-66.393 Y-8.041
X-66.52 Y-8.244
X-66.678 Y-8.424
X-67.414 Y-9.036
X-67.595 Y-9.112
X-67.796 Y-9.214
X-68.017 Y-9.348
X-68.26 Y-9.519
X-68.525 Y-9.736
X-68.813 Y-10.008
X-69.123 Y-10.348
X-69.457 Y-10.771
X-69.815 Y-11.299
X-70.195 Y-11.956
X-70.594 Y-12.779
X-70.949 Y-13.668
X-71.249 Y-14.578
X-71.501 Y-15.502
X-71.712 Y-16.436
X-71.886 Y-17.378
X-72.026 Y-18.325
X-72.134 Y-19.277
X-72.211 Y-20.231
X-72.26 Y-21.188
X-72.281 Y-22.145
X-72.274 Y-23.103
X-72.24 Y-24.06
X-72.177 Y-25.016
X-72.086 Y-25.969
X-71.962 Y-26.919
X-71.802 Y-27.863
X-71.598 Y-28.799
X-71.378 Y-29.581
X-71.176 Y-30.142
X-70.98 Y-30.582
X-70.914 Y-30.706
X-70.731 Y-30.974
X-70.496 Y-31.196
X-70.219 Y-31.362
X-69.912 Y-31.465
X-69.59 Y-31.5
X-67.247
G3 X-66.683 Y-31.035 I-0.021 J0.6
G1 X-66.662 Y-30.944 Z51.007
X-66.642 Y-30.855 Z51.029
X-66.622 Y-30.77 Z51.065
X-66.604 Y-30.692 Z51.115
X-66.588 Y-30.622 Z51.176
X-66.574 Y-30.562 Z51.247
X-66.563 Y-30.514 Z51.328
X-66.555 Y-30.479 Z51.415
X-66.55 Y-30.458 Z51.506
X-66.548 Y-30.451 Z51.6
G0 Z59.
X-75.972 Y8.343
Z52.2
G1 Z51.6 F1440.
X-75.976 Y8.336 Z51.506
X-75.987 Y8.317 Z51.415
X-76.005 Y8.286 Z51.328
X-76.031 Y8.244 Z51.247
X-76.062 Y8.192 Z51.176
X-76.098 Y8.13 Z51.115
X-76.139 Y8.061 Z51.065
X-76.184 Y7.986 Z51.029
X-76.231 Y7.908 Z51.007
X-76.279 Y7.827 Z51.
G3 X-76.5 Y7.073 I1.36 J-0.809
G1 Y2.938
X-76.476 Y2.46
X-76.436 Y2.105
X-76.361 Y1.704
X-76.239 Y1.238
X-76.061 Y0.716
X-75.805 Y0.114
X-75.441 Y-0.598
X-74.944 Y-1.416
X-74.393 Y-2.199
X-73.804 Y-2.954
X-73.186 Y-3.686
X-72.55 Y-4.402
X-71.913 Y-5.117
X-71.262 Y-5.82
X-70.66 Y-6.565
X-69.661 Y-7.223
X-68.751 Y-7.802
X-68.65 Y-7.865
G3 X-67.867 Y-6.99 I0.3 J0.52
G1 X-75.417 Y3.273
G3 X-76.5 Y2.938 I-0.483 J-0.356
G1 Y-0.762
X-76.488 Y-1.001
X-76.459 Y-1.301
X-76.399 Y-1.656
X-76.3 Y-2.059
X-76.151 Y-2.521
X-75.933 Y-3.06
X-75.609 Y-3.72
X-75.126 Y-4.547
X-74.587 Y-5.338
X-74.015 Y-6.107
X-73.424 Y-6.86
X-72.888 Y-7.653
X-72.262 Y-8.378
X-71.466 Y-8.911
X-70.964 Y-9.237
X-70.56 Y-9.495
X-70.381 Y-9.654
X-70.23 Y-9.84
X-70.111 Y-10.047
X-70.026 Y-10.271
X-69.977 Y-10.505
X-69.967 Y-10.744
X-69.994 Y-10.982
X-70.06 Y-11.213
X-70.161 Y-11.43
X-70.295 Y-11.628
X-70.459 Y-11.802
X-71.218 Y-12.386
X-71.402 Y-12.501
X-71.589 Y-12.637
X-71.799 Y-12.815
X-72.029 Y-13.04
X-72.263 Y-13.303
X-72.524 Y-13.644
X-72.786 Y-14.044
X-73.071 Y-14.556
X-73.359 Y-15.171
X-73.653 Y-15.943
X-73.929 Y-16.86
X-74.143 Y-17.794
X-74.305 Y-18.738
X-74.426 Y-19.688
X-74.508 Y-20.642
X-74.558 Y-21.598
X-74.577 Y-22.556
X-74.566 Y-23.513
X-74.527 Y-24.47
X-74.459 Y-25.426
X-74.36 Y-26.378
X-74.226 Y-27.326
X-74.053 Y-28.268
X-73.831 Y-29.2
X-73.626 Y-29.854
X-73.441 Y-30.325
X-73.284 Y-30.65
X-73.105 Y-30.935
X-72.868 Y-31.172
X-72.583 Y-31.351
X-72.266 Y-31.462
X-71.932 Y-31.5
X-69.59
G3 X-69.027 Y-31.035 I-0.021 J0.6
G1 X-69.006 Y-30.944 Z51.007
X-68.985 Y-30.855 Z51.029
X-68.965 Y-30.77 Z51.065
X-68.947 Y-30.692 Z51.115
X-68.931 Y-30.622 Z51.176
X-68.918 Y-30.562 Z51.247
X-68.906 Y-30.514 Z51.328
X-68.898 Y-30.479 Z51.415
X-68.893 Y-30.458 Z51.506
X-68.892 Y-30.451 Z51.6
G0 Z59.
X-75.972 Y0.508
Z52.2
G1 Z51.6 F1440.
X-75.976 Y0.501 Z51.506
X-75.987 Y0.482 Z51.415
X-76.005 Y0.451 Z51.328
X-76.031 Y0.409 Z51.247
X-76.062 Y0.356 Z51.176
X-76.098 Y0.295 Z51.115
X-76.139 Y0.226 Z51.065
X-76.184 Y0.151 Z51.029
X-76.231 Y0.072 Z51.007
X-76.279 Y-0.008 Z51.
G3 X-76.5 Y-0.762 I1.36 J-0.809
G1 Y-4.244
X-76.488 Y-4.483
X-76.449 Y-4.816
X-76.376 Y-5.196
X-76.255 Y-5.645
X-76.005 Y-6.364
X-75.719 Y-7.029
X-75.353 Y-7.736
X-74.851 Y-8.552
X-74.523 Y-9.452
X-73.883 Y-10.164
X-73.49 Y-10.438
X-73.193 Y-10.639
X-72.795 Y-10.905
X-72.394 Y-11.167
X-72.305 Y-11.247
X-72.223 Y-11.334
X-72.148 Y-11.428
X-72.081 Y-11.527
X-72.022 Y-11.631
X-71.971 Y-11.74
X-71.93 Y-11.852
X-71.897 Y-11.967
X-71.874 Y-12.084
X-71.86 Y-12.203
G3 X-70.673 Y-12.023 I0.593 J0.09
X-70.739 Y-11.828 I-0.593 J-0.09
G1 X-75.235 Y-3.512
G3 X-76.279 Y-3.49 I-0.528 J-0.285
X-76.5 Y-4.244 I1.36 J-0.809
G1 Y-8.162
X-76.488 Y-8.401
X-76.465 Y-8.652
X-76.417 Y-8.946
X-76.335 Y-9.287
X-76.239 Y-9.592
X-75.884 Y-10.482
X-75.692 Y-11.42
X-75.158 Y-12.216
X-74.361 Y-12.745
X-74.185 Y-12.908
X-74.037 Y-13.096
X-73.921 Y-13.305
X-73.84 Y-13.531
X-73.795 Y-13.766
X-73.789 Y-14.005
X-73.821 Y-14.243
X-73.89 Y-14.472
X-73.994 Y-14.687
X-74.545 Y-15.471
X-74.738 Y-15.661
X-74.944 Y-15.894
X-75.169 Y-16.19
X-75.39 Y-16.529
X-75.631 Y-16.964
X-75.864 Y-17.469
X-76.105 Y-18.106
X-76.341 Y-18.898
X-76.465 Y-19.461
X-76.484 Y-19.568
X-76.496 Y-19.676
X-76.5 Y-19.784
Y-25.355
X-76.452 Y-26.312
X-76.402 Y-27.268
X-76.286 Y-28.219
X-76.121 Y-29.068
X-75.946 Y-29.714
X-75.781 Y-30.184
X-75.596 Y-30.61
X-75.553 Y-30.694
X-75.371 Y-30.965
X-75.135 Y-31.191
X-74.856 Y-31.36
X-74.547 Y-31.465
X-74.223 Y-31.5
G3 X-73.669 Y-30.728 I-0.021 J0.6
G1 X-75.326 Y-25.204
G3 X-76.5 Y-25.355 I-0.575 J-0.172
G1 Y-30.579
X-76.494 Y-30.695
X-76.447 Y-30.908
X-76.349 Y-31.103
X-76.207 Y-31.269
X-76.029 Y-31.395
X-75.825 Y-31.473
X-75.609 Y-31.5
G3 X-75.005 Y-31.244 I-0.032 J0.914
X-76.232 Y-29.975 I-0.613 J0.634
X-76.5 Y-30.579 I0.613 J-0.634
G1 Y-30.905
X-76.495 Y-30.96
X-76.486 Y-31.014
X-76.465 Y-31.087
X-76.433 Y-31.159
X-76.389 Y-31.232
X-76.328 Y-31.304
X-76.247 Y-31.376
X-76.185 Y-31.418
X-76.124 Y-31.449
X-76.03 Y-31.482
X-75.975 Y-31.493
X-75.921 Y-31.499
X-75.812 Y-31.5
X-71.932
G3 X-71.369 Y-31.035 I-0.021 J0.6
G1 X-71.347 Y-30.944 Z51.007
X-71.327 Y-30.855 Z51.029
X-71.307 Y-30.77 Z51.065
X-71.289 Y-30.692 Z51.115
X-71.273 Y-30.622 Z51.176
X-71.259 Y-30.562 Z51.247
X-71.248 Y-30.514 Z51.328
X-71.24 Y-30.479 Z51.415
X-71.235 Y-30.458 Z51.506
X-71.234 Y-30.451 Z51.6
G0 Z59.
X-75.972 Y-6.892
Z52.2
G1 Z51.6 F1440.
X-75.976 Y-6.899 Z51.506
X-75.987 Y-6.918 Z51.415
X-76.005 Y-6.948 Z51.328
X-76.031 Y-6.991 Z51.247
X-76.062 Y-7.043 Z51.176
X-76.098 Y-7.105 Z51.115
X-76.139 Y-7.174 Z51.065
X-76.184 Y-7.249 Z51.029
X-76.231 Y-7.327 Z51.007
X-76.279 Y-7.408 Z51.
G3 X-76.5 Y-8.162 I1.36 J-0.809
G1 Y-19.784
G3 X-76.035 Y-20.348 I0.6 J0.021
G1 X-75.944 Y-20.369 Z51.007
X-75.855 Y-20.389 Z51.029
X-75.77 Y-20.409 Z51.065
X-75.692 Y-20.427 Z51.115
X-75.622 Y-20.443 Z51.176
X-75.562 Y-20.457 Z51.247
X-75.514 Y-20.468 Z51.328
X-75.479 Y-20.476 Z51.415
X-75.458 Y-20.481 Z51.506
X-75.451 Y-20.483 Z51.6
G0 Z59.
X-17.476 Y-30.972
Z52.2
G1 Z51.6 F1440.
X-17.47 Y-30.976 Z51.506
X-17.451 Y-30.987 Z51.415
X-17.42 Y-31.005 Z51.328
X-17.377 Y-31.031 Z51.247
X-17.325 Y-31.062 Z51.176
X-17.263 Y-31.098 Z51.115
X-17.194 Y-31.139 Z51.065
X-17.12 Y-31.184 Z51.029
X-17.041 Y-31.231 Z51.007
X-16.96 Y-31.279 Z51.
G3 X-16.207 Y-31.5 I0.809 J1.36
G1 X-12.291
X-12.052 Y-31.488
X-11.765 Y-31.462
X-11.439 Y-31.408
X-11.056 Y-31.317
X-10.671 Y-31.195
X-10.209 Y-31.011
X-9.742 Y-30.785
X-9.196 Y-30.469
X-8.642 Y-30.094
X-8.041 Y-29.621
X-7.538 Y-29.161
X-7.331 Y-28.929
X-7.176 Y-28.659
X-7.081 Y-28.363
X-7.049 Y-28.053
G3 X-7.961 Y-27.562 I-0.6 J-0.021
G1 X-12.583 Y-30.388
G3 X-12.291 Y-31.5 I0.313 J-0.512
G1 X-9.245
X-9.006 Y-31.488
X-8.766 Y-31.468
X-8.484 Y-31.424
X-8.205 Y-31.36
X-8.107 Y-31.33
X-7.816 Y-31.205
X-7.557 Y-31.021
X-7.342 Y-30.787
X-7.182 Y-30.514
X-7.082 Y-30.212
X-7.049 Y-29.896
G3 X-7.966 Y-29.408 I-0.6 J-0.021
G1 X-9.542 Y-30.391
G3 X-9.245 Y-31.5 I0.318 J-0.509
G1 X-7.723
X-7.614 Y-31.497
X-7.559 Y-31.49
X-7.505 Y-31.477
X-7.427 Y-31.449
X-7.357 Y-31.413
X-7.288 Y-31.363
X-7.214 Y-31.298
X-7.16 Y-31.232
X-7.129 Y-31.184
X-7.105 Y-31.137
X-7.07 Y-31.042
X-7.063 Y-31.014
X-7.054 Y-30.96
X-7.049 Y-30.905
Y-24.59
X-7.059 Y-24.498
X-7.083 Y-24.409
X-7.121 Y-24.345 Z51.005
X-7.157 Y-24.282 Z51.018
X-7.192 Y-24.221 Z51.041
X-7.254 Y-24.172 Z51.079
X-7.311 Y-24.126 Z51.129
X-7.361 Y-24.085 Z51.188
X-7.414 Y-24.065 Z51.259
X-7.457 Y-24.048 Z51.337
X-7.488 Y-24.036 Z51.421
X-7.507 Y-24.029 Z51.509
X-7.513 Y-24.027 Z51.6
G0 Z59.
X28.052 Y-12.998
Z56.5
S10000
G3 X29.377 Y-12.295 Z56.418 I0.663 J0.351 F1440.
X28.052 Y-12.998 Z56.335 I-0.663 J-0.351
X29.377 Y-12.295 Z56.253 I0.663 J0.351
X28.052 Y-12.998 Z56.171 I-0.663 J-0.351
X29.377 Y-12.295 Z56.089 I0.663 J0.351
X28.052 Y-12.998 Z56.006 I-0.663 J-0.351
X29.377 Y-12.295 Z55.924 I0.663 J0.351
X28.052 Y-12.998 Z55.842 I-0.663 J-0.351
X29.377 Y-12.295 Z55.759 I0.663 J0.351
X28.052 Y-12.998 Z55.677 I-0.663 J-0.351
X29.377 Y-12.295 Z55.595 I0.663 J0.351
X28.052 Y-12.998 Z55.513 I-0.663 J-0.351
X29.377 Y-12.295 Z55.43 I0.663 J0.351
X28.052 Y-12.998 Z55.348 I-0.663 J-0.351
X29.377 Y-12.295 Z55.266 I0.663 J0.351
X28.052 Y-12.998 Z55.184 I-0.663 J-0.351
X29.377 Y-12.295 Z55.101 I0.663 J0.351
X28.052 Y-12.998 Z55.019 I-0.663 J-0.351
X29.377 Y-12.295 Z54.937 I0.663 J0.351
X28.052 Y-12.998 Z54.854 I-0.663 J-0.351
X29.377 Y-12.295 Z54.772 I0.663 J0.351
X28.052 Y-12.998 Z54.69 I-0.663 J-0.351
X29.377 Y-12.295 Z54.608 I0.663 J0.351
X28.052 Y-12.998 Z54.525 I-0.663 J-0.351
X29.377 Y-12.295 Z54.443 I0.663 J0.351
X28.052 Y-12.998 Z54.361 I-0.663 J-0.351
X29.377 Y-12.295 Z54.278 I0.663 J0.351
X28.052 Y-12.998 Z54.196 I-0.663 J-0.351
X29.377 Y-12.295 Z54.114 I0.663 J0.351
X28.052 Y-12.998 Z54.032 I-0.663 J-0.351
X29.377 Y-12.295 Z53.949 I0.663 J0.351
X28.052 Y-12.998 Z53.867 I-0.663 J-0.351
X29.377 Y-12.295 Z53.785 I0.663 J0.351
X28.052 Y-12.998 Z53.702 I-0.663 J-0.351
X29.377 Y-12.295 Z53.62 I0.663 J0.351
X28.052 Y-12.998 Z53.538 I-0.663 J-0.351
X29.377 Y-12.295 Z53.456 I0.663 J0.351
X28.052 Y-12.998 Z53.373 I-0.663 J-0.351
X29.377 Y-12.295 Z53.291 I0.663 J0.351
X28.052 Y-12.998 Z53.209 I-0.663 J-0.351
X29.377 Y-12.295 Z53.127 I0.663 J0.351
X28.052 Y-12.998 Z53.044 I-0.663 J-0.351
X29.377 Y-12.295 Z52.962 I0.663 J0.351
X28.052 Y-12.998 Z52.88 I-0.663 J-0.351
X29.377 Y-12.295 Z52.797 I0.663 J0.351
X28.052 Y-12.998 Z52.715 I-0.663 J-0.351
X29.377 Y-12.295 Z52.633 I0.663 J0.351
X28.052 Y-12.998 Z52.551 I-0.663 J-0.351
X29.377 Y-12.295 Z52.468 I0.663 J0.351
X28.052 Y-12.998 Z52.386 I-0.663 J-0.351
X29.377 Y-12.295 Z52.304 I0.663 J0.351
X28.052 Y-12.998 Z52.221 I-0.663 J-0.351
X29.377 Y-12.295 Z52.139 I0.663 J0.351
X28.052 Y-12.998 Z52.057 I-0.663 J-0.351
X29.377 Y-12.295 Z51.975 I0.663 J0.351
X28.052 Y-12.998 Z51.892 I-0.663 J-0.351
X29.377 Y-12.295 Z51.81 I0.663 J0.351
X28.052 Y-12.998 Z51.728 I-0.663 J-0.351
X29.377 Y-12.295 Z51.645 I0.663 J0.351
X28.052 Y-12.998 Z51.563 I-0.663 J-0.351
X29.377 Y-12.295 Z51.481 I0.663 J0.351
X28.052 Y-12.998 Z51.399 I-0.663 J-0.351
X29.377 Y-12.295 Z51.316 I0.663 J0.351
X28.052 Y-12.998 Z51.234 I-0.663 J-0.351
X29.377 Y-12.295 Z51.152 I0.663 J0.351
X28.052 Y-12.998 Z51.07 I-0.663 J-0.351
X29.464 Y-12.647 Z51. I0.663 J0.351
X27.964 I-0.75
X29.464 I0.75
S15000
G1 X29.5 Y-12.169
X29.518 Y-12.02
X29.496 Y-11.872
X29.444 Y-11.731
X29.366 Y-11.603
X29.268 Y-11.49
X29.153 Y-11.392
X29.026 Y-11.312
X28.89 Y-11.25
X28.746 Y-11.206
X28.599 Y-11.181
X28.449 Y-11.172
X28.299 Y-11.181
X28.151 Y-11.207
X28.007 Y-11.249
X27.869 Y-11.306
X27.736 Y-11.377
X27.612 Y-11.461
X27.497 Y-11.557
X27.392 Y-11.664
X27.298 Y-11.781
X27.216 Y-11.906
X27.146 Y-12.039
X27.088 Y-12.178
X27.044 Y-12.321
X27.014 Y-12.468
X26.997 Y-12.617
X26.994 Y-12.767
X27.004 Y-12.916
X27.027 Y-13.065
X27.064 Y-13.21
X27.113 Y-13.352
X27.175 Y-13.488
X27.249 Y-13.619
X27.333 Y-13.743
X27.428 Y-13.859
X27.533 Y-13.966
X27.647 Y-14.064
X27.769 Y-14.152
X27.897 Y-14.229
X28.032 Y-14.295
X28.172 Y-14.348
X28.316 Y-14.39
X28.463 Y-14.42
X28.612 Y-14.437
X28.762 Y-14.441
X28.912 Y-14.432
X29.061 Y-14.411
X29.207 Y-14.378
X29.35 Y-14.332
X29.488 Y-14.275
X29.621 Y-14.206
X29.749 Y-14.126
X29.868 Y-14.036
X30.012 Y-13.911
X30.146 Y-13.776
X30.261 Y-13.642
X30.367 Y-13.5
X30.46 Y-13.353
X30.538 Y-13.208
X30.608 Y-13.053
X30.663 Y-12.9
X30.708 Y-12.743
X30.741 Y-12.584
X30.762 Y-12.428
X30.772 Y-12.265
X30.77 Y-12.108
X30.756 Y-11.945
X30.732 Y-11.79
X30.695 Y-11.631
X30.648 Y-11.479
X30.588 Y-11.326
X30.519 Y-11.18
X30.438 Y-11.037
X30.346 Y-10.899
X30.245 Y-10.769
X30.131 Y-10.642
X30.011 Y-10.527
X29.878 Y-10.417
X29.738 Y-10.316
X29.592 Y-10.227
X29.433 Y-10.145
X29.271 Y-10.075
X29.104 Y-10.017
X28.927 Y-9.97
X28.749 Y-9.936
X28.568 Y-9.915
X28.38 Y-9.906
X28.193 Y-9.911
X28.007 Y-9.93
X27.817 Y-9.963
X27.629 Y-10.01
X27.447 Y-10.069
X27.265 Y-10.143
X27.087 Y-10.232
X26.916 Y-10.333
X26.752 Y-10.446
X26.594 Y-10.573
X26.444 Y-10.713
X26.304 Y-10.863
X26.176 Y-11.022
X26.057 Y-11.193
X25.95 Y-11.375
X25.856 Y-11.564
X25.776 Y-11.759
X25.71 Y-11.96
X25.658 Y-12.168
X25.621 Y-12.382
X25.599 Y-12.598
X25.593 Y-12.814
X25.602 Y-13.031
X25.628 Y-13.25
X25.669 Y-13.468
X25.726 Y-13.682
X25.798 Y-13.892
X25.886 Y-14.096
X25.988 Y-14.294
X26.106 Y-14.487
X26.238 Y-14.671
X26.382 Y-14.845
X26.539 Y-15.008
X26.707 Y-15.16
X26.886 Y-15.3
X27.077 Y-15.427
X27.277 Y-15.541
X27.485 Y-15.64
X27.699 Y-15.724
X27.918 Y-15.792
X28.142 Y-15.844
X28.371 Y-15.88
X28.603 Y-15.9
X28.836 Y-15.903
X29.074 Y-15.889
X29.315 Y-15.857
X29.558 Y-15.807
X29.8 Y-15.738
X30.04 Y-15.651
X30.277 Y-15.545
X30.507 Y-15.421
X30.73 Y-15.28
X30.943 Y-15.123
X31.145 Y-14.949
X31.335 Y-14.761
X31.511 Y-14.559
X31.673 Y-14.345
X31.819 Y-14.119
X31.948 Y-13.882
X32.061 Y-13.637
X32.155 Y-13.383
X32.231 Y-13.123
X32.289 Y-12.857
X32.327 Y-12.588
X32.345 Y-12.315
X32.344 Y-12.042
X32.324 Y-11.768
X32.283 Y-11.496
X32.223 Y-11.226
X32.143 Y-10.96
X32.044 Y-10.7
X31.925 Y-10.447
X31.789 Y-10.201
X31.634 Y-9.965
X31.461 Y-9.74
X31.272 Y-9.527
X31.067 Y-9.327
X30.848 Y-9.141
X30.613 Y-8.971
X30.366 Y-8.816
X30.107 Y-8.68
X29.837 Y-8.562
X29.558 Y-8.463
X29.271 Y-8.384
X28.977 Y-8.325
X28.678 Y-8.288
X28.374 Y-8.272
X28.069 Y-8.278
X27.763 Y-8.306
X27.458 Y-8.356
X27.155 Y-8.429
X26.857 Y-8.524
X26.565 Y-8.641
X26.28 Y-8.78
X26.004 Y-8.939
X25.739 Y-9.119
X25.487 Y-9.319
X25.248 Y-9.537
X25.025 Y-9.773
X24.818 Y-10.027
X24.629 Y-10.295
X24.459 Y-10.578
X24.309 Y-10.874
X24.18 Y-11.181
X24.074 Y-11.497
X23.99 Y-11.822
X23.929 Y-12.154
X23.893 Y-12.49
X23.881 Y-12.829
X23.893 Y-13.169
X23.93 Y-13.509
X23.991 Y-13.847
X24.077 Y-14.18
X24.187 Y-14.507
X24.321 Y-14.826
X24.477 Y-15.136
X24.657 Y-15.434
X24.858 Y-15.72
X25.079 Y-15.991
X25.32 Y-16.246
X25.579 Y-16.483
X25.855 Y-16.702
X26.147 Y-16.9
X26.453 Y-17.077
X26.772 Y-17.232
X27.103 Y-17.365
X27.444 Y-17.473
X27.794 Y-17.558
X28.152 Y-17.617
X28.516 Y-17.651
X28.755 Y-17.656
X29.126 Y-17.646
X29.498 Y-17.61
X29.868 Y-17.546
X30.236 Y-17.456
X30.598 Y-17.338
X30.953 Y-17.194
X31.299 Y-17.024
X31.632 Y-16.828
X31.953 Y-16.608
X32.258 Y-16.364
X32.545 Y-16.098
X32.814 Y-15.81
X33.062 Y-15.504
X33.288 Y-15.179
X33.49 Y-14.838
X33.668 Y-14.482
X33.82 Y-14.113
X33.946 Y-13.733
X34.044 Y-13.344
X34.114 Y-12.948
X34.155 Y-12.547
X34.168 Y-12.143
X34.151 Y-11.738
X34.105 Y-11.334
X34.03 Y-10.934
X33.925 Y-10.538
X33.792 Y-10.15
X33.631 Y-9.771
X33.443 Y-9.404
X33.227 Y-9.05
X32.986 Y-8.711
X32.72 Y-8.389
X32.431 Y-8.086
X32.119 Y-7.804
X31.786 Y-7.544
X31.434 Y-7.307
X31.064 Y-7.096
X30.679 Y-6.911
X30.279 Y-6.753
X29.867 Y-6.625
X29.446 Y-6.525
X29.016 Y-6.456
X28.58 Y-6.419
X28.141 Y-6.412
X27.701 Y-6.438
X27.261 Y-6.495
X26.825 Y-6.584
X26.395 Y-6.705
X25.973 Y-6.857
X25.561 Y-7.041
X25.161 Y-7.254
X24.777 Y-7.496
X24.409 Y-7.767
X24.06 Y-8.065
X23.733 Y-8.388
X23.429 Y-8.735
X23.149 Y-9.104
X22.896 Y-9.494
X22.671 Y-9.903
X22.475 Y-10.328
X22.31 Y-10.768
X22.177 Y-11.22
X22.076 Y-11.682
X22.009 Y-12.151
X21.975 Y-12.625
X21.976 Y-13.102
X22.011 Y-13.579
X22.081 Y-14.053
X22.185 Y-14.523
X22.323 Y-14.984
X22.494 Y-15.436
X22.698 Y-15.875
X22.933 Y-16.3
X23.199 Y-16.707
X23.494 Y-17.094
X23.817 Y-17.461
X24.166 Y-17.803
X24.54 Y-18.12
X24.937 Y-18.41
X25.355 Y-18.672
X25.792 Y-18.904
X26.241 Y-19.102
X26.714 Y-19.271
X27.199 Y-19.405
X27.695 Y-19.505
X28.199 Y-19.569
X28.708 Y-19.597
X29.22 Y-19.588
X29.733 Y-19.542
X30.242 Y-19.459
X30.747 Y-19.338
X31.243 Y-19.181
X31.729 Y-18.988
X32.202 Y-18.76
X32.658 Y-18.497
X33.096 Y-18.201
X33.512 Y-17.873
X33.905 Y-17.515
X34.273 Y-17.128
X34.612 Y-16.715
X34.922 Y-16.277
X35.2 Y-15.817
X35.444 Y-15.336
X35.654 Y-14.839
X35.828 Y-14.326
X35.965 Y-13.801
X36.063 Y-13.266
X36.124 Y-12.724
X36.144 Y-12.178
X36.128 Y-11.699
X36.075 Y-11.153
X35.983 Y-10.611
X35.852 Y-10.076
X35.682 Y-9.55
X35.473 Y-9.036
X35.228 Y-8.537
X34.947 Y-8.056
X34.63 Y-7.595
X34.281 Y-7.157
X33.899 Y-6.744
X33.488 Y-6.358
X33.048 Y-6.002
X32.582 Y-5.677
X32.093 Y-5.386
X31.582 Y-5.13
X31.052 Y-4.911
X30.506 Y-4.73
X29.946 Y-4.588
X29.376 Y-4.487
X28.798 Y-4.427
X28.215 Y-4.408
X27.63 Y-4.432
X27.046 Y-4.498
X26.467 Y-4.606
X25.895 Y-4.756
X25.333 Y-4.948
X24.785 Y-5.181
X24.253 Y-5.453
X23.741 Y-5.764
X23.251 Y-6.112
X22.786 Y-6.496
X22.348 Y-6.913
X21.94 Y-7.362
X21.565 Y-7.841
X21.224 Y-8.347
X20.92 Y-8.878
X20.654 Y-9.431
X20.428 Y-10.003
X20.243 Y-10.592
X20.101 Y-11.194
X20.002 Y-11.806
X19.948 Y-12.424
X19.938 Y-13.047
X19.974 Y-13.67
X20.054 Y-14.291
X20.179 Y-14.905
X20.348 Y-15.51
X20.561 Y-16.102
X20.817 Y-16.678
X21.114 Y-17.236
X21.451 Y-17.771
X21.826 Y-18.282
X22.238 Y-18.766
X22.685 Y-19.219
X23.164 Y-19.64
X23.673 Y-20.026
X24.21 Y-20.375
X24.774 Y-20.686
X25.361 Y-20.957
X25.967 Y-21.185
X26.591 Y-21.37
X27.229 Y-21.51
X27.877 Y-21.604
X28.533 Y-21.651
X29.192 Y-21.65
X29.852 Y-21.602
X30.509 Y-21.507
X31.16 Y-21.363
X31.801 Y-21.173
X32.428 Y-20.936
X33.039 Y-20.653
X33.629 Y-20.326
X34.196 Y-19.957
X34.736 Y-19.546
X35.247 Y-19.097
X35.725 Y-18.611
X36.167 Y-18.09
X36.572 Y-17.538
X36.937 Y-16.956
X37.259 Y-16.349
X37.538 Y-15.719
X37.7 Y-15.268
X37.9 Y-14.609
X38.051 Y-13.943
X38.156 Y-13.257
X38.211 Y-12.563
X38.215 Y-11.866
X38.17 Y-11.17
X38.074 Y-10.477
X37.928 Y-9.791
X37.733 Y-9.116
X37.489 Y-8.456
X37.198 Y-7.813
X36.86 Y-7.192
X36.477 Y-6.595
X36.051 Y-6.026
X35.585 Y-5.488
X35.079 Y-4.984
X34.537 Y-4.516
X33.962 Y-4.087
X33.355 Y-3.7
X32.72 Y-3.357
X32.06 Y-3.06
X31.379 Y-2.81
X30.68 Y-2.609
X29.966 Y-2.459
X29.241 Y-2.361
X28.508 Y-2.314
X27.773 Y-2.321
X27.037 Y-2.381
X26.306 Y-2.494
X25.583 Y-2.66
X24.871 Y-2.879
X24.175 Y-3.149
X23.499 Y-3.469
X22.846 Y-3.838
X22.22 Y-4.254
X21.623 Y-4.715
X21.06 Y-5.219
X20.534 Y-5.765
X20.047 Y-6.348
X19.602 Y-6.966
X19.202 Y-7.616
X18.849 Y-8.294
X18.545 Y-8.998
X18.292 Y-9.724
X18.092 Y-10.467
X17.945 Y-11.225
X17.853 Y-11.993
X17.817 Y-12.767
X17.837 Y-13.542
X17.913 Y-14.316
X18.044 Y-15.084
X18.231 Y-15.842
X18.472 Y-16.585
X18.767 Y-17.31
X19.114 Y-18.014
X19.511 Y-18.691
X19.957 Y-19.339
X20.449 Y-19.955
X20.985 Y-20.534
X21.563 Y-21.075
X22.18 Y-21.573
X22.832 Y-22.027
X23.518 Y-22.434
X24.233 Y-22.791
X24.973 Y-23.097
X25.736 Y-23.349
X26.518 Y-23.546
X26.989 Y-23.629
X27.79 Y-23.736
X28.598 Y-23.785
X29.411 Y-23.775
X30.224 Y-23.707
X31.031 Y-23.58
X31.83 Y-23.395
X32.616 Y-23.151
X33.384 Y-22.851
X34.131 Y-22.496
X34.851 Y-22.086
X35.542 Y-21.625
X36.199 Y-21.114
X36.819 Y-20.556
X37.399 Y-19.953
X37.934 Y-19.309
X38.423 Y-18.626
X38.857 Y-17.916
X39.247 Y-17.164
X39.579 Y-16.387
X39.856 Y-15.587
X40.074 Y-14.769
X40.233 Y-13.935
X40.332 Y-13.091
X40.37 Y-12.24
X40.346 Y-11.388
X40.261 Y-10.538
X40.114 Y-9.695
X39.907 Y-8.863
X39.64 Y-8.047
X39.314 Y-7.251
X38.931 Y-6.479
X38.493 Y-5.735
X38. Y-5.023
X37.457 Y-4.348
X36.866 Y-3.711
X36.228 Y-3.118
X35.548 Y-2.571
X34.829 Y-2.074
X34.075 Y-1.628
X33.288 Y-1.238
X32.473 Y-0.904
X31.635 Y-0.629
X30.777 Y-0.415
X29.903 Y-0.263
X29.019 Y-0.174
X28.128 Y-0.148
X27.236 Y-0.188
X26.348 Y-0.291
X25.466 Y-0.459
X24.597 Y-0.691
X23.746 Y-0.985
X22.915 Y-1.34
X22.111 Y-1.756
X21.337 Y-2.229
X20.597 Y-2.758
X19.896 Y-3.34
X19.238 Y-3.973
X18.625 Y-4.653
X18.331 Y-5.031
X17.801 Y-5.759
X17.322 Y-6.528
X16.898 Y-7.335
X16.531 Y-8.174
X16.224 Y-9.041
X15.979 Y-9.931
X15.799 Y-10.839
X15.684 Y-11.76
X15.636 Y-12.688
X15.655 Y-13.62
X15.741 Y-14.55
X15.895 Y-15.473
X16.114 Y-16.384
X16.4 Y-17.278
X16.749 Y-18.151
X17.161 Y-18.997
X17.634 Y-19.813
X18.165 Y-20.593
X18.752 Y-21.335
X19.392 Y-22.033
X20.082 Y-22.685
X20.818 Y-23.287
X21.598 Y-23.835
X22.417 Y-24.326
X23.271 Y-24.758
X24.122 Y-25.114
X25.03 Y-25.419
X25.957 Y-25.66
X26.899 Y-25.834
X27.85 Y-25.94
X28.807 Y-25.979
X29.765 Y-25.95
X30.717 Y-25.854
X31.661 Y-25.69
X32.591 Y-25.46
X33.502 Y-25.165
X34.39 Y-24.808
X35.251 Y-24.388
X36.081 Y-23.909
X36.874 Y-23.373
X37.629 Y-22.783
X38.34 Y-22.142
X39.005 Y-21.452
X39.62 Y-20.719
X40.183 Y-19.944
X40.691 Y-19.132
X41.142 Y-18.287
X41.533 Y-17.413
X41.864 Y-16.514
X42.132 Y-15.595
X42.336 Y-14.659
X42.476 Y-13.712
X42.552 Y-12.757
X42.561 Y-11.799
X42.506 Y-10.843
X42.386 Y-9.893
X42.202 Y-8.953
X41.954 Y-8.028
X41.644 Y-7.122
X41.273 Y-6.239
X40.842 Y-5.384
X40.354 Y-4.56
X39.811 Y-3.771
X39.217 Y-3.02
X38.573 Y-2.311
X37.883 Y-1.646
X37.151 Y-1.029
X36.379 Y-0.463
X35.571 Y0.052
X34.731 Y0.511
X33.862 Y0.914
X32.969 Y1.259
X32.054 Y1.544
X31.123 Y1.766
X30.178 Y1.926
X29.226 Y2.022
X28.268 Y2.056
X27.311 Y2.026
X26.358 Y1.935
X25.413 Y1.781
X24.479 Y1.567
X23.561 Y1.293
X22.663 Y0.96
X21.789 Y0.569
X20.943 Y0.121
X20.128 Y-0.382
X19.347 Y-0.936
X18.603 Y-1.54
X17.9 Y-2.19
X17.24 Y-2.884
X16.625 Y-3.618
X16.059 Y-4.39
X15.543 Y-5.197
X15.079 Y-6.035
X14.669 Y-6.901
X14.315 Y-7.79
X14.017 Y-8.701
X13.779 Y-9.628
X13.602 Y-10.57
X13.486 Y-11.52
X13.431 Y-12.476
X13.435 Y-13.434
X13.499 Y-14.389
X13.623 Y-15.339
X13.805 Y-16.279
X14.047 Y-17.206
X14.349 Y-18.115
X14.707 Y-19.003
X15.121 Y-19.867
X15.587 Y-20.703
X16.104 Y-21.51
X16.669 Y-22.283
X17.282 Y-23.019
X17.94 Y-23.714
X18.641 Y-24.367
X19.382 Y-24.974
X20.158 Y-25.535
X20.968 Y-26.047
X21.807 Y-26.508
X22.673 Y-26.917
X23.563 Y-27.27
X24.474 Y-27.566
X25.401 Y-27.806
X26.341 Y-27.989
X27.291 Y-28.114
X28.246 Y-28.183
X29.203 Y-28.194
X30.16 Y-28.146
X31.112 Y-28.039
X32.055 Y-27.873
X32.986 Y-27.651
X33.903 Y-27.373
X34.801 Y-27.042
X35.679 Y-26.658
X36.531 Y-26.22
X37.354 Y-25.731
X38.146 Y-25.193
X38.904 Y-24.607
X39.626 Y-23.978
X40.31 Y-23.307
X40.953 Y-22.598
X41.552 Y-21.851
X42.104 Y-21.068
X42.608 Y-20.254
X43.063 Y-19.411
X43.467 Y-18.543
X43.82 Y-17.652
X44.12 Y-16.743
X44.367 Y-15.818
X44.556 Y-14.879
X44.689 Y-13.93
X44.766 Y-12.976
X44.787 Y-12.018
X44.752 Y-11.061
X44.662 Y-10.108
X44.517 Y-9.161
X44.316 Y-8.225
X44.059 Y-7.302
X43.747 Y-6.397
X43.383 Y-5.511
X42.967 Y-4.648
X42.503 Y-3.811
X41.991 Y-3.001
X41.433 Y-2.223
X40.829 Y-1.48
X40.183 Y-0.773
X39.496 Y-0.105
X38.772 Y0.522
X38.014 Y1.107
X37.224 Y1.648
X36.404 Y2.144
X35.557 Y2.59
X34.685 Y2.986
X33.791 Y3.33
X32.88 Y3.623
X31.952 Y3.863
X31.013 Y4.05
X30.065 Y4.184
X29.11 Y4.262
X28.153 Y4.285
X27.196 Y4.253
X26.242 Y4.166
X25.295 Y4.026
X24.356 Y3.833
X23.43 Y3.589
X22.519 Y3.294
X21.627 Y2.946
X20.757 Y2.547
X19.91 Y2.098
X19.091 Y1.603
X18.3 Y1.063
X17.54 Y0.48
X16.814 Y-0.145
X16.123 Y-0.808
X15.472 Y-1.51
X14.862 Y-2.248
X14.293 Y-3.019
X13.768 Y-3.82
X13.288 Y-4.648
X12.853 Y-5.502
X12.465 Y-6.377
X12.127 Y-7.273
X11.841 Y-8.187
X11.607 Y-9.116
X11.425 Y-10.056
X11.295 Y-11.005
X11.218 Y-11.96
X11.192 Y-12.917
X11.217 Y-13.874
X11.296 Y-14.829
X11.428 Y-15.777
X11.613 Y-16.717
X11.85 Y-17.645
X12.137 Y-18.558
X12.474 Y-19.455
X12.858 Y-20.332
X13.289 Y-21.188
X13.766 Y-22.018
X14.289 Y-22.82
X14.855 Y-23.593
X15.463 Y-24.333
X16.11 Y-25.039
X16.794 Y-25.709
X17.513 Y-26.342
X18.265 Y-26.935
X19.048 Y-27.486
X19.861 Y-27.993
X20.7 Y-28.454
X21.563 Y-28.87
X22.447 Y-29.238
X23.349 Y-29.559
X24.268 Y-29.831
X25.199 Y-30.054
X26.141 Y-30.226
X27.091 Y-30.347
X28.046 Y-30.416
X29.004 Y-30.435
X29.961 Y-30.403
X30.915 Y-30.32
X31.863 Y-30.187
X32.804 Y-30.004
X33.733 Y-29.771
X34.648 Y-29.489
X35.546 Y-29.158
X36.426 Y-28.78
X37.285 Y-28.356
X38.12 Y-27.888
X38.93 Y-27.376
X39.712 Y-26.823
X40.463 Y-26.229
X41.181 Y-25.595
X41.865 Y-24.925
X42.513 Y-24.22
X43.123 Y-23.481
X43.694 Y-22.712
X44.224 Y-21.915
X44.712 Y-21.091
X45.156 Y-20.242
X45.554 Y-19.371
X45.907 Y-18.481
X46.212 Y-17.573
X46.47 Y-16.651
X46.68 Y-15.716
X46.842 Y-14.773
X46.955 Y-13.822
X47.019 Y-12.866
X47.032 Y-11.908
X46.996 Y-10.951
X46.91 Y-9.997
X46.775 Y-9.049
X46.591 Y-8.109
X46.36 Y-7.18
X46.081 Y-6.264
X45.755 Y-5.363
X45.382 Y-4.481
X44.964 Y-3.62
X44.502 Y-2.781
X43.998 Y-1.966
X43.453 Y-1.179
X42.868 Y-0.421
X42.245 Y0.307
X41.587 Y1.002
X40.893 Y1.663
X40.166 Y2.286
X39.409 Y2.872
X39.298 Y2.949
X39.236 Y2.99
X39.171 Y3.028
X39.104 Y3.063
X38.831 Y3.198
X38.613 Y3.306
X38.395 Y3.418
X38.126 Y3.591
X37.96 Y3.703
X37.564 Y3.971
X36.734 Y4.449
X35.876 Y4.876
X34.996 Y5.253
X34.096 Y5.581
X33.181 Y5.862
X32.251 Y6.094
X31.311 Y6.276
X30.363 Y6.409
X29.409 Y6.493
X28.452 Y6.528
X27.494 Y6.516
X26.538 Y6.456
X25.587 Y6.349
X24.641 Y6.195
X23.705 Y5.993
X22.78 Y5.744
X21.869 Y5.449
X20.975 Y5.108
X20.098 Y4.722
X19.241 Y4.294
X18.407 Y3.824
X17.596 Y3.314
X16.812 Y2.765
X16.056 Y2.176
X15.331 Y1.55
X14.639 Y0.889
X13.979 Y0.194
X13.355 Y-0.532
X12.767 Y-1.287
X12.215 Y-2.071
X11.703 Y-2.879
X11.23 Y-3.713
X10.8 Y-4.568
X10.413 Y-5.444
X10.07 Y-6.339
X10.032 Y-6.457
X9.99 Y-6.61
X9.965 Y-6.766
X9.957 Y-6.924
Y-16.867
X9.981 Y-17.346
X10.025 Y-17.956
X10.129 Y-18.674
X10.301 Y-19.454
X10.559 Y-20.324
X10.897 Y-21.22
X11.294 Y-22.092
X11.744 Y-22.937
X12.24 Y-23.756
X12.78 Y-24.547
X13.359 Y-25.31
X13.976 Y-26.043
X14.629 Y-26.743
X15.316 Y-27.411
X16.035 Y-28.043
X16.784 Y-28.64
X17.562 Y-29.199
X18.365 Y-29.72
X19.192 Y-30.203
X20.041 Y-30.645
X20.911 Y-31.047
X21.52 Y-31.294
X21.703 Y-31.354
X21.891 Y-31.391
X22.083 Y-31.403
X33.61
X34.088 Y-31.379
X34.661 Y-31.339
X35.278 Y-31.251
X36.004 Y-31.093
X36.829 Y-30.85
X37.726 Y-30.514
X38.597 Y-30.115
X39.441 Y-29.662
X40.256 Y-29.16
X41.044 Y-28.615
X41.801 Y-28.029
X42.529 Y-27.406
X43.225 Y-26.749
X43.89 Y-26.059
X44.521 Y-25.339
X45.118 Y-24.59
X45.679 Y-23.814
X46.203 Y-23.012
X46.688 Y-22.186
X47.133 Y-21.338
X47.538 Y-20.471
X47.903 Y-19.585
X48.227 Y-18.684
X48.509 Y-17.769
X48.75 Y-16.842
X48.947 Y-15.905
X49.101 Y-14.959
X49.209 Y-14.008
X49.273 Y-13.052
X49.293 Y-12.095
X49.268 Y-11.137
X49.2 Y-10.182
X49.089 Y-9.231
X48.935 Y-8.286
X48.738 Y-7.348
X48.497 Y-6.422
X48.213 Y-5.507
X47.886 Y-4.607
X47.518 Y-3.722
X47.11 Y-2.856
X46.663 Y-2.009
X46.178 Y-1.183
X45.657 Y-0.38
X45.099 Y0.399
X44.507 Y1.151
X43.879 Y1.875
X43.484 Y2.291
X43.251 Y2.49
X42.983 Y2.638
X42.69 Y2.728
X42.385 Y2.757
X42.08 Y2.723
X41.876 Y2.686
X41.319 Y2.643
X41.305 Y2.644
X40.136 Y2.813
X39.918 Y2.845
X39.318 Y2.96
X39.307 Y2.963
X39.104 Y3.063
X39.096 Y3.066
X38.984 Y3.099
X38.874 Y3.137
X38.788 Y3.176
X38.614 Y3.274
X38.219 Y3.495
X38.14 Y3.548
X38.05 Y3.622
X37.964 Y3.7
X37.96 Y3.703
X37.362 Y4.154
X37.348 Y4.166
X36.873 Y4.689
X36.707 Y4.897
X35.871 Y5.985
X35.716 Y6.167
X35.499 Y6.396
X35.231 Y6.639
X34.896 Y6.902
X34.51 Y7.163
X34.025 Y7.442
X33.457 Y7.715
X32.784 Y7.983
X31.974 Y8.238
X31.042 Y8.459
X30.097 Y8.614
X29.144 Y8.71
X28.187 Y8.752
X27.23 Y8.745
X26.274 Y8.689
X25.321 Y8.587
X24.375 Y8.44
X23.436 Y8.249
X22.508 Y8.016
X21.59 Y7.74
X20.686 Y7.424
X19.797 Y7.068
X18.925 Y6.673
X18.071 Y6.239
X17.238 Y5.767
X16.427 Y5.257
X15.64 Y4.712
X14.877 Y4.133
X14.141 Y3.52
X13.433 Y2.876
X12.753 Y2.201
X12.104 Y1.497
X11.486 Y0.765
X10.902 Y0.006
X10.351 Y-0.778
X10.192 Y-1.027
X10.063 Y-1.279
X9.984 Y-1.551
X9.957 Y-1.833
Y-6.924
G3 X10.818 Y-7.464 I0.6
G1 X35.82 Y4.642
G3 X36.155 Y5.253 I-0.261 J0.54
X35.871 Y5.985 I-1.571 J-0.188
G1 X35.221 Y6.832
X34.915 Y7.446
X34.891 Y7.509
X34.851 Y7.628
X34.807 Y7.74
X34.732 Y7.907
X34.641 Y8.077
X34.524 Y8.261
X34.37 Y8.469
X34.19 Y8.678
X33.972 Y8.897
X33.693 Y9.14
X33.386 Y9.371
X33.003 Y9.617
X32.559 Y9.86
X32.02 Y10.106
X31.412 Y10.332
X30.673 Y10.547
X29.806 Y10.733
X28.858 Y10.866
X27.902 Y10.934
X26.945 Y10.944
X25.988 Y10.902
X25.035 Y10.812
X24.087 Y10.677
X23.145 Y10.499
X22.213 Y10.281
X21.29 Y10.024
X20.379 Y9.728
X19.481 Y9.396
X18.597 Y9.027
X17.729 Y8.623
X16.879 Y8.183
X16.047 Y7.708
X15.236 Y7.199
X14.445 Y6.658
X13.678 Y6.086
X12.933 Y5.483
X12.213 Y4.852
X11.519 Y4.192
X10.851 Y3.506
X10.341 Y2.939
X10.177 Y2.719
X10.056 Y2.473
X9.982 Y2.209
X9.957 Y1.936
Y-1.833
G3 X10.775 Y-2.371 I0.6 J0.021
G1 X34.494 Y6.899
G3 X34.851 Y7.628 I-0.218 J0.559
G1 X34.673 Y8.162
X34.604 Y8.379
X34.497 Y8.746
X34.494 Y8.76
X34.499 Y8.934
X34.497 Y9.054
X34.481 Y9.203
X34.453 Y9.35
X34.41 Y9.513
X34.35 Y9.684
X34.271 Y9.867
X34.164 Y10.073
X34.039 Y10.277
X33.874 Y10.506
X33.684 Y10.732
X33.45 Y10.975
X33.17 Y11.226
X32.846 Y11.477
X32.448 Y11.741
X32.007 Y11.99
X31.469 Y12.245
X30.856 Y12.483
X30.158 Y12.697
X29.334 Y12.886
X28.387 Y13.033
X27.433 Y13.111
X26.475 Y13.129
X25.518 Y13.094
X24.564 Y13.011
X23.615 Y12.883
