%
O00003001
(T5  D=6. CR=3. - ZMIN=26.5 - BALL END MILL)
G90 G94 G17
G21
G91
G28 Z0.
G90
(???1 (2))
T5 M6
S15000 M3
G54
G0 X-44.604 Y6.778
G43 Z69. H5
G0 Z53.252
G1 Z52.6 F1440.
G3 X-44.886 Y5.706 I0.081 J-0.595
G1 X-44.881 Y5.702
X-44.805 Y5.643
X-44.793 Y5.634
X-44.629 Y5.489
X-44.618 Y5.478
X-44.464 Y5.317
X-44.461 Y5.314
X-44.325 Y5.149
X-44.3 Y5.114
X-44.213 Y4.985
X-44.135 Y4.849
X-44.12 Y4.82
X-44.04 Y4.656
X-43.976 Y4.491
X-43.97 Y4.473
X-43.928 Y4.327
X-43.891 Y4.162
X-43.865 Y3.998
X-43.851 Y3.833
Y3.668
X-43.862 Y3.504
X-43.883 Y3.339
X-43.916 Y3.175
X-43.962 Y3.01
X-43.97 Y2.986
X-44.023 Y2.846
X-44.095 Y2.681
X-44.135 Y2.602
X-44.183 Y2.517
X-44.289 Y2.352
X-44.3 Y2.336
X-44.411 Y2.188
X-44.464 Y2.124
X-44.553 Y2.023
X-44.629 Y1.945
X-44.718 Y1.858
X-44.793 Y1.79
X-44.905 Y1.694
X-44.958 Y1.651
X-44.997 Y1.62
X-45.014 Y1.606
G3 X-45.116 Y0.764 I0.37 J-0.472
G1 X-45.097 Y0.739
X-43.06 Y-2.163
S10000
Y-2.162 Z52.592
X-43.059 Z52.584
X-43.058 Y-2.16 Z52.576
X-43.057 Y-2.159 Z52.568
X-43.055 Y-2.157 Z52.561
X-43.053 Y-2.154 Z52.553
X-43.05 Y-2.151 Z52.546
X-43.047 Y-2.147 Z52.54
X-43.044 Y-2.143 Z52.533
X-43.04 Y-2.139 Z52.528
X-43.037 Y-2.134 Z52.522
X-43.033 Y-2.129 Z52.517
X-43.029 Y-2.123 Z52.513
X-43.024 Y-2.118 Z52.509
X-43.02 Y-2.112 Z52.506
X-43.015 Y-2.105 Z52.504
X-43.011 Y-2.099 Z52.502
X-43.006 Y-2.092 Z52.501
X-43.002 Y-2.086 Z52.5
G3 X-44.256 Y-1.262 Z52.418 I-0.627 J0.412
X-44.376 Y-1.736 Z52.4 I0.627 J-0.412
G1 X-44.374 Y-1.757
S15000
X-44.34 Y-2.06
G3 X-43.506 Y-2.727 I0.75 J0.084
G1 X-43.477 Y-2.724
X-43.312 Y-2.705
X-43.148 Y-2.69
X-42.983 Y-2.677
X-42.819 Y-2.664
X-42.654 Y-2.652
X-42.49 Y-2.639
X-42.325 Y-2.631
X-41.996 Y-2.616
X-41.832 Y-2.609
X-41.667 Y-2.603
X-41.174 Y-2.597
X-41.009 Y-2.595
X-40.845 Y-2.597
X-40.68 Y-2.6
X-40.516 Y-2.603
X-40.351 Y-2.606
X-40.187 Y-2.612
X-40.022 Y-2.62
X-39.94 Y-2.625
X-39.869 Y-2.628
G3 X-39.326 Y-2.341 I0.031 J0.599
G1 X-37.465 Y0.709
G3 X-37.591 Y1.481 I-0.512 J0.312
G1 X-37.602 Y1.489
X-37.649 Y1.529
X-37.719 Y1.59
X-37.835 Y1.694
X-37.883 Y1.739
X-38.004 Y1.858
X-38.048 Y1.905
X-38.149 Y2.023
X-38.212 Y2.105
X-38.27 Y2.188
X-38.369 Y2.352
X-38.377 Y2.366
X-38.454 Y2.517
X-38.524 Y2.681
X-38.541 Y2.728
X-38.579 Y2.846
X-38.62 Y3.01
X-38.647 Y3.175
X-38.662 Y3.339
X-38.664 Y3.504
X-38.655 Y3.668
X-38.636 Y3.833
X-38.604 Y3.998
X-38.559 Y4.162
X-38.541 Y4.216
X-38.5 Y4.327
X-38.424 Y4.491
X-38.377 Y4.579
X-38.331 Y4.656
X-38.222 Y4.82
X-38.212 Y4.834
X-38.092 Y4.985
X-38.048 Y5.034
X-37.935 Y5.149
X-37.883 Y5.197
X-37.746 Y5.314
X-37.719 Y5.335
X-37.554 Y5.455
X-37.52 Y5.478
X-37.487 Y5.5
X-37.465 Y5.514
G3 X-37.67 Y6.604 I-0.328 J0.502
G0 Z59.
X-32.41 Y1.643
Z52.869
G1 Z52.2 F1440.
G3 X-33.509 Y1.788 I-0.58 J-0.155
G1 X-33.516 Y1.776
X-33.565 Y1.694
X-33.606 Y1.631
X-33.673 Y1.529
X-33.77 Y1.4
X-33.799 Y1.365
X-33.935 Y1.208
X-33.942 Y1.2
X-34.099 Y1.052
X-34.117 Y1.036
X-34.264 Y0.917
X-34.328 Y0.871
X-34.428 Y0.807
X-34.593 Y0.716
X-34.611 Y0.707
X-34.757 Y0.637
X-34.922 Y0.573
X-35.022 Y0.542
X-35.086 Y0.525
X-35.251 Y0.489
X-35.416 Y0.465
X-35.58 Y0.45
X-35.745 Y0.447
X-35.909 Y0.457
X-36.074 Y0.479
X-36.238 Y0.509
X-36.372 Y0.542
X-36.403 Y0.551
X-36.567 Y0.607
X-36.732 Y0.673
X-36.805 Y0.707
X-36.896 Y0.753
X-37.061 Y0.846
X-37.102 Y0.871
X-37.225 Y0.953
X-37.341 Y1.036
X-37.39 Y1.073
X-37.549 Y1.2
X-37.554 Y1.205
X-37.719 Y1.349
X-37.737 Y1.365
X-37.883 Y1.496
X-37.919 Y1.529
X-38.048 Y1.652
X-38.09 Y1.694
X-38.212 Y1.826
X-38.24 Y1.858
X-38.369 Y2.023
X-38.377 Y2.033
X-38.477 Y2.188
X-38.541 Y2.302
X-38.567 Y2.352
X-38.646 Y2.517
X-38.706 Y2.669
X-38.71 Y2.681
X-38.76 Y2.846
X-38.798 Y3.01
X-38.823 Y3.175
X-38.837 Y3.339
X-38.839 Y3.504
X-38.83 Y3.668
X-38.813 Y3.833
X-38.784 Y3.998
X-38.742 Y4.162
X-38.706 Y4.276
X-38.688 Y4.327
X-38.619 Y4.491
X-38.541 Y4.644
X-38.535 Y4.656
X-38.435 Y4.82
X-38.377 Y4.907
X-38.32 Y4.985
X-38.212 Y5.116
X-38.182 Y5.149
X-38.048 Y5.287
X-38.019 Y5.314
X-37.883 Y5.433
X-37.826 Y5.478
X-37.719 Y5.56
X-37.602 Y5.643
X-37.554 Y5.675
X-37.39 Y5.781
X-37.346 Y5.808
X-37.225 Y5.88
X-37.064 Y5.972
X-37.061 Y5.974
X-36.896 Y6.063
X-36.757 Y6.137
X-36.732 Y6.15
X-36.567 Y6.228
X-36.489 Y6.265
X-36.469 Y6.274
X-36.455 Y6.281
G3 X-36.501 Y7.389 I-0.252 J0.544
G0 Z59.
X-38.447 Y5.401
Z53.538
G1 Z52.504 F1440.
X-38.449 Y5.4 Z52.46
X-38.453 Y5.396 Z52.416
X-38.461 Y5.391 Z52.373
X-38.471 Y5.382 Z52.331
X-38.483 Y5.371 Z52.291
X-38.498 Y5.356 Z52.252
X-38.513 Y5.339 Z52.215
X-38.529 Y5.317 Z52.18
X-38.544 Y5.292 Z52.147
X-38.558 Y5.262 Z52.118
X-38.57 Y5.23 Z52.091
X-38.579 Y5.194 Z52.067
X-38.583 Y5.155 Z52.047
X-38.582 Y5.114 Z52.03
X-38.577 Y5.073 Z52.017
X-38.565 Y5.032 Z52.008
X-38.548 Y4.992 Z52.002
X-38.525 Y4.954 Z52.
X-38.523 Y4.958
X-38.504 Y4.985
X-38.379 Y5.149
X-38.377 Y5.152
X-38.232 Y5.314
X-38.212 Y5.334
X-38.061 Y5.478
X-38.048 Y5.49
X-37.883 Y5.626
X-37.862 Y5.643
X-37.719 Y5.749
X-37.635 Y5.808
X-37.554 Y5.862
X-37.39 Y5.969
X-37.384 Y5.972
X-37.225 Y6.07
X-37.113 Y6.137
X-37.061 Y6.167
X-36.896 Y6.26
X-36.82 Y6.301
X-36.732 Y6.347
X-36.567 Y6.432
X-36.5 Y6.466
X-36.403 Y6.515
X-36.238 Y6.592
X-36.151 Y6.63
X-36.074 Y6.664
X-35.909 Y6.733
X-35.758 Y6.795
X-35.745 Y6.8
X-35.662 Y6.831
X-35.621 Y6.846
X-35.599 Y6.853
G3 X-35.528 Y7.959 I-0.193 J0.568
G0 Z59.
X-37.581 Y6.571
Z53.132
G1 Z51.8 F1440.
G3 X-37.696 Y5.925 I0.202 J-0.369
G1 X-37.673 Y5.941
X-37.628 Y5.972
X-37.554 Y6.022
X-37.39 Y6.129
X-37.378 Y6.137
X-37.225 Y6.233
X-37.113 Y6.301
X-37.061 Y6.333
X-36.896 Y6.428
X-36.828 Y6.466
X-36.732 Y6.519
X-36.567 Y6.609
X-36.528 Y6.63
X-36.403 Y6.695
X-36.238 Y6.774
X-36.194 Y6.795
X-36.074 Y6.851
X-35.909 Y6.927
X-35.834 Y6.959
X-35.745 Y6.995
X-35.58 Y7.059
X-35.416 Y7.121
X-35.407 Y7.124
X-35.251 Y7.18
X-35.086 Y7.23
X-34.922 Y7.277
X-34.902 Y7.282
G3 X-34.766 Y8.383 I-0.159 J0.578
G0 Z59.
X-34.761 Y7.519
Z53.186
G1 Z52.3 F1440.
S10000
X-34.757 Y7.52 Z52.232
X-34.744 Y7.523 Z52.153
X-34.72 Y7.529 Z52.077
X-34.686 Y7.538 Z52.005
X-34.644 Y7.548 Z51.939
X-34.593 Y7.561 Z51.878
X-34.543 Y7.573 Z51.832
X-34.488 Y7.585 Z51.792
X-34.428 Y7.599 Z51.758
X-34.344 Y7.618 Z51.725
X-34.264 Y7.635 Z51.707
X-34.243 Y7.639 Z51.704
X-34.233 Y7.641 Z51.703
X-34.243 Y7.639 Z51.702
X-34.264 Y7.635 Z51.701
X-34.269 Y7.634
X-34.344 Y7.618 Z51.698
X-34.428 Y7.599 Z51.695
X-34.593 Y7.561 Z51.689
X-34.757 Y7.52 Z51.683
X-34.922 Y7.469 Z51.677
X-34.971 Y7.453 Z51.675
X-35.086 Y7.415 Z51.671
X-35.251 Y7.359 Z51.665
X-35.416 Y7.3 Z51.659
X-35.444 Y7.288 Z51.658
X-35.58 Y7.232 Z51.653
X-35.745 Y7.162 Z51.647
X-35.834 Y7.124 Z51.643
X-35.909 Y7.091 Z51.64
X-36.074 Y7.014 Z51.634
X-36.183 Y6.959 Z51.63
X-36.238 Y6.931 Z51.627
X-36.403 Y6.847 Z51.621
X-36.504 Y6.795 Z51.617
X-36.567 Y6.761 Z51.615
X-36.732 Y6.667 Z51.608
X-36.796 Y6.63 Z51.605
X-36.896 Y6.571 Z51.601
X-36.919 Y6.558 Z51.6
X-36.924 Y6.555
X-36.937 Y6.547
S15000
X-36.924 Y6.555
X-36.896 Y6.571
X-36.796 Y6.63
X-36.732 Y6.667
X-36.567 Y6.761
X-36.504 Y6.795
X-36.403 Y6.847
X-36.238 Y6.931
X-36.183 Y6.959
X-36.074 Y7.014
X-35.909 Y7.091
X-35.834 Y7.124
X-35.745 Y7.162
X-35.58 Y7.232
X-35.444 Y7.288
X-35.416 Y7.3
X-35.251 Y7.359
X-35.086 Y7.415
X-34.971 Y7.453
X-34.922 Y7.469
X-34.757 Y7.52
X-34.593 Y7.561
X-34.428 Y7.599
X-34.344 Y7.618
X-34.264 Y7.635
X-34.243 Y7.639
X-34.233 Y7.641
G3 X-34.024 Y8.73 I-0.121 J0.588
G0 Z59.
X-33.83 Y7.901
Z52.972
G1 Z52.1 F1440.
S10000
X-33.823 Y7.902 Z52.011
X-33.803 Y7.905 Z51.923
X-33.77 Y7.91 Z51.839
X-33.726 Y7.916 Z51.762
X-33.671 Y7.924 Z51.692
X-33.606 Y7.933 Z51.631
X-33.527 Y7.939 Z51.578
X-33.441 Y7.945 Z51.538
X-33.408 Y7.947 Z51.527
X-33.387 Y7.948 Z51.521
X-33.408 Y7.947 Z51.516
X-33.441 Y7.945 Z51.509
X-33.521 Y7.939 Z51.501
X-33.606 Y7.933 Z51.498
X-33.77 Y7.91 Z51.492
X-33.935 Y7.884 Z51.486
X-34.099 Y7.856 Z51.48
X-34.264 Y7.824 Z51.474
X-34.427 Y7.782 Z51.469
X-34.428
X-34.593 Y7.737 Z51.463
X-34.757 Y7.689 Z51.457
X-34.922 Y7.639 Z51.451
X-34.983 Y7.618 Z51.448
X-35.086 Y7.579 Z51.444
X-35.251 Y7.518 Z51.438
X-35.416 Y7.454 Z51.432
X-35.419 Y7.453
X-35.58 Y7.386 Z51.426
X-35.745 Y7.311 Z51.42
X-35.793 Y7.288 Z51.418
X-35.909 Y7.234 Z51.413
X-36.074 Y7.156 Z51.407
X-36.138 Y7.124 Z51.404
X-36.238 Y7.071 Z51.4
X-36.241 Y7.069
X-36.26 Y7.059
S15000
X-36.238 Y7.071
X-36.138 Y7.124
X-36.074 Y7.156
X-35.909 Y7.234
X-35.793 Y7.288
X-35.745 Y7.311
X-35.58 Y7.386
X-35.419 Y7.453
X-35.416 Y7.454
X-35.251 Y7.518
X-35.086 Y7.579
X-34.983 Y7.618
X-34.922 Y7.639
X-34.757 Y7.689
X-34.593 Y7.737
X-34.428 Y7.782
X-34.427
X-34.264 Y7.824
X-34.099 Y7.856
X-33.935 Y7.884
X-33.77 Y7.91
X-33.606 Y7.933
X-33.441 Y7.945
X-33.408 Y7.947
X-33.387 Y7.948
G3 X-33.334 Y9.142 I-0.027 J0.599
G1 X-34.45 Y9.292
S10000
X-34.451 Z51.392
X-34.452 Z51.384
X-34.453 Y9.293 Z51.376
X-34.455 Z51.368
X-34.458 Y9.294 Z51.361
X-34.461 Y9.295 Z51.353
X-34.465 Y9.297 Z51.346
X-34.47 Y9.298 Z51.34
X-34.474 Y9.3 Z51.333
X-34.48 Y9.301 Z51.328
X-34.486 Y9.303 Z51.322
X-34.492 Y9.304 Z51.317
X-34.499 Y9.306 Z51.313
X-34.506 Y9.307 Z51.309
X-34.513 Y9.309 Z51.306
X-34.521 Y9.31 Z51.304
X-34.528 Y9.312 Z51.302
X-34.536 Y9.313 Z51.301
X-34.544 Y9.314 Z51.3
G3 X-34.634 Y8.512 Z51.256 I-0.045 J-0.401
X-34.544 Y9.314 Z51.211 I0.045 J0.401
X-34.842 Y9.227 Z51.2 I-0.045 J-0.401
G1 X-34.858 Y9.213
S15000
X-35.592 Y8.555
G3 X-35.649 Y7.489 I0.504 J-0.562
G1 X-35.642 Y7.493
X-35.621 Y7.502
X-35.58 Y7.52
X-35.416 Y7.59
X-35.351 Y7.618
X-35.251 Y7.659
X-35.086 Y7.726
X-34.932 Y7.782
X-34.922 Y7.785
X-34.757 Y7.84
X-34.593 Y7.893
X-34.428 Y7.944
X-34.42 Y7.947
X-34.264 Y7.986
X-34.099 Y8.023
X-33.935 Y8.059
X-33.77 Y8.092
X-33.634 Y8.111
X-33.606 Y8.114
X-33.441 Y8.132
X-33.277 Y8.147
X-33.112 Y8.16
X-32.948 Y8.162
X-32.783 Y8.156
X-32.701 Y8.152
X-32.678 Y8.151
G3 X-32.199 Y9.151 I0.033 J0.599
G0 Z59.
X-35.029 Y7.964
Z52.8
G1 Z51.042 F1440.
X-35.034 Y7.961 Z51.021
X-35.046 Y7.951 Z51.006
X-35.062 Y7.939 Z51.
X-35.078 Y7.921
X-35.086 Y7.898
X-35.084 Y7.874
X-35.074 Y7.852
X-35.045 Y7.863
X-35.004 Y7.879
X-34.922 Y7.909
X-34.82 Y7.947
X-34.757 Y7.969
X-34.593 Y8.028
X-34.428 Y8.078
X-34.309 Y8.111
X-34.264 Y8.123
X-34.099 Y8.167
X-33.935 Y8.208
X-33.77 Y8.241
X-33.606 Y8.267
X-33.549 Y8.276
X-33.441 Y8.291
X-33.277 Y8.314
X-33.112 Y8.327
X-32.948 Y8.333
X-32.783 Y8.335
X-32.619
X-32.454 Y8.328
X-32.29 Y8.31
X-32.125 Y8.289
X-32.036 Y8.276
X-31.998 Y8.27
X-31.987 Y8.268
G3 X-31.407 Y9.213 I0.094 J0.593
G0 Z59.
X-34.497 Y8.643
Z52.255
G1 Z51.335 F1440.
X-34.498 Y8.641 Z51.291
X-34.503 Y8.638 Z51.247
X-34.509 Y8.632 Z51.204
X-34.518 Y8.623 Z51.161
X-34.529 Y8.611 Z51.12
X-34.542 Y8.596 Z51.08
X-34.555 Y8.578 Z51.042
X-34.569 Y8.556 Z51.006
X-34.582 Y8.531 Z50.973
X-34.594 Y8.502 Z50.941
X-34.604 Y8.47 Z50.913
X-34.611 Y8.434 Z50.887
X-34.614 Y8.397 Z50.864
X-34.613 Y8.357 Z50.845
X-34.607 Y8.316 Z50.829
X-34.596 Y8.275 Z50.816
X-34.58 Y8.235 Z50.807
X-34.558 Y8.197 Z50.802
X-34.531 Y8.162 Z50.8
X-34.511 Y8.169
X-34.428 Y8.194
X-34.264 Y8.245
X-34.159 Y8.276
X-34.099 Y8.293
X-33.935 Y8.335
X-33.77 Y8.37
X-33.606 Y8.402
X-33.441 Y8.432
X-33.395 Y8.44
X-33.277 Y8.456
X-33.112 Y8.471
X-32.948 Y8.483
X-32.783 Y8.493
X-32.619 Y8.497
X-32.454 Y8.491
X-32.29 Y8.481
X-32.125 Y8.468
X-31.961 Y8.45
X-31.894 Y8.44
X-31.796 Y8.422
X-31.632 Y8.388
X-31.467 Y8.35
X-31.303 Y8.308
X-31.202 Y8.276
X-31.138 Y8.253
X-31.116 Y8.245
G3 X-30.366 Y9.061 I0.206 J0.563
G0 Z59.
X-33.924 Y8.6
Z52.399
G1 Z50.664 F1440.
X-33.927 Y8.597 Z50.64
X-33.938 Y8.589 Z50.619
X-33.955 Y8.576 Z50.605
X-33.975 Y8.561 Z50.6
X-33.998 Y8.534
X-34.01 Y8.5
X-34.008 Y8.464
X-33.992 Y8.431
X-33.979 Y8.435
X-33.957 Y8.44
X-33.935 Y8.446
X-33.77 Y8.485
X-33.606 Y8.523
X-33.441 Y8.556
X-33.277 Y8.579
X-33.112 Y8.599
X-33.06 Y8.605
X-32.948 Y8.617
X-32.783 Y8.631
X-32.619 Y8.635
X-32.454 Y8.634
X-32.29 Y8.631
X-32.125 Y8.625
X-31.961 Y8.61
X-31.923 Y8.605
X-31.796 Y8.587
X-31.632 Y8.562
X-31.467 Y8.534
X-31.303 Y8.496
X-31.138 Y8.45
X-31.106 Y8.44
X-30.974 Y8.4
X-30.809 Y8.346
X-30.644 Y8.281
X-30.633 Y8.276
X-30.48 Y8.206
X-30.465 Y8.199
X-30.463 Y8.198
G3 X-29.641 Y8.941 I0.257 J0.542
G0 Z59.
X-31.827 Y2.145
Z52.687
G1 Z52. F1440.
G3 X-32.907 Y2.393 I-0.592 J-0.1
G1 X-32.936 Y2.352
X-32.948 Y2.336
X-33.049 Y2.188
X-33.112 Y2.091
X-33.155 Y2.023
X-33.253 Y1.858
X-33.277 Y1.818
X-33.35 Y1.694
X-33.441 Y1.548
X-33.454 Y1.529
X-33.569 Y1.365
X-33.606 Y1.317
X-33.703 Y1.2
X-33.77 Y1.124
X-33.855 Y1.036
X-33.935 Y0.961
X-34.039 Y0.871
X-34.099 Y0.822
X-34.259 Y0.707
X-34.264 Y0.703
X-34.428 Y0.604
X-34.55 Y0.542
X-34.593 Y0.522
X-34.757 Y0.45
X-34.922 Y0.391
X-34.968 Y0.377
X-35.086 Y0.347
X-35.251 Y0.314
X-35.416 Y0.293
X-35.58 Y0.28
X-35.745 Y0.277
X-35.909 Y0.286
X-36.074 Y0.307
X-36.238 Y0.337
X-36.403 Y0.376
X-36.407 Y0.377
X-36.567 Y0.428
X-36.732 Y0.494
X-36.843 Y0.542
X-36.896 Y0.567
X-37.061 Y0.656
X-37.145 Y0.707
X-37.225 Y0.756
X-37.388 Y0.871
X-37.39 Y0.872
X-37.554 Y0.999
X-37.598 Y1.036
X-37.719 Y1.139
X-37.786 Y1.2
X-37.883 Y1.289
X-37.965 Y1.365
X-37.979 Y1.378
X-38.004 Y1.401 Z52.005
X-38.026 Y1.422 Z52.021
X-38.043 Y1.438 Z52.045
X-38.054 Y1.449 Z52.075
X-38.058 Y1.452 Z52.109
G0 Z59.
X-31.318 Y2.433
Z52.478
G1 Z51.8 F1440.
G3 X-32.38 Y2.753 I-0.597 J-0.06
G1 X-32.388 Y2.743
X-32.405 Y2.722
X-32.438 Y2.681
X-32.454 Y2.662
X-32.572 Y2.517
X-32.619 Y2.459
X-32.704 Y2.352
X-32.783 Y2.252
X-32.833 Y2.188
X-32.948 Y2.033
X-32.955 Y2.023
X-33.066 Y1.858
X-33.112 Y1.785
X-33.168 Y1.694
X-33.272 Y1.529
X-33.277 Y1.522
X-33.384 Y1.365
X-33.441 Y1.285
X-33.507 Y1.2
X-33.606 Y1.085
X-33.65 Y1.036
X-33.77 Y0.911
X-33.813 Y0.871
X-33.935 Y0.766
X-34.009 Y0.707
X-34.099 Y0.639
X-34.244 Y0.542
X-34.264 Y0.53
X-34.428 Y0.439
X-34.558 Y0.377
X-34.593 Y0.362
X-34.757 Y0.295
X-34.922 Y0.241
X-35.025 Y0.213
X-35.086 Y0.199
X-35.251 Y0.168
X-35.416 Y0.149
X-35.58 Y0.137
X-35.745 Y0.135
X-35.909 Y0.143
X-36.074 Y0.163
X-36.238 Y0.193
X-36.328 Y0.213
X-36.403 Y0.231
X-36.567 Y0.28
X-36.732 Y0.341
X-36.815 Y0.377
X-36.855 Y0.396
X-36.876 Y0.405
X-36.886 Y0.41
X-36.894 Y0.413
X-36.928 Y0.429 Z51.808
X-36.957 Y0.442 Z51.829
X-36.977 Y0.451 Z51.861
X-36.984 Y0.454 Z51.899
G0 Z59.
X-30.808 Y2.718
Z52.278
G1 Z51.6 F1440.
G3 X-31.862 Y3.063 I-0.598 J-0.045
G1 X-31.865 Y3.059
X-31.879 Y3.043
X-31.908 Y3.01
X-31.961 Y2.949
X-32.052 Y2.846
X-32.125 Y2.764
X-32.198 Y2.681
X-32.29 Y2.579
X-32.346 Y2.517
X-32.454 Y2.394
X-32.492 Y2.352
X-32.619 Y2.207
X-32.635 Y2.188
X-32.773 Y2.023
X-32.783 Y2.009
X-32.9 Y1.858
X-32.948 Y1.791
X-33.013 Y1.694
X-33.119 Y1.529
X-33.228 Y1.365
X-33.277 Y1.296
X-33.349 Y1.2
X-33.441 Y1.084
X-33.483 Y1.036
X-33.606 Y0.902
X-33.636 Y0.871
X-33.77 Y0.744
X-33.814 Y0.707
X-33.935 Y0.61
X-34.026 Y0.542
X-34.099 Y0.491
X-34.264 Y0.389
X-34.284 Y0.377
X-34.428 Y0.303
X-34.593 Y0.231
X-34.638 Y0.213
X-34.757 Y0.168
X-34.922 Y0.116
X-35.086 Y0.076
X-35.241 Y0.048
X-35.251 Y0.047
X-35.416 Y0.029
X-35.58 Y0.019
X-35.745 Y0.017
X-35.909 Y0.025
X-35.918 Y0.026
X-36.009 Y0.033 Z51.634
X-36.093 Y0.04 Z51.682
X-36.168 Y0.046 Z51.743
X-36.232 Y0.052 Z51.815
X-36.284 Y0.056 Z51.897
X-36.322 Y0.059 Z51.986
X-36.346 Y0.061 Z52.081
X-36.353 Y0.062 Z52.177
G0 Z59.
X-30.305 Y2.988
Z52.104
G1 Z51.4 F1440.
G3 X-31.355 Y3.343 I-0.599 J-0.04
G1 X-31.358 Y3.339
X-31.467 Y3.217
X-31.505 Y3.175
X-31.632 Y3.038
X-31.657 Y3.01
X-31.796 Y2.863
X-31.813 Y2.846
X-31.961 Y2.693
X-31.973 Y2.681
X-32.125 Y2.525
X-32.133 Y2.517
X-32.29 Y2.355
X-32.293 Y2.352
X-32.45 Y2.188
X-32.454 Y2.183
X-32.602 Y2.023
X-32.619 Y2.004
X-32.745 Y1.858
X-32.783 Y1.812
X-32.874 Y1.694
X-32.948 Y1.589
X-32.987 Y1.529
X-33.098 Y1.365
X-33.112 Y1.344
X-33.215 Y1.2
X-33.277 Y1.12
X-33.344 Y1.036
X-33.441 Y0.924
X-33.491 Y0.871
X-33.606 Y0.754
X-33.656 Y0.707
X-33.77 Y0.607
X-33.853 Y0.542
X-33.935 Y0.481
X-34.085 Y0.377
X-34.099 Y0.368
X-34.264 Y0.272
X-34.379 Y0.213
X-34.428 Y0.19
X-34.593 Y0.121
X-34.757 Y0.061
X-34.796 Y0.048
X-34.922 Y0.011
X-34.972 Y-0.002
X-34.995 Y-0.007
X-35.006 Y-0.01
X-35.013 Y-0.011
X-35.1 Y-0.031 Z51.434
X-35.181 Y-0.05 Z51.483
X-35.254 Y-0.067 Z51.544
X-35.316 Y-0.082 Z51.616
X-35.366 Y-0.093 Z51.698
X-35.403 Y-0.102 Z51.786
X-35.425 Y-0.107 Z51.88
X-35.432 Y-0.109 Z51.976
G0 Z59.
X-29.959 Y3.019
Z51.992
G1 Z51.2 F1440.
G3 X-30.981 Y3.448 I-0.6 J0.003
G1 X-30.988 Y3.441
X-31.003 Y3.427
X-31.032 Y3.398
X-31.091 Y3.339
X-31.138 Y3.293
X-31.255 Y3.175
X-31.303 Y3.127
X-31.419 Y3.01
X-31.467 Y2.963
X-31.588 Y2.846
X-31.632 Y2.803
X-31.758 Y2.681
X-31.796 Y2.645
X-31.931 Y2.517
X-31.961 Y2.489
X-32.104 Y2.352
X-32.125 Y2.332
X-32.276 Y2.188
X-32.29 Y2.174
X-32.442 Y2.023
X-32.454 Y2.01
X-32.6 Y1.858
X-32.619 Y1.838
X-32.746 Y1.694
X-32.783 Y1.648
X-32.873 Y1.529
X-32.948 Y1.421
X-32.986 Y1.365
X-33.103 Y1.2
X-33.112 Y1.187
X-33.23 Y1.036
X-33.277 Y0.978
X-33.369 Y0.871
X-33.441 Y0.795
X-33.53 Y0.707
X-33.606 Y0.634
X-33.712 Y0.542
X-33.77 Y0.495
X-33.932 Y0.377
X-33.935 Y0.375
X-34.099 Y0.267
X-34.134 Y0.247
X-34.151 Y0.237
X-34.158 Y0.232
X-34.165 Y0.229
G3 X-33.243 Y-0.387 I0.589 J-0.117
G0 Z59.
X-30.018 Y2.84
Z51.899
G1 Z51. F1440.
G3 X-30.854 Y3.303 I-0.523 J0.042
G1 X-30.86 Y3.298
X-30.871 Y3.291
X-30.891 Y3.276
X-30.974 Y3.213
X-31.017 Y3.175
X-31.138 Y3.068
X-31.201 Y3.01
X-31.303 Y2.918
X-31.382 Y2.846
X-31.467 Y2.769
X-31.565 Y2.681
X-31.632 Y2.621
X-31.749 Y2.517
X-31.796 Y2.475
X-31.935 Y2.352
X-31.961 Y2.329
X-32.118 Y2.188
X-32.29 Y2.031
X-32.298 Y2.023
X-32.454 Y1.875
X-32.471 Y1.858
X-32.619 Y1.709
X-32.633 Y1.694
X-32.707 Y1.612
X-32.776 Y1.529
X-32.783 Y1.52
X-32.897 Y1.365
X-32.948 Y1.293
X-33.014 Y1.2
X-33.112 Y1.069
X-33.139 Y1.036
X-33.276 Y0.871
X-33.277 Y0.87
X-33.351 Y0.788
X-33.371 Y0.768
X-33.378 Y0.76
X-33.379 Y0.759
X-33.377 Y0.751
X-33.37 Y0.747
X-33.297 Y0.739 Z51.006
X-33.226 Y0.731 Z51.025
X-33.16 Y0.724 Z51.057
X-33.1 Y0.718 Z51.099
X-33.048 Y0.712 Z51.151
X-33.006 Y0.707 Z51.211
X-32.975 Y0.704 Z51.278
X-32.956 Y0.702 Z51.349
X-32.95 Y0.701 Z51.423
G0 Z59.
X-29.978 Y2.336
Z51.499
G1 Z50.8 F1440.
G3 X-30.738 Y3.144 I-0.547 J0.246
G1 X-30.743 Y3.142
X-30.752 Y3.138
X-30.771 Y3.129
X-30.809 Y3.113
X-30.85 Y3.094
X-30.891 Y3.072
X-30.974 Y3.018
X-30.984 Y3.01
X-31.138 Y2.887
X-31.187 Y2.846
X-31.303 Y2.749
X-31.383 Y2.681
X-31.467 Y2.611
X-31.58 Y2.517
X-31.632 Y2.473
X-31.777 Y2.352
X-31.796 Y2.336
X-31.961 Y2.199
X-31.974 Y2.188
X-32.125 Y2.059
X-32.166 Y2.023
X-32.29 Y1.916
X-32.354 Y1.858
X-32.454 Y1.766
X-32.531 Y1.694
X-32.619 Y1.606
X-32.646 Y1.577
G0 Z59.
X-29.763 Y2.155
Z51.284
G1 Z50.6 F1440.
G3 X-30.444 Y3.03 I-0.522 J0.297
G1 X-30.459 Y3.026
X-30.48 Y3.02
X-30.511 Y3.01
X-30.644 Y2.972
X-30.809 Y2.923
X-30.891 Y2.895
X-30.932 Y2.878
X-30.935 Y2.877
X-30.953 Y2.867
X-30.974 Y2.855
X-30.99 Y2.846
X-31.138 Y2.737
X-31.211 Y2.681
X-31.303 Y2.609
X-31.42 Y2.517
X-31.467 Y2.48
X-31.632 Y2.351
X-31.796 Y2.222
X-31.84 Y2.188
X-31.961 Y2.092
X-32.004 Y2.058
X-32.009 Y2.053
G3 X-31.005 Y1.585 I0.599 J-0.026
G0 Z59.
X-29.43 Y2.014
Z51.078
G1 Z50.4 F1440.
G3 X-30.074 Y2.916 I-0.509 J0.318
G1 X-30.089 Y2.913
X-30.11 Y2.908
X-30.151 Y2.899
X-30.315 Y2.865
X-30.405 Y2.846
X-30.48 Y2.83
X-30.644 Y2.796
X-30.809 Y2.761
X-30.974 Y2.718
X-30.982 Y2.716
X-30.984 Y2.715
X-30.987 Y2.714
X-31.008 Y2.702
X-31.019 Y2.697
X-31.022 Y2.695
X-31.043 Y2.681
X-31.138 Y2.617
X-31.277 Y2.517
X-31.303 Y2.497
X-31.378 Y2.441
X-31.439 Y2.397
X-31.452 Y2.387
X-31.471 Y2.373 Z50.405
X-31.487 Y2.362 Z50.418
X-31.498 Y2.354 Z50.438
X-31.502 Y2.351 Z50.462
G0 Z59.
X-29.096 Y1.87
Z50.883
G1 Z50.2 F1440.
G3 X-29.707 Y2.795 I-0.497 J0.336
G1 X-29.719 Y2.793
X-29.74 Y2.789
X-29.822 Y2.774
X-29.986 Y2.743
X-30.151 Y2.715
X-30.315 Y2.691
X-30.388 Y2.681
X-30.48 Y2.669
X-30.644 Y2.645
X-30.809 Y2.62
X-30.864 Y2.612
X-30.89 Y2.608
X-30.91 Y2.604
X-30.916 Y2.603
G3 X-30.071 Y2.063 I0.6 J0.008
G0 Z59.
X-28.811 Y1.706
Z50.699
G1 Z50. F1440.
G3 X-29.39 Y2.651 I-0.485 J0.353
G1 X-29.411 Y2.648
X-29.493 Y2.635
X-29.657 Y2.613
X-29.822 Y2.593
X-29.986 Y2.575
X-30.151 Y2.556
X-30.315 Y2.539
X-30.377 Y2.534
X-30.408 Y2.531
X-30.424 Y2.53
X-30.437 Y2.529
X-30.433 Y2.513
X-30.422 Y2.502
X-30.407 Y2.497
G0 Z59.
X-28.583 Y1.502
Z50.521
G1 Z49.8 F1440.
G3 X-29.1 Y2.484 I-0.461 J0.384
G1 X-29.123 Y2.481
X-29.164 Y2.478
X-29.328 Y2.466
X-29.493 Y2.453
X-29.657 Y2.442
X-29.822 Y2.433
X-29.891 Y2.428
X-29.925 Y2.426
X-29.941
X-29.956 Y2.425
G3 X-29.145 Y1.844 I0.6 J-0.02
G0 Z59.
X-28.663 Y1.852
Z50.809
G1 Z49.6 F1440.
G3 X-28.926 Y2.289 I-0.267 J0.137
G1 X-28.938
X-28.958
X-28.999 Y2.29
X-29.164 Y2.293
X-29.328 Y2.295
X-29.493
X-29.509
X-29.523 Y2.294
X-29.516 Y2.257
X-29.495 Y2.224
X-29.463 Y2.203
X-29.426 Y2.195
G0 Z59.
X-28.286 Y1.369
Z50.433
G1 Z49.4 F1440.
G3 X-28.799 Y2.073 I-0.59 J0.109
G1 X-28.814 Y2.075
X-28.835 Y2.077
X-28.999 Y2.1
X-29.046 Y2.106
X-29.068 Y2.109
X-29.085 Y2.111
X-29.088
X-29.172 Y2.122 Z49.448
X-29.247 Y2.132 Z49.509
X-29.311 Y2.14 Z49.582
X-29.363 Y2.147 Z49.663
X-29.4 Y2.152 Z49.753
X-29.424 Y2.155 Z49.847
X-29.431 Y2.156 Z49.943
G0 Z59.
X-26.809 Y-11.543
Z47.473
G1 Z46.8 F1440.
G3 X-27.788 Y-11.023 I-0.597 J0.057
G1 X-27.789 Y-11.025
X-27.848 Y-11.072
X-27.934 Y-11.141
X-28.012 Y-11.202
X-28.021 Y-11.209
G3 X-27.729 Y-12.278 I0.368 J-0.474
G0 Z59.
X-27.763 Y-12.304
Z47.472
G1 Z46.8 F1440.
G3 X-28.708 Y-11.724 I-0.593 J0.095
G1 X-29.066 Y-11.983
G3 X-28.808 Y-13.062 I0.352 J-0.486
G0 Z59.
X-55.087 Y-12.942
Z47.469
G1 Z46.8 F1440.
G3 X-54.832 Y-11.863 I-0.096 J0.592
G1 X-54.84 Y-11.857
X-54.851 Y-11.849
X-55.281 Y-11.534
X-55.302 Y-11.519
X-55.311 Y-11.513
G3 X-56.261 Y-12.083 I-0.357 J-0.482
G0 Z59.
X-56.252 Y-12.088
Z47.473
G1 Z46.8 F1440.
G3 X-55.952 Y-11.021 I-0.071 J0.596
G1 X-55.96 Y-11.015
X-55.98 Y-10.999
X-56.008 Y-10.976
X-56.145 Y-10.865
X-56.177 Y-10.839
X-56.192 Y-10.825
X-56.194 Y-10.824
G3 X-57.182 Y-11.328 I-0.389 J-0.457
G0 Z59.
X-42.278 Y-16.531
Z48.066
G1 Z47.4 F1440.
G3 X-42.666 Y-15.492 I-0.409 J0.439
G1 X-42.675
X-42.695 Y-15.491
X-42.737 Y-15.489
X-43.477 Y-15.45
X-43.641 Y-15.438
X-43.69 Y-15.433
G3 X-44.343 Y-16.009 I-0.053 J-0.598
X-43.734 Y-16.631 I0.6 J-0.022
G1 X-39.283 Y-16.562
G3 X-38.693 Y-15.929 I-0.009 J0.6
X-39.35 Y-15.365 I-0.599 J-0.033
G1 X-40.022 Y-15.429
X-40.104 Y-15.437
X-40.113
G3 X-40.657 Y-16.166 I0.042 J-0.599
X-39.855 Y-16.595 I0.586 J0.13
G1 X-38.07 Y-15.907
S10000
Z47.392
X-38.071 Y-15.908 Z47.384
X-38.072 Y-15.909 Z47.376
X-38.073 Y-15.911 Z47.368
X-38.075 Y-15.913 Z47.361
X-38.077 Y-15.916 Z47.353
X-38.08 Y-15.919 Z47.346
X-38.082 Y-15.923 Z47.34
X-38.085 Y-15.927 Z47.333
X-38.088 Y-15.932 Z47.328
X-38.092 Y-15.937 Z47.322
X-38.096 Y-15.942 Z47.317
X-38.099 Y-15.948 Z47.313
X-38.103 Y-15.954 Z47.309
X-38.107 Y-15.96 Z47.306
X-38.111 Y-15.967 Z47.304
X-38.115 Y-15.973 Z47.302
X-38.12 Y-15.98 Z47.301
X-38.124 Y-15.987 Z47.3
G3 X-36.823 Y-16.734 Z47.218 I0.65 J-0.373
X-36.731 Y-16.254 Z47.2 I-0.65 J0.373
G1 X-36.734 Y-16.233
S15000
X-36.786 Y-15.933
G3 X-37.658 Y-15.317 I-0.744 J-0.128
G1 X-37.678 Y-15.32
X-37.719 Y-15.327
X-37.883 Y-15.355
X-38.258 Y-15.419
X-38.377 Y-15.439
X-38.541 Y-15.461
X-39.199 Y-15.549
X-39.364 Y-15.566
X-40.022 Y-15.63
X-40.104 Y-15.637
X-40.115 Y-15.638
X-40.122
G3 X-40.533 Y-15.843 I0.042 J-0.599
G2 X-40.843 Y-15.989 I-0.321 J0.279
G1 X-41.912 Y-16.017
G2 X-42.234 Y-15.883 I-0.011 J0.425
G3 X-42.652 Y-15.693 I-0.438 J-0.41
G1 X-42.654
X-42.819 Y-15.684
X-43.312 Y-15.659
X-43.477 Y-15.65
X-43.641 Y-15.637
X-44.3 Y-15.578
X-44.464 Y-15.56
X-45.122 Y-15.478
X-45.287 Y-15.455
X-45.369 Y-15.442
X-45.388 Y-15.438
G3 X-46.086 Y-16.007 I-0.099 J-0.592
X-45.435 Y-16.628 I0.6 J-0.024
G1 X-36.845 Y-15.885
S10000
Y-15.886 Z47.192
X-36.846 Z47.184
X-36.847 Y-15.888 Z47.176
X-36.848 Y-15.89 Z47.168
X-36.85 Y-15.892 Z47.161
X-36.851 Y-15.895 Z47.153
X-36.854 Y-15.898 Z47.146
X-36.856 Y-15.902 Z47.14
X-36.859 Y-15.907 Z47.133
X-36.862 Y-15.912 Z47.128
X-36.865 Y-15.917 Z47.122
X-36.868 Y-15.922 Z47.117
X-36.871 Y-15.928 Z47.113
X-36.875 Y-15.935 Z47.109
X-36.878 Y-15.941 Z47.106
X-36.882 Y-15.948 Z47.104
X-36.885 Y-15.955 Z47.102
X-36.889 Y-15.962 Z47.101
X-36.892 Y-15.97 Z47.1
G3 X-35.537 Y-16.613 Z47.018 I0.677 J-0.322
X-35.483 Y-16.127 Z47. I-0.677 J0.322
G1 X-35.488 Y-16.107
S15000
X-35.563 Y-15.811
G3 X-36.48 Y-15.265 I-0.732 J-0.186
G1 X-36.503 Y-15.271
X-36.567 Y-15.287
X-36.732 Y-15.326
X-37.39 Y-15.462
X-37.554 Y-15.495
X-37.719 Y-15.523
X-38.377 Y-15.635
X-38.541 Y-15.658
X-39.218 Y-15.748
X-39.364 Y-15.764
X-39.528 Y-15.779
X-39.693 Y-15.795
X-39.858 Y-15.81
X-40.022 Y-15.826
X-40.187 Y-15.838
X-40.351 Y-15.847
X-40.516 Y-15.856
X-40.68 Y-15.866
X-40.845 Y-15.875
X-41.009 Y-15.882
X-41.667 Y-15.896
X-41.832 Y-15.898
X-41.996 Y-15.896
X-42.161 Y-15.894
X-42.325 Y-15.892
X-42.49 Y-15.89
X-42.654 Y-15.887
X-42.819 Y-15.88
X-42.983 Y-15.872
X-43.148 Y-15.864
X-43.312 Y-15.855
X-43.477 Y-15.847
X-43.641 Y-15.833
X-44.3 Y-15.775
X-44.464 Y-15.755
X-45.122 Y-15.673
X-45.287 Y-15.649
X-45.945 Y-15.543
X-46.109 Y-15.515
X-46.274 Y-15.483
X-46.438 Y-15.449
X-46.479 Y-15.441
X-46.481 Y-15.44
G3 X-47.202 Y-15.988 I-0.122 J-0.587
X-46.56 Y-16.626 I0.599 J-0.04
G1 X-35.897 Y-15.862
S10000
Z46.992
Y-15.863 Z46.984
X-35.898 Y-15.864 Z46.976
X-35.899 Y-15.866 Z46.968
X-35.901 Y-15.869 Z46.961
X-35.902 Y-15.872 Z46.953
X-35.904 Y-15.875 Z46.946
X-35.907 Y-15.879 Z46.94
X-35.909 Y-15.884 Z46.933
X-35.912 Y-15.889 Z46.928
X-35.915 Y-15.894 Z46.922
X-35.918 Y-15.9 Z46.917
X-35.921 Y-15.906 Z46.913
X-35.924 Y-15.913 Z46.909
X-35.927 Y-15.919 Z46.906
X-35.93 Y-15.926 Z46.904
X-35.934 Y-15.933 Z46.902
X-35.937 Y-15.941 Z46.901
X-35.94 Y-15.948 Z46.9
G3 X-34.56 Y-16.537 Z46.818 I0.69 J-0.294
X-34.526 Y-16.049 Z46.8 I-0.69 J0.294
G1 X-34.531 Y-16.029
S15000
X-34.618 Y-15.736
G3 X-35.557 Y-15.228 I-0.724 J-0.215
G1 X-35.58 Y-15.235
X-35.648 Y-15.254
X-35.745 Y-15.282
X-35.909 Y-15.326
X-36.567 Y-15.486
X-36.732 Y-15.525
X-36.896 Y-15.56
X-37.39 Y-15.661
X-37.554 Y-15.695
X-37.719 Y-15.724
X-37.859 Y-15.748
X-37.883 Y-15.752
X-38.048 Y-15.779
X-38.212 Y-15.806
X-38.377 Y-15.832
X-38.541 Y-15.854
X-38.706 Y-15.874
X-39.199 Y-15.934
X-39.364 Y-15.951
X-40.022 Y-16.009
X-40.187 Y-16.021
X-40.845 Y-16.057
X-41.009 Y-16.064
X-41.667 Y-16.078
X-41.832 Y-16.08
X-42.49 Y-16.072
X-42.654 Y-16.069
X-42.819 Y-16.062
X-43.312 Y-16.04
X-43.477 Y-16.032
X-43.641 Y-16.019
X-44.135 Y-15.981
X-44.3 Y-15.968
X-44.464 Y-15.95
X-44.629 Y-15.932
X-44.794 Y-15.913
X-44.958 Y-15.893
X-45.122 Y-15.873
X-45.287 Y-15.848
X-45.945 Y-15.742
X-46.109 Y-15.712
X-46.767 Y-15.582
X-46.932 Y-15.549
X-47.096 Y-15.511
X-47.261 Y-15.472
X-47.343 Y-15.452
X-47.384 Y-15.442
X-47.41 Y-15.435
G3 X-48.152 Y-15.963 I-0.145 J-0.582
X-47.517 Y-16.616 I0.598 J-0.054
G1 X-35.073 Y-15.836
S10000
Z46.792
X-35.074 Y-15.837 Z46.784
Y-15.838 Z46.776
X-35.075 Y-15.84 Z46.768
X-35.077 Y-15.843 Z46.761
X-35.078 Y-15.846 Z46.753
X-35.08 Y-15.85 Z46.746
X-35.082 Y-15.854 Z46.74
X-35.084 Y-15.858 Z46.733
X-35.087 Y-15.864 Z46.728
X-35.09 Y-15.869 Z46.722
X-35.092 Y-15.875 Z46.717
X-35.095 Y-15.881 Z46.713
X-35.098 Y-15.888 Z46.709
X-35.101 Y-15.894 Z46.706
X-35.104 Y-15.902 Z46.704
X-35.107 Y-15.909 Z46.702
X-35.11 Y-15.916 Z46.701
X-35.113 Y-15.924 Z46.7
G3 X-33.71 Y-16.454 Z46.618 I0.701 J-0.265
X-33.695 Y-15.966 Z46.6 I-0.701 J0.265
G1 X-33.702 Y-15.946
S15000
X-33.801 Y-15.657
G3 X-34.76 Y-15.188 I-0.714 J-0.245
G1 X-34.778 Y-15.194
X-34.799 Y-15.201
X-34.84 Y-15.215
X-34.922 Y-15.243
X-34.958 Y-15.254
X-35.086 Y-15.293
X-35.745 Y-15.476
X-35.909 Y-15.521
X-36.074 Y-15.562
X-36.567 Y-15.681
X-36.732 Y-15.721
X-36.858 Y-15.748
X-36.896 Y-15.756
X-37.061 Y-15.788
X-37.225 Y-15.82
X-37.39 Y-15.851
X-37.554 Y-15.881
X-37.719 Y-15.909
X-38.377 Y-16.01
X-38.541 Y-16.032
X-38.706 Y-16.052
X-38.87 Y-16.072
X-38.916 Y-16.077
X-39.035 Y-16.091
X-39.199 Y-16.11
X-39.364 Y-16.127
X-39.528 Y-16.141
X-40.022 Y-16.181
X-40.187 Y-16.193
X-40.845 Y-16.227
X-41.009 Y-16.234
X-41.667 Y-16.247
X-41.832 Y-16.25
X-42.49 Y-16.243
X-42.618 Y-16.242
X-42.654 Y-16.24
X-43.312 Y-16.214
X-43.477 Y-16.207
X-43.641 Y-16.195
X-43.806 Y-16.183
X-43.97 Y-16.171
X-44.135 Y-16.158
X-44.3 Y-16.145
X-44.464 Y-16.127
X-44.958 Y-16.073
X-45.122 Y-16.054
X-45.287 Y-16.031
X-45.616 Y-15.984
X-45.78 Y-15.96
X-45.945 Y-15.936
X-46.076 Y-15.913
X-46.109 Y-15.906
X-46.274 Y-15.874
X-46.767 Y-15.777
X-46.904 Y-15.748
X-47.609 Y-15.584
X-47.754 Y-15.549
X-47.919 Y-15.505
X-48.083 Y-15.459
X-48.153 Y-15.439
X-48.188 Y-15.429
X-48.205 Y-15.424
G3 X-48.543 Y-16.576 I-0.169 J-0.576
X-48.345 Y-16.599 I0.169 J0.576
G1 X-33.227 Y-15.868
G3 X-33.285 Y-14.669 I-0.029 J0.599
X-33.476 Y-14.71 I0.029 J-0.599
G1 X-34.069 Y-14.943
G3 X-34.089 Y-16.051 I0.219 J-0.558
G0 Z59.
X-46.186 Y-1.905
Z52.955
G1 Z52.2 F1440.
G3 X-45.586 Y-2.837 I0.493 J-0.342
G1 X-45.533 Y-2.827
X-45.451 Y-2.813
X-45.287 Y-2.783
X-45.122 Y-2.755
X-45.089 Y-2.749
X-44.958 Y-2.726
X-44.793 Y-2.699
X-44.629 Y-2.676
X-44.464 Y-2.654
X-44.3 Y-2.632
X-44.135 Y-2.61
X-43.97 Y-2.59
X-43.918 Y-2.584
X-43.806 Y-2.573
X-43.641 Y-2.557
X-43.477 Y-2.54
X-43.312 Y-2.524
X-43.148 Y-2.51
X-42.983 Y-2.498
X-42.819 Y-2.486
X-42.654 Y-2.475
X-42.49 Y-2.463
X-42.325 Y-2.456
X-41.832 Y-2.435
X-41.667 Y-2.429
X-41.174 Y-2.422
X-41.011 Y-2.42
X-41.009
X-40.96
X-40.845 Y-2.421
X-40.68 Y-2.423
X-40.516 Y-2.426
X-40.351 Y-2.428
X-40.187 Y-2.432
X-40.022 Y-2.439
X-39.858 Y-2.446
X-39.693 Y-2.452
X-39.528 Y-2.461
X-39.364 Y-2.472
X-39.199 Y-2.484
X-39.035 Y-2.495
X-38.87 Y-2.508
X-38.706 Y-2.524
X-38.541 Y-2.541
X-38.377 Y-2.558
X-38.212 Y-2.576
X-38.148 Y-2.584
X-38.048 Y-2.598
X-37.883 Y-2.621
X-37.801 Y-2.632
X-37.762 Y-2.637
G3 X-37.199 Y-1.682 I0.084 J0.594
G0 Z59.
X-36.846 Y-2.588
Z53.544
G1 Z52.7 F1440.
S10000
X-36.851 Y-2.587 Z52.621
X-36.867 Y-2.584 Z52.543
X-36.896 Y-2.579 Z52.458
X-36.94 Y-2.572 Z52.377
X-36.995 Y-2.563 Z52.302
X-37.061 Y-2.552 Z52.238
X-37.139 Y-2.54 Z52.182
X-37.225 Y-2.526 Z52.141
X-37.306 Y-2.514 Z52.116
X-37.39 Y-2.502 Z52.102
X-37.418 Y-2.498 Z52.101
X-37.554 Y-2.478 Z52.096
X-37.719 Y-2.457 Z52.09
X-37.883 Y-2.438 Z52.084
X-38.038 Y-2.42 Z52.079
X-38.048 Y-2.419
X-38.212 Y-2.4 Z52.073
X-38.377 Y-2.385 Z52.067
X-38.541 Y-2.371 Z52.061
X-38.706 Y-2.357 Z52.055
X-38.87 Y-2.343 Z52.05
X-39.035 Y-2.332 Z52.044
X-39.199 Y-2.322 Z52.038
X-39.364 Y-2.313 Z52.032
X-39.528 Y-2.304 Z52.027
X-39.693 Y-2.297 Z52.021
X-39.858 Y-2.291 Z52.015
X-40.022 Y-2.286 Z52.009
X-40.187 Y-2.281 Z52.004
X-40.247 Y-2.279 Z52.002
X-40.268 Y-2.278 Z52.001
X-40.279 Z52.
X-40.282
X-40.289
X-40.295
X-40.303 Y-2.277
S15000
X-40.295 Y-2.278
X-40.289
X-40.279
X-40.268
X-40.247 Y-2.279
X-40.187 Y-2.281
X-40.022 Y-2.286
X-39.858 Y-2.291
X-39.693 Y-2.297
X-39.528 Y-2.304
X-39.364 Y-2.313
X-39.199 Y-2.322
X-39.035 Y-2.332
X-38.87 Y-2.343
X-38.706 Y-2.357
X-38.541 Y-2.371
X-38.377 Y-2.385
X-38.212 Y-2.4
X-38.048 Y-2.419
X-38.038 Y-2.42
X-37.883 Y-2.438
X-37.719 Y-2.457
X-37.554 Y-2.478
X-37.39 Y-2.502
X-37.225 Y-2.526
X-37.061 Y-2.552
X-36.896 Y-2.579
X-36.867 Y-2.584
X-36.732 Y-2.609
X-36.567 Y-2.641
X-36.485 Y-2.657
X-36.454 Y-2.663
X-36.445 Y-2.665
G3 X-35.831 Y-1.742 I0.116 J0.589
G0 Z59.
X-47.588 Y-2.049
Z52.705
G1 Z52. F1440.
G3 X-46.923 Y-2.936 I0.516 J-0.305
G1 X-46.908 Y-2.932
X-46.884 Y-2.926
X-46.835 Y-2.913
X-46.767 Y-2.896
X-46.603 Y-2.855
X-46.438 Y-2.817
X-46.274 Y-2.784
X-46.109 Y-2.75
X-46.102 Y-2.749
X-45.945 Y-2.718
X-45.78 Y-2.686
X-45.616 Y-2.655
X-45.451 Y-2.629
X-45.287 Y-2.603
X-45.165 Y-2.584
X-45.122 Y-2.578
X-44.958 Y-2.553
X-44.793 Y-2.528
X-44.629 Y-2.508
X-44.464 Y-2.488
X-44.3 Y-2.469
X-44.135 Y-2.449
X-43.97 Y-2.43
X-43.854 Y-2.42
X-43.806 Y-2.415
X-43.641 Y-2.4
X-43.477 Y-2.386
X-43.312 Y-2.371
X-43.148 Y-2.358
X-43.144
X-43.066 Y-2.352 Z52.008
X-42.992 Y-2.348 Z52.03
X-42.923 Y-2.343 Z52.067
X-42.862 Y-2.339 Z52.117
X-42.813 Y-2.336 Z52.177
X-42.776 Y-2.334 Z52.246
X-42.753 Y-2.332 Z52.321
X-42.746 Z52.399
G0 Z59.
X-48.647 Y-2.154
Z52.473
G1 Z51.8 F1440.
G3 X-47.948 Y-3.015 I0.528 J-0.286
G1 X-47.919 Y-3.006
X-47.754 Y-2.958
X-47.597 Y-2.913
X-47.59 Y-2.911
X-47.425 Y-2.866
X-47.261 Y-2.824
X-47.096 Y-2.786
X-46.931 Y-2.749
X-46.767 Y-2.713
X-46.603 Y-2.677
X-46.438 Y-2.643
X-46.274 Y-2.613
X-46.109 Y-2.584
X-45.945 Y-2.555
X-45.78 Y-2.527
X-45.616 Y-2.499
X-45.451 Y-2.476
X-45.392 Y-2.468
X-45.379 Y-2.466
X-45.333 Y-2.459 Z51.806
X-45.29 Y-2.454 Z51.824
X-45.254 Y-2.448 Z51.852
X-45.225 Y-2.444 Z51.889
X-45.208 Y-2.442 Z51.933
X-45.202 Y-2.441 Z51.979
G0 Z59.
X-49.556 Y-2.26
Z52.27
G1 Z51.6 F1440.
G3 X-48.823 Y-3.093 I0.538 J-0.265
G1 X-48.812 Y-3.089
X-48.78 Y-3.078
X-48.742 Y-3.065
X-48.577 Y-3.011
X-48.412 Y-2.958
X-48.269 Y-2.913
X-48.248 Y-2.907
X-48.083 Y-2.862
X-47.919 Y-2.819
X-47.754 Y-2.777
X-47.641 Y-2.749
X-47.59 Y-2.736
X-47.425 Y-2.697
X-47.261 Y-2.659
X-47.096 Y-2.626
X-46.932 Y-2.593
X-46.888 Y-2.584
X-46.767 Y-2.561
X-46.73 Y-2.554
X-46.688 Y-2.545
X-46.684
X-46.602 Y-2.529 Z51.628
X-46.525 Y-2.514 Z51.668
X-46.455 Y-2.501 Z51.719
X-46.393 Y-2.489 Z51.78
X-46.34 Y-2.479 Z51.849
X-46.297 Y-2.471 Z51.926
X-46.266 Y-2.465 Z52.008
X-46.247 Y-2.461 Z52.094
X-46.241 Y-2.46 Z52.181
G0 Z59.
X-50.379 Y-2.37
Z52.075
G1 Z51.4 F1440.
G3 X-49.613 Y-3.171 I0.549 J-0.242
G1 X-49.605 Y-3.169
X-49.564 Y-3.153
X-49.4 Y-3.091
X-49.365 Y-3.078
X-49.235 Y-3.031
X-49.071 Y-2.975
X-48.906 Y-2.925
X-48.868 Y-2.913
X-48.742 Y-2.876
X-48.577 Y-2.829
X-48.412 Y-2.783
X-48.285 Y-2.749
X-48.248 Y-2.739
X-48.083 Y-2.698
X-47.919 Y-2.661
X-47.754 Y-2.624
X-47.719 Y-2.616
X-47.717
X-47.629 Y-2.597 Z51.434
X-47.548 Y-2.579 Z51.483
X-47.475 Y-2.563 Z51.544
X-47.412 Y-2.549 Z51.616
X-47.362 Y-2.538 Z51.698
X-47.325 Y-2.53 Z51.786
X-47.303 Y-2.525 Z51.88
X-47.295 Y-2.523 Z51.976
G0 Z59.
X-51.149 Y-2.486
Z51.874
G1 Z51.2 F1440.
G3 X-50.349 Y-3.254 I0.559 J-0.218
G1 X-50.34 Y-3.249
X-50.324 Y-3.243
X-50.222 Y-3.199
X-50.058 Y-3.131
X-49.917 Y-3.078
X-49.893 Y-3.07
X-49.729 Y-3.013
X-49.564 Y-2.957
X-49.429 Y-2.913
X-49.4 Y-2.904
X-49.235 Y-2.852
X-49.071 Y-2.803
X-48.906 Y-2.759
X-48.868 Y-2.749
X-48.742 Y-2.716
X-48.677 Y-2.7
X-48.645 Y-2.692
X-48.615 Y-2.685
X-48.604 Y-2.682
X-48.567 Y-2.673 Z51.207
X-48.537 Y-2.665 Z51.229
X-48.516 Y-2.66 Z51.261
X-48.509 Y-2.658 Z51.298
G0 Z59.
X-51.859 Y-2.607
Z51.676
G1 Z51. F1440.
G3 X-51.025 Y-3.339 I0.568 J-0.193
G1 X-51.004 Y-3.328
X-50.963 Y-3.308
X-50.88 Y-3.271
X-50.813 Y-3.243
X-50.716 Y-3.202
X-50.551 Y-3.135
X-50.404 Y-3.078
X-50.387 Y-3.072
X-50.222 Y-3.01
X-50.058 Y-2.951
X-49.947 Y-2.913
X-49.893 Y-2.897
X-49.729 Y-2.847
X-49.564 Y-2.799
X-49.4 Y-2.752
X-49.371 Y-2.744
X-49.37
X-49.289 Y-2.721 Z51.038
X-49.214 Y-2.7 Z51.087
X-49.148 Y-2.682 Z51.149
X-49.092 Y-2.666 Z51.219
X-49.046 Y-2.654 Z51.298
X-49.013 Y-2.645 Z51.384
X-48.993 Y-2.639 Z51.473
X-48.986 Y-2.637 Z51.565
G0 Z59.
X-52.392 Y-2.65
Z51.471
G1 Z50.8 F1440.
G3 X-51.559 Y-3.381 I0.568 J-0.193
G1 X-51.538 Y-3.371
X-51.374 Y-3.292
X-51.266 Y-3.243
X-51.209 Y-3.217
X-51.045 Y-3.145
X-50.881 Y-3.078
X-50.88
X-50.716 Y-3.018
X-50.551 Y-2.96
X-50.413 Y-2.913
X-50.387 Y-2.905
X-50.222 Y-2.851
X-50.15 Y-2.828
X-50.107 Y-2.815
X-50.085 Y-2.808
X-50.063 Y-2.801
G0 Z59.
X-53.035 Y-2.781
Z51.275
G1 Z50.6 F1440.
G3 X-52.167 Y-3.47 I0.577 J-0.165
G1 X-52.16 Y-3.466
X-52.124 Y-3.446
X-52.051 Y-3.407
X-52.032 Y-3.397
X-51.867 Y-3.312
X-51.715 Y-3.243
X-51.703 Y-3.237
X-51.538 Y-3.167
X-51.374 Y-3.1
X-51.319 Y-3.078
X-51.209 Y-3.035
X-51.045 Y-2.973
X-50.88 Y-2.914
X-50.878 Y-2.913
X-50.716 Y-2.861
X-50.701 Y-2.856
G3 X-51.627 Y-2.538 I-0.576 J-0.169
G0 Z59.
X-53.521 Y-2.821
Z51.061
G1 Z50.4 F1440.
G3 X-52.653 Y-3.51 I0.577 J-0.165
G1 X-52.649 Y-3.508
X-52.608 Y-3.486
X-52.525 Y-3.441
X-52.46 Y-3.407
X-52.361 Y-3.356
X-52.196 Y-3.276
X-52.126 Y-3.243
X-52.032 Y-3.199
X-51.867 Y-3.127
X-51.749 Y-3.078
X-51.703 Y-3.06
X-51.538 Y-2.999
X-51.374 Y-2.941
X-51.338 Y-2.928
X-51.32 Y-2.922
X-51.303 Y-2.916
G3 X-52.252 Y-2.596 I-0.58 J-0.154
G0 Z59.
X-54.092 Y-2.958
Z50.875
G1 Z50.2 F1440.
G3 X-53.19 Y-3.603 I0.585 J-0.135
G1 X-53.184 Y-3.599
X-53.139 Y-3.572
X-53.019 Y-3.5
X-52.854 Y-3.407
X-52.69 Y-3.322
X-52.525 Y-3.246
X-52.519 Y-3.243
X-52.361 Y-3.173
X-52.196 Y-3.103
X-52.135 Y-3.078
X-52.032 Y-3.037
X-51.867 Y-2.973
X-51.847 Y-2.966
X-51.841 Y-2.963
G3 X-52.808 Y-2.659 I-0.58 J-0.154
G0 Z59.
X-54.526 Y-2.995
Z50.661
G1 Z50. F1440.
G3 X-53.624 Y-3.64 I0.584 J-0.136
G1 X-53.615 Y-3.634
X-53.595 Y-3.622
X-53.512 Y-3.572
X-53.348 Y-3.477
X-53.221 Y-3.407
X-53.184 Y-3.387
X-53.019 Y-3.303
X-52.894 Y-3.243
X-52.854 Y-3.224
X-52.69 Y-3.149
X-52.525 Y-3.082
X-52.516 Y-3.078
X-52.443 Y-3.049
X-52.406 Y-3.035
X-52.385 Y-3.027
X-52.365 Y-3.02
X-52.377 Y-3.004
X-52.396 Y-3.001
G0 Z59.
X-55.063 Y-3.143
Z50.474
G1 Z49.8 F1440.
G3 X-54.127 Y-3.738 I0.591 J-0.104
G1 X-54.125 Y-3.736
X-54.006 Y-3.656
X-53.876 Y-3.572
X-53.842 Y-3.551
X-53.677 Y-3.453
X-53.59 Y-3.407
X-53.513 Y-3.367
X-53.348 Y-3.286
X-53.255 Y-3.243
X-53.184 Y-3.21
X-53.019 Y-3.137
X-52.88 Y-3.078
X-52.861 Y-3.07
X-52.86
G3 X-53.87 Y-2.791 I-0.583 J-0.142
G0 Z59.
X-55.458 Y-3.178
Z50.262
G1 Z49.6 F1440.
G3 X-54.523 Y-3.773 I0.591 J-0.104
G1 X-54.52 Y-3.771
X-54.5 Y-3.757
X-54.469 Y-3.736
X-54.335 Y-3.647
X-54.214 Y-3.572
X-54.171 Y-3.545
X-54.006 Y-3.45
X-53.928 Y-3.407
X-53.842 Y-3.361
X-53.677 Y-3.276
X-53.607 Y-3.243
X-53.513 Y-3.2
X-53.348 Y-3.13
X-53.334 Y-3.124
X-53.322 Y-3.119
X-53.339 Y-3.083
X-53.368 Y-3.057
X-53.405 Y-3.045
X-53.443 Y-3.048
G0 Z59.
X-55.964 Y-3.336
Z50.072
G1 Z49.4 F1440.
G3 X-54.997 Y-3.879 I0.596 J-0.071
G1 X-54.993 Y-3.875
X-54.829 Y-3.752
X-54.807 Y-3.736
X-54.664 Y-3.638
X-54.559 Y-3.572
X-54.5 Y-3.537
X-54.335 Y-3.444
X-54.266 Y-3.407
X-54.171 Y-3.357
X-54.006 Y-3.275
X-53.938 Y-3.243
X-53.842 Y-3.198
X-53.81 Y-3.183
X-53.794 Y-3.176
X-53.78 Y-3.17
X-53.71 Y-3.139 Z49.44
X-53.646 Y-3.11 Z49.491
X-53.589 Y-3.084 Z49.552
X-53.541 Y-3.062 Z49.621
X-53.502 Y-3.045 Z49.697
X-53.474 Y-3.032 Z49.779
X-53.457 Y-3.025 Z49.864
X-53.451 Y-3.022 Z49.95
G0 Z59.
X-56.323 Y-3.369
Z49.865
G1 Z49.2 F1440.
G3 X-55.357 Y-3.911 I0.596 J-0.071
G1 X-55.352 Y-3.908
X-55.343 Y-3.901
X-55.322 Y-3.885
X-55.158 Y-3.763
X-55.12 Y-3.736
X-54.993 Y-3.651
X-54.869 Y-3.572
X-54.829 Y-3.547
X-54.664 Y-3.45
X-54.588 Y-3.407
X-54.5 Y-3.36
X-54.335 Y-3.28
X-54.256 Y-3.243
X-54.226 Y-3.229
X-54.211 Y-3.222
X-54.196 Y-3.215
X-54.211 Y-3.181
X-54.239 Y-3.156
X-54.274 Y-3.144
X-54.311 Y-3.147
G0 Z59.
X-56.803 Y-3.542
Z49.672
G1 Z49. F1440.
G3 X-55.806 Y-4.026 I0.599 J-0.036
G1 X-55.796 Y-4.017
X-55.777 Y-4.
X-55.737 Y-3.966
X-55.659 Y-3.901
X-55.651 Y-3.895
X-55.487 Y-3.769
X-55.439 Y-3.736
X-55.322 Y-3.659
X-55.182 Y-3.572
X-55.158 Y-3.557
X-54.993 Y-3.461
X-54.894 Y-3.407
X-54.829 Y-3.372
X-54.664 Y-3.288
X-54.64 Y-3.276
X-54.626 Y-3.27
X-54.613 Y-3.263
G3 X-55.7 Y-3.069 I-0.585 J-0.135
G0 Z59.
X-44.776 Y21.403
Z48.072
G1 Z47.4 F1440.
G3 X-44.229 Y20.438 I0.473 J-0.369
G1 X-44.217 Y20.44
X-44.135 Y20.449
X-44.107 Y20.452
X-43.97 Y20.464
X-43.312 Y20.52
X-43.148 Y20.53
X-42.49 Y20.562
X-42.325 Y20.566
X-41.667 Y20.574
X-41.503
X-40.845 Y20.558
X-40.68 Y20.553
X-40.516 Y20.543
X-40.187 Y20.523
X-40.104 Y20.518
X-40.053 Y20.514
G3 X-39.416 Y21.134 I0.037 J0.599
X-40.095 Y21.708 I-0.6 J-0.021
G1 X-45.556 Y20.987
S10000
Z47.392
X-45.555 Y20.988 Z47.384
X-45.554 Y20.99 Z47.376
X-45.553 Y20.991 Z47.368
X-45.551 Y20.994 Z47.361
X-45.549 Y20.997 Z47.353
X-45.547 Y21. Z47.346
X-45.544 Y21.004 Z47.34
X-45.541 Y21.008 Z47.333
X-45.538 Y21.013 Z47.328
X-45.535 Y21.018 Z47.322
X-45.532 Y21.023 Z47.317
X-45.528 Y21.029 Z47.313
X-45.524 Y21.035 Z47.309
X-45.52 Y21.042 Z47.306
X-45.516 Y21.048 Z47.304
X-45.513 Y21.055 Z47.302
X-45.509 Y21.062 Z47.301
X-45.505 Y21.069 Z47.3
G3 X-46.826 Y21.779 Z47.218 I-0.661 J0.355
X-46.904 Y21.297 Z47.2 I0.661 J-0.355
G1 X-46.901 Y21.276
S15000
X-46.84 Y20.977
G3 X-45.951 Y20.386 I0.74 J0.149
G1 X-45.945 Y20.387
X-45.78 Y20.418
X-45.616 Y20.444
X-45.122 Y20.523
X-44.958 Y20.548
X-44.793 Y20.568
X-44.3 Y20.629
X-44.135 Y20.649
X-43.97 Y20.664
X-43.312 Y20.72
X-43.148 Y20.73
X-42.49 Y20.762
X-42.325 Y20.766
X-41.667 Y20.774
X-41.503
X-40.845 Y20.758
X-40.68 Y20.752
X-40.022 Y20.712
X-39.858 Y20.701
X-39.693 Y20.685
X-39.199 Y20.637
X-39.035 Y20.621
X-38.999 Y20.617
X-38.87 Y20.6
X-38.541 Y20.556
X-38.377 Y20.534
X-38.325 Y20.527
X-38.32 Y20.526
G3 X-37.644 Y21.039 I0.082 J0.594
G2 X-36.764 Y21.485 I0.594 J-0.082
G1 X-34.864 Y20.456
S10000
Z47.192
X-34.863 Y20.457 Z47.184
X-34.861 Y20.458 Z47.176
X-34.859 Y20.459 Z47.168
X-34.857 Y20.46 Z47.161
X-34.854 Y20.461 Z47.153
X-34.85 Y20.463 Z47.146
X-34.846 Y20.465 Z47.14
X-34.841 Y20.468 Z47.133
X-34.836 Y20.471 Z47.128
X-34.831 Y20.474 Z47.122
X-34.825 Y20.477 Z47.117
X-34.82 Y20.48 Z47.113
X-34.813 Y20.484 Z47.109
X-34.807 Y20.488 Z47.106
X-34.8 Y20.492 Z47.104
X-34.794 Y20.496 Z47.102
X-34.787 Y20.5 Z47.101
X-34.78 Y20.505 Z47.1
G3 X-35.616 Y21.75 Z47.018 I-0.418 J0.623
X-35.911 Y21.36 Z47. I0.418 J-0.623
G1 X-35.917 Y21.34
S15000
X-36.004 Y21.048
G3 X-35.494 Y20.11 I0.724 J-0.214
G1 X-35.479 Y20.105
X-35.416 Y20.086
X-35.041 Y19.972
X-35.015 Y19.965
G3 X-34.249 Y20.441 I0.174 J0.574
X-34.821 Y21.138 I-0.592 J0.098
G1 X-47.173 Y21.534
G3 X-47.789 Y20.873 I-0.019 J-0.6
X-47.051 Y20.351 I0.597 J0.062
G1 X-47.035 Y20.355
X-47.014 Y20.36
X-46.932 Y20.38
X-46.767 Y20.418
X-46.611 Y20.452
X-45.945 Y20.582
X-45.78 Y20.613
X-45.76 Y20.617
X-45.122 Y20.718
X-44.958 Y20.744
X-44.793 Y20.765
X-44.3 Y20.825
X-44.135 Y20.845
X-43.97 Y20.86
X-43.312 Y20.917
X-43.148 Y20.926
X-42.49 Y20.959
X-42.325 Y20.963
X-41.667 Y20.971
X-41.503 Y20.97
X-40.845 Y20.954
X-40.68 Y20.948
X-40.022 Y20.908
X-39.858 Y20.896
X-39.199 Y20.832
X-39.035 Y20.816
X-38.87 Y20.794
X-38.377 Y20.728
X-38.212 Y20.706
X-38.048 Y20.679
X-37.39 Y20.567
X-37.225 Y20.536
X-37.143 Y20.518
X-37.128 Y20.515
G3 X-36.414 Y20.974 I0.127 J0.586
G2 X-35.36 Y21.223 I0.586 J-0.127
G1 X-34.928 Y20.687
S10000
Z46.992
X-34.927 Z46.984
X-34.926 Y20.688 Z46.976
X-34.924 Y20.689 Z46.968
X-34.921 Y20.69 Z46.961
X-34.918 Y20.692 Z46.953
X-34.915 Y20.694 Z46.946
X-34.91 Y20.696 Z46.94
X-34.906 Y20.698 Z46.933
X-34.901 Y20.701 Z46.928
X-34.896 Y20.704 Z46.922
X-34.89 Y20.707 Z46.917
X-34.884 Y20.711 Z46.913
X-34.878 Y20.714 Z46.909
X-34.872 Y20.718 Z46.906
X-34.865 Y20.722 Z46.904
X-34.858 Y20.727 Z46.902
X-34.852 Y20.731 Z46.901
X-34.845 Y20.735 Z46.9
G3 X-35.683 Y21.979 Z46.818 I-0.419 J0.622
X-35.978 Y21.589 Z46.8 I0.419 J-0.622
G1 X-35.984 Y21.569
S15000
X-36.07 Y21.276
G3 X-35.558 Y20.339 I0.724 J-0.213
G1 X-35.549 Y20.336
X-35.539 Y20.333
X-35.388 Y20.288
X-34.757 Y20.097
X-34.593 Y20.044
X-34.428 Y19.988
X-34.342 Y19.959
X-34.323 Y19.952
X-34.31 Y19.947
G3 X-33.57 Y20.773 I0.199 J0.566
G0 Z59.
X-49.879 Y20.571
Z47.666
G1 Z47. F1440.
G3 X-49.155 Y19.731 I0.536 J-0.27
G1 X-48.482 Y19.953
G3 X-48.4 Y21.059 I-0.188 J0.57
G0 Z59.
X-48.669 Y21.185
Z47.47
G1 Z46.8 F1440.
G3 X-47.981 Y20.316 I0.524 J-0.292
G1 X-47.959 Y20.322
X-47.919 Y20.333
X-47.754 Y20.378
X-47.59 Y20.423
X-47.475 Y20.452
X-47.425 Y20.464
X-46.765 Y20.617
X-46.603 Y20.653
X-46.438 Y20.685
X-45.945 Y20.782
X-45.78 Y20.813
X-45.616 Y20.84
X-45.122 Y20.918
X-44.958 Y20.945
X-44.95 Y20.946
X-44.793 Y20.966
X-44.629 Y20.985
X-44.464 Y21.005
X-44.3 Y21.024
X-44.135 Y21.043
X-43.97 Y21.058
X-43.312 Y21.111
X-43.148 Y21.12
X-42.49 Y21.151
X-42.325 Y21.155
X-41.667 Y21.163
X-41.503 Y21.162
X-40.845 Y21.148
X-40.68 Y21.142
X-40.351 Y21.124
X-40.187 Y21.115
X-40.094 Y21.11
X-40.022 Y21.106
X-39.858 Y21.095
X-39.693 Y21.08
X-39.528 Y21.064
X-39.364 Y21.048
X-39.199 Y21.032
X-39.035 Y21.015
X-38.377 Y20.927
X-38.212 Y20.905
X-38.048 Y20.877
X-37.39 Y20.765
X-37.225 Y20.733
X-36.567 Y20.598
X-36.403 Y20.561
X-36.238 Y20.519
X-36.218 Y20.514
X-36.201 Y20.51
G3 X-35.469 Y20.94 I0.151 J0.581
G2 X-34.578 Y21.302 I0.581 J-0.151
G1 X-32.144 Y19.831
S10000
Z46.792
X-32.143 Z46.784
X-32.142 Y19.832 Z46.776
X-32.139 Z46.768
X-32.137 Y19.833 Z46.761
X-32.133 Y19.834 Z46.753
X-32.13 Y19.836 Z46.746
X-32.125 Y19.837 Z46.74
X-32.12 Y19.839 Z46.733
X-32.115 Y19.841 Z46.728
X-32.11 Y19.843 Z46.722
X-32.104 Y19.846 Z46.717
X-32.097 Y19.848 Z46.713
X-32.091 Y19.851 Z46.709
X-32.084 Y19.854 Z46.706
X-32.077 Y19.857 Z46.704
X-32.07 Y19.861 Z46.702
X-32.062 Y19.864 Z46.701
X-32.055 Y19.868 Z46.7
G3 X-32.717 Y21.213 Z46.618 I-0.331 J0.673
X-33.062 Y20.866 Z46.6 I0.331 J-0.673
G1 X-33.071 Y20.847
S15000
X-33.195 Y20.569
G3 X-32.815 Y19.571 I0.689 J-0.309
G1 X-32.804 Y19.566
X-32.783 Y19.557
X-32.331 Y19.35
X-32.31 Y19.341
X-32.304 Y19.338
G3 X-31.49 Y20.091 I0.251 J0.545
G0 Z59.
X-50.614 Y20.498
Z47.469
G1 Z46.8 F1440.
G3 X-49.855 Y19.691 I0.547 J-0.247
G1 X-49.852 Y19.692
X-49.811 Y19.707
X-49.729 Y19.737
X-49.4 Y19.859
X-49.235 Y19.917
X-48.429 Y20.184
G3 X-48.084 Y21.028 I-0.188 J0.57
X-48.972 Y21.238 I-0.534 J-0.275
G1 X-50.232 Y20.316
S10000
Z46.792
Y20.317 Z46.784
X-50.231 Y20.319 Z46.776
X-50.23 Y20.321 Z46.768
X-50.229 Y20.323 Z46.761
X-50.228 Y20.326 Z46.753
X-50.226 Y20.33 Z46.746
X-50.224 Y20.334 Z46.74
X-50.222 Y20.339 Z46.733
X-50.22 Y20.344 Z46.728
X-50.218 Y20.35 Z46.722
X-50.216 Y20.356 Z46.717
X-50.213 Y20.363 Z46.713
X-50.211 Y20.369 Z46.709
X-50.209 Y20.376 Z46.706
X-50.206 Y20.384 Z46.704
X-50.204 Y20.391 Z46.702
X-50.201 Y20.399 Z46.701
X-50.199 Y20.407 Z46.7
G3 X-51.638 Y20.831 Z46.618 I-0.719 J0.212
X-51.616 Y20.342 Z46.6 I0.719 J-0.212
G1 X-51.608 Y20.323
S15000
X-51.487 Y20.043
G3 X-50.496 Y19.647 I0.694 J0.298
G1 X-50.48 Y19.654
X-50.461 Y19.661
X-50.387 Y19.693
X-50.222 Y19.76
X-50.137 Y19.794
X-50.058 Y19.823
X-49.4 Y20.066
X-49.245 Y20.123
X-49.235 Y20.127
X-49.071 Y20.181
X-48.906 Y20.236
X-48.749 Y20.288
X-48.742 Y20.29
X-48.577 Y20.343
X-48.412 Y20.393
X-48.248 Y20.44
X-47.587 Y20.617
X-47.425 Y20.659
X-46.767 Y20.811
X-46.603 Y20.849
X-46.438 Y20.882
X-46.274 Y20.914
X-46.109 Y20.946
X-45.945 Y20.977
X-45.78 Y21.008
X-45.616 Y21.033
X-44.958 Y21.13
X-44.793 Y21.15
X-44.135 Y21.225
X-43.97 Y21.24
X-43.312 Y21.293
X-43.148 Y21.303
X-42.49 Y21.333
X-42.325 Y21.337
X-41.667 Y21.346
X-41.503 Y21.344
X-40.845 Y21.331
X-40.68 Y21.324
X-40.022 Y21.288
X-39.858 Y21.276
X-39.199 Y21.219
X-39.035 Y21.202
X-38.706 Y21.162
X-38.541 Y21.142
X-38.377 Y21.122
X-38.289 Y21.11
X-38.212 Y21.099
X-38.048 Y21.072
X-37.554 Y20.988
X-37.39 Y20.959
X-37.322 Y20.946
X-36.567 Y20.791
X-36.523 Y20.781
X-36.403 Y20.753
X-35.745 Y20.594
X-35.58 Y20.551
X-35.416 Y20.503
X-34.922 Y20.353
X-34.757 Y20.303
X-34.709 Y20.288
X-34.593 Y20.248
X-33.935 Y20.024
X-33.77 Y19.967
X-33.749 Y19.959
X-33.677 Y19.93
X-33.66 Y19.923
G3 X-32.879 Y20.255 I0.224 J0.557
G2 X-31.934 Y20.488 I0.556 J-0.224
G1 X-30.195 Y19.011
S10000
Z46.592
X-30.194 Y19.012 Z46.584
X-30.193 Z46.576
X-30.19 Z46.568
X-30.188 Y19.013 Z46.561
X-30.184 Y19.014 Z46.553
X-30.18 Y19.015 Z46.546
X-30.176 Y19.016 Z46.54
X-30.171 Y19.017 Z46.533
X-30.165 Y19.019 Z46.528
X-30.159 Y19.02 Z46.522
X-30.153 Y19.022 Z46.517
X-30.147 Y19.024 Z46.513
X-30.14 Y19.026 Z46.509
X-30.133 Y19.028 Z46.506
X-30.125 Y19.031 Z46.504
X-30.118 Y19.033 Z46.502
X-30.11 Y19.036 Z46.501
X-30.103 Y19.038 Z46.5
G3 X-30.616 Y20.448 Z46.418 I-0.257 J0.705
X-30.996 Y20.14 Z46.4 I0.257 J-0.705
G1 X-31.007 Y20.122
S15000
X-31.161 Y19.859
G3 X-30.891 Y18.826 I0.652 J-0.381
G1 X-30.887 Y18.824
X-30.809 Y18.778
X-30.644 Y18.681
X-30.626 Y18.67
G3 X-29.74 Y19.337 I0.305 J0.517
G0 Z59.
X-51.941 Y20.332
Z47.073
G1 Z46.4 F1440.
G3 X-51.112 Y19.596 I0.567 J-0.196
G1 X-51.106 Y19.599
X-51.086 Y19.609
X-51.045 Y19.628
X-51.043 Y19.629
X-50.88 Y19.699
X-50.387 Y19.9
X-50.222 Y19.967
X-50.058 Y20.033
X-49.893 Y20.094
X-49.564 Y20.216
X-49.4 Y20.276
X-49.369 Y20.288
X-49.235 Y20.335
X-49.071 Y20.388
X-48.412 Y20.587
X-48.316 Y20.617
X-48.248 Y20.636
X-47.59 Y20.812
X-47.425 Y20.856
X-47.261 Y20.895
X-47.096 Y20.933
X-47.038 Y20.946
X-46.932 Y20.97
X-46.767 Y21.005
X-46.603 Y21.041
X-46.438 Y21.072
X-45.78 Y21.19
X-45.616 Y21.217
X-44.958 Y21.313
X-44.793 Y21.335
X-44.135 Y21.409
X-43.97 Y21.425
X-43.312 Y21.477
X-43.148 Y21.487
X-42.49 Y21.518
X-42.325 Y21.522
X-41.667 Y21.53
X-41.503 Y21.529
X-40.845 Y21.515
X-40.68 Y21.508
X-40.022 Y21.472
X-39.858 Y21.46
X-39.199 Y21.402
X-39.035 Y21.384
X-38.377 Y21.304
X-38.212 Y21.282
X-37.554 Y21.18
X-37.39 Y21.153
X-37.225 Y21.121
X-37.172 Y21.11
X-37.061 Y21.088
X-36.732 Y21.02
X-36.567 Y20.986
X-36.4 Y20.946
X-35.745 Y20.788
X-35.717 Y20.781
X-35.58 Y20.744
X-35.086 Y20.608
X-34.922 Y20.562
X-34.757 Y20.511
X-33.935 Y20.231
X-33.77 Y20.171
X-33.441 Y20.047
X-33.277 Y19.984
X-33.21 Y19.959
X-33.161 Y19.939
X-33.144 Y19.932
X-33.137 Y19.929
X-33.112 Y19.919
X-32.948 Y19.851
X-32.916 Y19.837
X-32.908 Y19.834
X-32.9 Y19.83
X-32.884 Y19.823
X-32.099 Y19.465
X-31.961 Y19.401
X-31.796 Y19.32
X-31.758 Y19.3
X-31.756 Y19.299
G3 X-30.906 Y20.011 I0.278 J0.532
G0 Z59.
X-30.844 Y20.213
Z46.86
G1 Z46.2 F1440.
G3 X-30.995 Y19.115 I0.152 J-0.581
G1 X-30.988 Y19.111
X-30.315 Y18.715
X-30.255 Y18.679
X-30.251 Y18.676
G3 X-29.364 Y19.342 I0.305 J0.516
G0 Z59.
X-46.04 Y7.756
Z53.064
G1 Z52.4 F1440.
G3 X-46.098 Y6.649 I0.2 J-0.566
G1 X-46.084 Y6.642
X-46.059 Y6.63
X-45.945 Y6.575
X-45.78 Y6.486
X-45.742 Y6.466
X-45.616 Y6.396
X-45.451 Y6.305
X-45.445 Y6.301
X-45.287 Y6.205
X-45.178 Y6.137
X-45.122 Y6.101
X-44.958 Y5.987
X-44.937 Y5.972
X-44.793 Y5.867
X-44.719 Y5.808
X-44.629 Y5.733
X-44.53 Y5.643
X-44.464 Y5.581
X-44.366 Y5.478
X-44.3 Y5.402
X-44.227 Y5.314
X-44.135 Y5.191
X-44.107 Y5.149
X-44.007 Y4.985
X-43.97 Y4.918
X-43.92 Y4.82
X-43.848 Y4.656
X-43.806 Y4.541
X-43.79 Y4.491
X-43.745 Y4.327
X-43.711 Y4.162
X-43.687 Y3.998
X-43.674 Y3.833
Y3.668
X-43.684 Y3.504
X-43.704 Y3.339
X-43.734 Y3.175
X-43.777 Y3.01
X-43.806 Y2.921
X-43.833 Y2.846
X-43.9 Y2.681
X-43.97 Y2.535
X-43.98 Y2.517
X-44.077 Y2.352
X-44.135 Y2.263
X-44.187 Y2.188
X-44.3 Y2.043
X-44.317 Y2.023
X-44.463 Y1.858
X-44.464 Y1.857
X-44.629 Y1.695
X-44.63 Y1.694
X-44.793 Y1.55
X-44.818 Y1.529
X-44.958 Y1.416
X-45.025 Y1.365
X-45.122 Y1.292
X-45.25 Y1.2
X-45.287 Y1.174
X-45.451 Y1.064
X-45.494 Y1.036
X-45.616 Y0.956
X-45.761 Y0.871
X-45.78 Y0.861
X-45.945 Y0.783
X-46.109 Y0.722
X-46.156 Y0.707
X-46.274 Y0.674
X-46.438 Y0.64
X-46.603 Y0.618
X-46.767 Y0.609
X-46.932 Y0.611
X-47.096 Y0.626
X-47.261 Y0.654
X-47.425 Y0.694
X-47.468 Y0.707
X-47.59 Y0.748
X-47.754 Y0.817
X-47.863 Y0.871
X-47.919 Y0.902
X-48.083 Y1.006
X-48.126 Y1.036
X-48.248 Y1.131
X-48.326 Y1.2
X-48.412 Y1.284
X-48.487 Y1.365
X-48.577 Y1.473
X-48.621 Y1.529
X-48.742 Y1.685
X-48.748 Y1.694
X-48.874 Y1.858
X-48.906 Y1.901
X-48.996 Y2.023
X-49.033 Y2.074
X-49.052 Y2.099
X-49.065 Y2.116
G3 X-50.142 Y1.853 I-0.484 J-0.355
G0 Z59.
X-46.476 Y0.468
Z53.85
G1 Z52.9 F1440.
S10000
X-46.471 Y0.469 Z52.829
X-46.459 Y0.47 Z52.759
X-46.438 Y0.473 Z52.691
X-46.409 Y0.479 Z52.623
X-46.371 Y0.486 Z52.559
X-46.326 Y0.495 Z52.501
X-46.274 Y0.505 Z52.449
X-46.206 Y0.523 Z52.396
X-46.132 Y0.542 Z52.354
X-46.109 Y0.549 Z52.344
X-46.028 Y0.577 Z52.317
X-45.945 Y0.606 Z52.302
X-45.918 Y0.618 Z52.301
X-45.78 Y0.677 Z52.296
X-45.72 Y0.707 Z52.293
X-45.616 Y0.763 Z52.289
X-45.451 Y0.867 Z52.282
X-45.445 Y0.871
X-45.287 Y0.981 Z52.275
X-45.208 Y1.036 Z52.272
X-45.122 Y1.097 Z52.268
X-44.984 Y1.2 Z52.262
X-44.958 Y1.221 Z52.261
X-44.793 Y1.351 Z52.254
X-44.777 Y1.365 Z52.253
X-44.629 Y1.492 Z52.246
X-44.587 Y1.529 Z52.244
X-44.464 Y1.644 Z52.238
X-44.415 Y1.694 Z52.236
X-44.3 Y1.814 Z52.23
X-44.261 Y1.858 Z52.228
X-44.135 Y2.01 Z52.221
X-44.125 Y2.023
X-44.007 Y2.188 Z52.213
X-43.97 Y2.244 Z52.211
X-43.903 Y2.352 Z52.207
X-43.817 Y2.51 Z52.2
X-43.814 Y2.517
X-43.81 Y2.523
X-43.807 Y2.529
S15000
X-43.81 Y2.523
X-43.814 Y2.517
X-43.903 Y2.352
X-43.97 Y2.244
X-44.007 Y2.188
X-44.125 Y2.023
X-44.135 Y2.01
X-44.261 Y1.858
X-44.3 Y1.814
X-44.415 Y1.694
X-44.464 Y1.644
X-44.587 Y1.529
X-44.629 Y1.492
X-44.777 Y1.365
X-44.793 Y1.351
X-44.958 Y1.221
X-44.984 Y1.2
X-45.122 Y1.097
X-45.208 Y1.036
X-45.287 Y0.981
X-45.445 Y0.871
X-45.451 Y0.867
X-45.616 Y0.763
X-45.72 Y0.707
X-45.78 Y0.677
X-45.945 Y0.606
X-46.109 Y0.549
X-46.132 Y0.542
X-46.274 Y0.505
X-46.438 Y0.473
X-46.603 Y0.453
X-46.767 Y0.444
X-46.932 Y0.447
X-47.096 Y0.46
X-47.261 Y0.486
X-47.425 Y0.523
X-47.492 Y0.542
X-47.59 Y0.573
X-47.754 Y0.637
X-47.904 Y0.707
X-47.919 Y0.714
X-48.083 Y0.809
X-48.178 Y0.871
X-48.248 Y0.921
X-48.389 Y1.036
X-48.412 Y1.056
X-48.56 Y1.2
X-48.577 Y1.219
X-48.702 Y1.365
X-48.742 Y1.414
X-48.835 Y1.529
X-48.906 Y1.616
X-48.968 Y1.694
X-49.071 Y1.825
X-49.097 Y1.858
X-49.225 Y2.023
X-49.235 Y2.035
X-49.352 Y2.188
X-49.4 Y2.25
X-49.477 Y2.352
X-49.564 Y2.468
X-49.726 Y2.681
X-49.729 Y2.685
X-49.759 Y2.725
X-49.775 Y2.745
X-49.784 Y2.756
G3 X-50.851 Y2.457 I-0.472 J-0.371
G0 Z59.
X-47.183 Y8.363
Z52.865
G1 Z52.2 F1440.
G3 X-47.09 Y7.258 I0.275 J-0.533
G1 X-47.076 Y7.254
X-47.055 Y7.247
X-47.014 Y7.234
X-46.932 Y7.207
X-46.767 Y7.146
X-46.712 Y7.124
X-46.603 Y7.08
X-46.438 Y7.012
X-46.317 Y6.959
X-46.274 Y6.939
X-46.109 Y6.86
X-45.98 Y6.795
X-45.945 Y6.776
X-45.78 Y6.689
X-45.678 Y6.63
X-45.616 Y6.594
X-45.451 Y6.497
X-45.398 Y6.466
X-45.287 Y6.399
X-45.137 Y6.301
X-45.122 Y6.291
X-44.958 Y6.18
X-44.898 Y6.137
X-44.793 Y6.06
X-44.677 Y5.972
X-44.629 Y5.932
X-44.483 Y5.808
X-44.464 Y5.79
X-44.314 Y5.643
X-44.3 Y5.628
X-44.168 Y5.478
X-44.135 Y5.438
X-44.039 Y5.314
X-43.97 Y5.214
X-43.93 Y5.149
X-43.838 Y4.985
X-43.806 Y4.924
X-43.756 Y4.82
X-43.689 Y4.656
X-43.641 Y4.513
X-43.635 Y4.491
X-43.593 Y4.327
X-43.561 Y4.162
X-43.538 Y3.998
X-43.526 Y3.833
Y3.814
X-43.525 Y3.796
Y3.787
Y3.778
Y3.77
Y3.765
X-43.524 Y3.67 Z52.219
X-43.523 Y3.58 Z52.253
X-43.522 Y3.496 Z52.301
X-43.521 Y3.421 Z52.362
X-43.52 Y3.356 Z52.435
X-43.519 Y3.304 Z52.516
Y3.266 Z52.605
Y3.243 Z52.699
Y3.235 Z52.796
G0 Z59.
X-45.637 Y0.317
Z53.545
G1 Z52.499 F1440.
X-45.635 Z52.456
X-45.63 Y0.319 Z52.412
X-45.621 Y0.322 Z52.37
X-45.609 Y0.327 Z52.328
X-45.593 Y0.334 Z52.288
X-45.576 Y0.343 Z52.25
X-45.556 Y0.355 Z52.213
X-45.534 Y0.371 Z52.178
X-45.512 Y0.39 Z52.146
X-45.49 Y0.414 Z52.117
X-45.469 Y0.441 Z52.09
X-45.45 Y0.473 Z52.067
X-45.435 Y0.508 Z52.047
X-45.423 Y0.546 Z52.03
X-45.416 Y0.587 Z52.017
X-45.414 Y0.63 Z52.008
X-45.419 Y0.673 Z52.002
X-45.429 Y0.715 Z52.
X-45.433 Y0.712
X-45.442 Y0.707
X-45.451 Y0.7
X-45.616 Y0.604
X-45.74 Y0.542
X-45.78 Y0.524
X-45.945 Y0.457
X-46.109 Y0.404
X-46.208 Y0.377
X-46.274 Y0.362
X-46.438 Y0.332
X-46.603 Y0.313
X-46.767 Y0.305
X-46.932 Y0.307
X-47.096 Y0.321
X-47.261 Y0.345
X-47.416 Y0.377
X-47.425 Y0.38
X-47.59 Y0.427
X-47.754 Y0.486
X-47.884 Y0.542
X-47.919 Y0.559
X-48.083 Y0.646
X-48.182 Y0.707
X-48.248 Y0.75
X-48.41 Y0.871
X-48.412 Y0.873
X-48.577 Y1.019
X-48.594 Y1.036
X-48.742 Y1.195
X-48.746 Y1.2
X-48.885 Y1.365
X-48.906 Y1.389
X-49.024 Y1.529
X-49.071 Y1.586
X-49.159 Y1.694
X-49.235 Y1.788
X-49.292 Y1.858
X-49.4 Y1.989
X-49.427 Y2.023
X-49.559 Y2.188
X-49.691 Y2.352
X-49.729 Y2.398
X-49.825 Y2.517
X-49.893 Y2.599
X-49.963 Y2.681
X-50.058 Y2.791
X-50.107 Y2.846
X-50.222 Y2.971
X-50.259 Y3.01
X-50.29 Y3.043
X-50.307 Y3.061
G3 X-51.345 Y2.671 I-0.438 J-0.41
G0 Z59.
X-47.061 Y-0.342
Z53.129
G1 Z51.8 F1440.
G3 X-46.636 Y0.194 I0.04 J0.405
G1 X-46.639
X-46.652 Y0.193
X-46.685 Y0.191
X-46.767 Y0.189
X-46.932 Y0.191
X-47.096 Y0.204
X-47.171 Y0.213
X-47.261 Y0.227
X-47.425 Y0.26
X-47.59 Y0.305
X-47.754 Y0.362
X-47.795 Y0.377
X-47.919 Y0.431
X-48.083 Y0.513
X-48.135 Y0.542
X-48.248 Y0.611
X-48.387 Y0.707
X-48.412 Y0.726
X-48.577 Y0.861
X-48.588 Y0.871
X-48.742 Y1.021
X-48.755 Y1.036
X-48.901 Y1.2
X-48.906 Y1.206
X-49.044 Y1.365
X-49.071 Y1.396
X-49.185 Y1.529
X-49.235 Y1.589
X-49.324 Y1.694
X-49.4 Y1.782
X-49.464 Y1.858
X-49.564 Y1.978
X-49.602 Y2.023
X-49.729 Y2.174
X-49.74 Y2.188
X-49.881 Y2.352
X-49.893 Y2.366
X-50.028 Y2.517
X-50.058 Y2.55
X-50.182 Y2.681
X-50.222 Y2.723
X-50.349 Y2.846
X-50.387 Y2.881
X-50.531 Y3.01
X-50.551 Y3.027
X-50.716 Y3.166
X-50.727 Y3.175
X-50.741 Y3.186
G3 X-51.716 Y2.659 I-0.378 J-0.466
G0 Z59.
X-50.264 Y2.563
Z53.363
G1 Z52.3 F1440.
S10000
X-50.259 Y2.558 Z52.213
X-50.245 Y2.545 Z52.128
X-50.222 Y2.524 Z52.046
X-50.215 Y2.517 Z52.024
X-50.184 Y2.486 Z51.954
X-50.148 Y2.449 Z51.89
X-50.105 Y2.405 Z51.833
X-50.058 Y2.357 Z51.786
X-50.053 Y2.352 Z51.782
X-50.005 Y2.3 Z51.747
X-49.953 Y2.245 Z51.721
X-49.901 Y2.188 Z51.705
X-49.893 Y2.179 Z51.704
X-49.863 Y2.145 Z51.701
X-49.754 Y2.023 Z51.695
X-49.729 Y1.994 Z51.694
X-49.61 Y1.858 Z51.687
X-49.564 Y1.805 Z51.685
X-49.467 Y1.694 Z51.68
X-49.4 Y1.619 Z51.676
X-49.322 Y1.529 Z51.672
X-49.235 Y1.43 Z51.668
X-49.178 Y1.365 Z51.664
X-49.071 Y1.244 Z51.659
X-49.031 Y1.2 Z51.657
X-48.906 Y1.06 Z51.65
X-48.884 Y1.036 Z51.649
X-48.742 Y0.884 Z51.642
X-48.728 Y0.871 Z51.641
X-48.577 Y0.735 Z51.634
X-48.543 Y0.707 Z51.632
X-48.412 Y0.607 Z51.627
X-48.317 Y0.542 Z51.623
X-48.248 Y0.498 Z51.62
X-48.083 Y0.405 Z51.613
X-48.03 Y0.377 Z51.611
X-47.919 Y0.326 Z51.607
X-47.754 Y0.26 Z51.601
X-47.745 Y0.256 Z51.6
X-47.738 Y0.254
X-47.73 Y0.251
X-47.725 Y0.249
S15000
X-47.73 Y0.251
X-47.738 Y0.254
X-47.754 Y0.26
X-47.919 Y0.326
X-48.03 Y0.377
X-48.083 Y0.405
X-48.248 Y0.498
X-48.317 Y0.542
X-48.412 Y0.607
X-48.543 Y0.707
X-48.577 Y0.735
X-48.728 Y0.871
X-48.742 Y0.884
X-48.884 Y1.036
X-48.906 Y1.06
X-49.031 Y1.2
X-49.071 Y1.244
X-49.178 Y1.365
X-49.235 Y1.43
X-49.322 Y1.529
X-49.4 Y1.619
X-49.467 Y1.694
X-49.564 Y1.805
X-49.61 Y1.858
X-49.729 Y1.994
X-49.754 Y2.023
X-49.893 Y2.179
X-49.901 Y2.188
X-50.053 Y2.352
X-50.058 Y2.357
X-50.215 Y2.517
X-50.222 Y2.524
X-50.387 Y2.677
X-50.392 Y2.681
X-50.551 Y2.814
X-50.592 Y2.846
X-50.716 Y2.941
X-50.811 Y3.01
X-50.88 Y3.061
X-51.039 Y3.175
X-51.045 Y3.179
X-51.209 Y3.298
X-51.222 Y3.307
G3 X-52.165 Y2.724 I-0.351 J-0.487
G0 Z59.
X-51.275 Y3.12
Z53.029
G1 Z52.1 F1440.
S10000
X-51.271 Y3.118 Z52.023
X-51.258 Y3.11 Z51.947
X-51.238 Y3.096 Z51.874
X-51.209 Y3.078 Z51.804
X-51.179 Y3.059 Z51.748
X-51.143 Y3.036 Z51.696
X-51.103 Y3.01 Z51.649
X-51.045 Y2.972 Z51.597
X-50.993 Y2.939 Z51.562
X-50.938 Y2.904 Z51.534
X-50.88 Y2.867 Z51.515
X-50.849 Y2.846 Z51.508
X-50.789 Y2.806 Z51.501
X-50.716 Y2.757 Z51.498
X-50.609 Y2.681 Z51.493
X-50.551 Y2.639 Z51.491
X-50.396 Y2.517 Z51.484
X-50.387 Y2.508 Z51.483
X-50.222 Y2.362 Z51.476
X-50.212 Y2.352 Z51.475
X-50.058 Y2.2 Z51.468
X-50.045 Y2.188 Z51.467
X-49.893 Y2.027 Z51.459
X-49.889 Y2.023
X-49.738 Y1.858 Z51.451
X-49.729 Y1.848
X-49.59 Y1.694 Z51.443
X-49.564 Y1.665 Z51.442
X-49.44 Y1.529 Z51.436
X-49.4 Y1.484 Z51.434
X-49.292 Y1.365 Z51.428
X-49.235 Y1.301 Z51.425
X-49.143 Y1.2 Z51.42
X-49.071 Y1.121 Z51.416
X-48.993 Y1.036 Z51.412
X-48.906 Y0.942 Z51.408
X-48.84 Y0.871 Z51.405
X-48.754 Y0.787 Z51.4
X-48.742 Y0.775
X-48.739 Y0.773
S15000
X-48.742 Y0.775
X-48.84 Y0.871
X-48.906 Y0.942
X-48.993 Y1.036
X-49.071 Y1.121
X-49.143 Y1.2
X-49.235 Y1.301
X-49.292 Y1.365
X-49.4 Y1.484
X-49.44 Y1.529
X-49.564 Y1.665
X-49.59 Y1.694
X-49.729 Y1.848
X-49.738 Y1.858
X-49.889 Y2.023
X-49.893 Y2.027
X-50.045 Y2.188
X-50.058 Y2.2
X-50.212 Y2.352
X-50.222 Y2.362
X-50.387 Y2.508
X-50.396 Y2.517
X-50.551 Y2.639
X-50.609 Y2.681
X-50.716 Y2.757
X-50.849 Y2.846
X-50.88 Y2.867
X-51.045 Y2.972
X-51.103 Y3.01
X-51.209 Y3.078
X-51.359 Y3.175
X-51.374 Y3.184
X-51.538 Y3.291
X-51.611 Y3.339
X-51.703 Y3.401
X-51.722 Y3.414
G3 X-52.651 Y2.81 I-0.339 J-0.495
G0 Z59.
X-51.881 Y3.287
Z52.806
G1 Z51.9 F1440.
S10000
X-51.886 Y3.291 Z51.812
X-51.903 Y3.301 Z51.726
X-51.93 Y3.317 Z51.644
X-51.968 Y3.339 Z51.567
X-51.998 Y3.357 Z51.52
X-52.032 Y3.378 Z51.476
X-52.071 Y3.401 Z51.434
X-52.114 Y3.427 Z51.398
X-52.155 Y3.452 Z51.37
X-52.178 Y3.466 Z51.356
X-52.18 Y3.467
X-52.178 Y3.466 Z51.355
X-52.155 Y3.452 Z51.343
X-52.114 Y3.427 Z51.326
X-52.073 Y3.402 Z51.314
X-52.032 Y3.378 Z51.306
X-51.982 Y3.348 Z51.301
X-51.968 Y3.339 Z51.3
X-51.867 Y3.279 Z51.296
X-51.703 Y3.183 Z51.289
X-51.688 Y3.175
X-51.538 Y3.087 Z51.283
X-51.404 Y3.01 Z51.277
X-51.374 Y2.992 Z51.276
X-51.209 Y2.897 Z51.269
X-51.119 Y2.846 Z51.266
X-51.045 Y2.802 Z51.263
X-50.88 Y2.706 Z51.256
X-50.841 Y2.681 Z51.255
X-50.716 Y2.604 Z51.249
X-50.584 Y2.517 Z51.244
X-50.551 Y2.495 Z51.243
X-50.387 Y2.37 Z51.235
X-50.365 Y2.352 Z51.234
X-50.222 Y2.229 Z51.228
X-50.176 Y2.188 Z51.226
X-50.058 Y2.072 Z51.22
X-50.008 Y2.023 Z51.217
X-49.893 Y1.904 Z51.212
X-49.849 Y1.858 Z51.209
X-49.729 Y1.729 Z51.203
X-49.696 Y1.694 Z51.202
X-49.676 Y1.673 Z51.201
X-49.673 Y1.669 Z51.2
X-49.667 Y1.663
X-49.658 Y1.654
S15000
X-49.667 Y1.663
X-49.676 Y1.673
X-49.696 Y1.694
X-49.729 Y1.729
X-49.849 Y1.858
X-49.893 Y1.904
X-50.008 Y2.023
X-50.058 Y2.072
X-50.176 Y2.188
X-50.222 Y2.229
X-50.365 Y2.352
X-50.387 Y2.37
X-50.551 Y2.495
X-50.584 Y2.517
X-50.716 Y2.604
X-50.841 Y2.681
X-50.88 Y2.706
X-51.045 Y2.802
X-51.119 Y2.846
X-51.209 Y2.897
X-51.374 Y2.992
X-51.404 Y3.01
X-51.538 Y3.087
X-51.688 Y3.175
X-51.703 Y3.183
X-51.867 Y3.279
X-51.968 Y3.339
X-52.032 Y3.378
X-52.114 Y3.427
X-52.155 Y3.452
X-52.178 Y3.466
X-52.18 Y3.467
G3 X-53.078 Y2.817 I-0.315 J-0.511
G0 Z59.
X-50.645 Y2.098
Z52.8
G1 Z51.064 F1440.
X-50.64 Z51.04
X-50.626 Y2.099 Z51.019
X-50.605 Z51.005
X-50.581 Y2.1 Z51.
X-50.535 Y2.107
X-50.494 Y2.125
X-50.458 Y2.154
X-50.431 Y2.191
X-50.414 Y2.233
X-50.409 Y2.279
X-50.434 Y2.298
X-50.46 Y2.316
X-50.511 Y2.352
X-50.551 Y2.38
X-50.633 Y2.431
X-50.716 Y2.482
X-50.776 Y2.517
X-50.88 Y2.576
X-51.045 Y2.664
X-51.075 Y2.681
X-51.209 Y2.751
X-51.374 Y2.838
X-51.388 Y2.846
X-51.538 Y2.923
X-51.703 Y3.009
X-51.705 Y3.01
X-51.867 Y3.094
X-52.022 Y3.175
X-52.032 Y3.18
X-52.196 Y3.266
X-52.34 Y3.339
X-52.361 Y3.35
X-52.443 Y3.392
X-52.459 Y3.399
X-52.461 Y3.4
G3 X-53.277 Y2.65 I-0.253 J-0.544
G0 Z59.
X-51.092 Y2.573
Z52.803
G1 Z51.5 F1440.
S10000
X-51.087 Y2.57 Z51.417
X-51.071 Y2.563 Z51.334
X-51.045 Y2.55 Z51.255
X-51.035 Y2.545 Z51.231
X-51.045 Y2.55 Z51.21
X-51.09 Y2.572 Z51.133
X-51.145 Y2.599 Z51.065
X-51.209 Y2.63 Z51.008
X-51.261 Y2.655 Z50.972
X-51.315 Y2.681 Z50.944
X-51.374 Y2.709 Z50.922
X-51.436 Y2.738 Z50.907
X-51.499 Y2.768 Z50.901
X-51.538 Y2.786 Z50.899
X-51.664 Y2.846 Z50.894
X-51.703 Y2.863 Z50.893
X-51.867 Y2.94 Z50.887
X-52.021 Y3.01 Z50.881
X-52.196 Y3.09 Z50.874
X-52.361 Y3.162 Z50.868
X-52.395 Y3.175 Z50.866
X-52.525 Y3.222 Z50.862
X-52.567 Y3.235 Z50.86
X-52.59 Y3.242 Z50.859
X-52.567 Y3.235 Z50.858
X-52.525 Y3.222 Z50.857
X-52.395 Y3.175 Z50.852
X-52.361 Y3.162 Z50.851
X-52.196 Y3.09 Z50.844
X-52.021 Y3.01 Z50.838
X-51.867 Y2.94 Z50.832
X-51.703 Y2.863 Z50.825
X-51.664 Y2.846 Z50.824
X-51.538 Y2.786 Z50.819
X-51.374 Y2.709 Z50.813
X-51.315 Y2.681 Z50.811
X-51.209 Y2.63 Z50.806
X-51.053 Y2.554 Z50.8
X-51.045 Y2.55
X-51.035 Y2.545
S15000
X-51.045 Y2.55
X-51.209 Y2.63
X-51.315 Y2.681
X-51.374 Y2.709
X-51.538 Y2.786
X-51.664 Y2.846
X-51.703 Y2.863
X-51.867 Y2.94
X-52.021 Y3.01
X-52.196 Y3.09
X-52.361 Y3.162
X-52.395 Y3.175
X-52.525 Y3.222
X-52.567 Y3.235
X-52.59 Y3.242
G0 Z59.
X-52.451 Y2.162
Z51.58
G1 Z50.6 F1440.
G3 X-51.641 Y2.714 I0.21 J0.562
G1 X-51.655 Y2.719
X-51.671 Y2.726
X-51.703 Y2.739
X-51.867 Y2.809
X-51.961 Y2.846
X-52.032 Y2.874
X-52.196 Y2.939
X-52.361 Y2.997
X-52.403 Y3.01
X-52.464 Y3.024
X-52.466 Y3.025
X-52.468
X-52.479
X-52.495 Y3.026
X-52.525 Y3.025
X-52.546
G3 X-52.955 Y1.994 I0.009 J-0.6
G0 Z59.
X-52.463 Y2.84
Z52.212
G1 Z51.1 F1440.
S10000
X-52.47 Y2.839 Z51.008
X-52.491 Y2.837 Z50.918
X-52.525 Y2.832 Z50.833
X-52.57 Y2.828 Z50.757
X-52.625 Y2.822 Z50.689
X-52.69 Y2.815 Z50.629
X-52.73 Y2.809 Z50.6
X-52.772 Y2.804 Z50.574
X-52.793 Y2.801 Z50.563
X-52.811 Y2.799 Z50.555
X-52.793 Y2.801 Z50.547
X-52.772 Y2.804 Z50.539
X-52.69 Y2.815 Z50.514
X-52.637 Y2.82 Z50.505
X-52.584 Y2.826 Z50.501
X-52.525 Y2.832 Z50.499
X-52.416 Y2.846 Z50.495
X-52.361 Y2.851 Z50.493
X-52.349 Y2.852 Z50.492
X-52.348
X-52.338 Y2.85
X-52.317 Y2.846 Z50.491
X-52.316
X-52.314
X-52.196 Y2.812 Z50.487
X-52.194
X-52.196
X-52.314 Y2.846 Z50.483
X-52.316 Z50.482
X-52.317
X-52.338 Y2.85
X-52.348 Y2.852 Z50.481
X-52.349
X-52.361 Y2.851
X-52.416 Y2.846 Z50.479
X-52.525 Y2.832 Z50.475
X-52.69 Y2.815 Z50.469
X-52.772 Y2.804 Z50.466
X-52.793 Y2.801
X-52.811 Y2.799 Z50.465
X-52.793 Y2.801 Z50.464
X-52.772 Y2.804
X-52.69 Y2.815 Z50.461
X-52.525 Y2.832 Z50.455
X-52.416 Y2.846 Z50.451
X-52.361 Y2.851 Z50.449
X-52.349 Y2.852
X-52.348
X-52.338 Y2.85 Z50.448
X-52.317 Y2.846
X-52.316
X-52.314
X-52.196 Y2.812 Z50.443
X-52.194
X-52.196
X-52.314 Y2.846 Z50.439
X-52.316
X-52.317
X-52.338 Y2.85 Z50.438
X-52.348 Y2.852
X-52.349
X-52.361 Y2.851 Z50.437
X-52.416 Y2.846 Z50.435
X-52.525 Y2.832 Z50.431
X-52.69 Y2.815 Z50.426
X-52.772 Y2.804 Z50.423
X-52.793 Y2.801 Z50.422
X-52.811 Y2.799 Z50.421
X-52.793 Y2.801
X-52.772 Y2.804 Z50.42
X-52.69 Y2.815 Z50.417
X-52.525 Y2.832 Z50.411
X-52.416 Y2.846 Z50.408
X-52.361 Y2.851 Z50.406
X-52.349 Y2.852 Z50.405
X-52.348
X-52.338 Y2.85
X-52.317 Y2.846 Z50.404
X-52.316
X-52.314
X-52.214 Y2.818 Z50.4
X-52.196 Y2.812
X-52.194
S15000
X-52.196
X-52.314 Y2.846
X-52.316
X-52.317
X-52.338 Y2.85
X-52.348 Y2.852
X-52.349
X-52.361 Y2.851
X-52.416 Y2.846
X-52.525 Y2.832
X-52.69 Y2.815
X-52.772 Y2.804
X-52.793 Y2.801
X-52.811 Y2.799
G3 X-53.107 Y1.731 I0.073 J-0.596
G0 Z59.
X-53.142 Y2.556
Z51.762
G1 Z50.9 F1440.
S10000
X-53.137 Y2.557 Z50.822
X-53.121 Y2.559 Z50.745
X-53.096 Y2.563 Z50.671
X-53.062 Y2.569 Z50.6
X-53.019 Y2.575 Z50.535
X-52.97 Y2.584 Z50.478
X-52.915 Y2.594 Z50.428
X-52.854 Y2.604 Z50.386
X-52.783 Y2.616 Z50.349
X-52.748 Y2.623 Z50.335
X-52.73 Y2.626 Z50.329
X-52.716 Y2.628 Z50.324
X-52.73 Y2.626 Z50.32
X-52.748 Y2.623 Z50.316
X-52.783 Y2.616 Z50.309
X-52.854 Y2.604 Z50.301
X-52.861 Y2.603
X-53.019 Y2.575 Z50.295
X-53.184 Y2.549 Z50.289
X-53.204 Y2.546
X-53.216 Y2.544 Z50.288
X-53.204 Y2.546
X-53.184 Y2.549 Z50.287
X-53.019 Y2.575 Z50.281
X-52.854 Y2.604 Z50.275
X-52.783 Y2.616 Z50.273
X-52.748 Y2.623 Z50.272
X-52.73 Y2.626 Z50.271
X-52.716 Y2.628 Z50.27
X-52.73 Y2.626
X-52.748 Y2.623 Z50.269
X-52.783 Y2.616 Z50.268
X-52.854 Y2.604 Z50.266
X-53.019 Y2.575 Z50.26
X-53.184 Y2.549 Z50.254
X-53.204 Y2.546 Z50.253
X-53.216 Y2.544
X-53.204 Y2.546 Z50.252
X-53.184 Y2.549
X-53.019 Y2.575 Z50.246
X-52.854 Y2.604 Z50.24
X-52.783 Y2.616 Z50.237
X-52.748 Y2.623 Z50.236
X-52.73 Y2.626
X-52.716 Y2.628 Z50.235
X-52.73 Y2.626
X-52.748 Y2.623 Z50.234
X-52.783 Y2.616 Z50.233
X-52.854 Y2.604 Z50.23
X-53.019 Y2.575 Z50.224
X-53.184 Y2.549 Z50.218
X-53.204 Y2.546
X-53.216 Y2.544 Z50.217
X-53.204 Y2.546
X-53.184 Y2.549 Z50.216
X-53.019 Y2.575 Z50.21
X-52.854 Y2.604 Z50.205
X-52.783 Y2.616 Z50.202
X-52.748 Y2.623 Z50.201
X-52.736 Y2.625 Z50.2
X-52.73 Y2.626
X-52.716 Y2.628
S15000
X-52.73 Y2.626
X-52.748 Y2.623
X-52.783 Y2.616
X-52.854 Y2.604
X-53.019 Y2.575
X-53.184 Y2.549
X-53.204 Y2.546
X-53.216 Y2.544
G3 X-53.481 Y1.468 I0.09 J-0.593
G0 Z59.
X-53.476 Y2.076
Z51.407
G1 Z50.432 F1440.
X-53.474 Z50.392
X-53.469 Z50.352
X-53.459 Y2.077 Z50.314
X-53.447 Y2.078 Z50.276
X-53.431 Y2.081 Z50.239
X-53.412 Y2.085 Z50.204
X-53.39 Y2.092 Z50.172
X-53.367 Y2.101 Z50.141
X-53.342 Y2.114 Z50.113
X-53.316 Y2.131 Z50.087
X-53.291 Y2.152 Z50.065
X-53.268 Y2.178 Z50.045
X-53.247 Y2.208 Z50.029
X-53.229 Y2.241 Z50.016
X-53.217 Y2.278 Z50.007
X-53.209 Y2.317 Z50.002
X-53.207 Y2.356 Z50.
X-53.217 Y2.354
X-53.229 Y2.352
X-53.348 Y2.329
X-53.513 Y2.298
X-53.554 Y2.29
X-53.574 Y2.286
X-53.583 Y2.284
X-53.67 Y2.268 Z50.014
X-53.754 Y2.253 Z50.04
X-53.834 Y2.238 Z50.079
X-53.906 Y2.224 Z50.13
X-53.971 Y2.212 Z50.191
X-54.026 Y2.202 Z50.261
X-54.07 Y2.194 Z50.338
X-54.102 Y2.188 Z50.422
X-54.121 Y2.184 Z50.509
X-54.128 Y2.183 Z50.598
G0 Z59.
X-53.681 Y2.068
Z51.402
G1 Z50.5 F1440.
S10000
X-53.688 Y2.066 Z50.405
X-53.71 Y2.06 Z50.311
X-53.746 Y2.051 Z50.223
X-53.796 Y2.039 Z50.142
X-53.857 Y2.023 Z50.069
X-53.876 Y2.018 Z50.052
X-53.857 Y2.023 Z50.035
X-53.801 Y2.037 Z49.994
X-53.741 Y2.053 Z49.959
X-53.677 Y2.069 Z49.932
X-53.665 Y2.072 Z49.928
X-53.677 Y2.069 Z49.924
X-53.747 Y2.051 Z49.908
X-53.819 Y2.033 Z49.901
X-53.857 Y2.023 Z49.899
X-53.876 Y2.018
X-53.857 Y2.023 Z49.898
X-53.677 Y2.069 Z49.892
X-53.665 Y2.072 Z49.891
X-53.677 Y2.069
X-53.857 Y2.023 Z49.884
X-53.876 Y2.018 Z49.883
X-53.857 Y2.023
X-53.677 Y2.069 Z49.876
X-53.665 Y2.072
X-53.677 Y2.069 Z49.875
X-53.857 Y2.023 Z49.869
X-53.876 Y2.018 Z49.868
X-53.857 Y2.023
X-53.677 Y2.069 Z49.861
X-53.665 Y2.072
X-53.677 Y2.069 Z49.86
X-53.857 Y2.023 Z49.854
X-53.876 Y2.018 Z49.853
X-53.857 Y2.023 Z49.852
X-53.677 Y2.069 Z49.846
X-53.665 Y2.072 Z49.845
X-53.677 Y2.069
X-53.857 Y2.023 Z49.838
X-53.876 Y2.018
X-53.857 Y2.023 Z49.837
X-53.677 Y2.069 Z49.831
X-53.665 Y2.072 Z49.83
X-53.677 Y2.069
X-53.857 Y2.023 Z49.823
X-53.876 Y2.018 Z49.822
X-53.857 Y2.023
X-53.677 Y2.069 Z49.815
X-53.665 Y2.072
X-53.677 Y2.069 Z49.814
X-53.857 Y2.023 Z49.808
X-53.876 Y2.018 Z49.807
X-53.857 Y2.023
X-53.685 Y2.067 Z49.8
X-53.677 Y2.069
X-53.665 Y2.072
S15000
X-53.677 Y2.069
X-53.857 Y2.023
X-53.876 Y2.018
G3 X-54.124 Y1.59 I0.084 J-0.335
G0 Z59.
X-55.138 Y0.601
Z50.548
G1 Z49.661 F1440.
X-55.136 Z49.619
X-55.13 Z49.577
X-55.12 Y0.603 Z49.535
X-55.107 Y0.605 Z49.495
X-55.09 Y0.609 Z49.456
X-55.07 Y0.616 Z49.419
X-55.048 Y0.624 Z49.383
X-55.024 Y0.637 Z49.351
X-54.998 Y0.653 Z49.32
X-54.972 Y0.673 Z49.293
X-54.948 Y0.698 Z49.269
X-54.925 Y0.727 Z49.248
X-54.905 Y0.761 Z49.231
X-54.889 Y0.798 Z49.218
X-54.879 Y0.838 Z49.208
X-54.874 Y0.88 Z49.202
X-54.875 Y0.923 Z49.2
X-54.879 Y0.921
X-54.886 Y0.919
X-54.9 Y0.915
X-54.931 Y0.906
X-54.993 Y0.89
X-55.074 Y0.871
X-55.089 Y0.868
X-55.176 Y0.85 Z49.214
X-55.26 Y0.833 Z49.24
X-55.338 Y0.816 Z49.279
X-55.411 Y0.801 Z49.33
X-55.475 Y0.788 Z49.391
X-55.529 Y0.777 Z49.461
X-55.573 Y0.767 Z49.538
X-55.605 Y0.761 Z49.622
X-55.624 Y0.757 Z49.709
X-55.631 Y0.755 Z49.798
G0 Z59.
X-53.242 Y19.656
Z47.073
G1 Z46.4 F1440.
G3 X-52.378 Y18.962 I0.576 J-0.168
G1 X-52.371 Y18.966
X-52.361 Y18.971
X-52.196 Y19.059
X-52.032 Y19.146
X-51.95 Y19.188
X-51.929 Y19.198
X-51.919 Y19.203
G3 X-51.988 Y20.31 I-0.264 J0.539
G0 Z59.
X-53.663 Y19.65
Z46.859
G1 Z46.2 F1440.
G3 X-52.799 Y18.955 I0.576 J-0.168
G1 X-52.791 Y18.96
X-52.77 Y18.971
X-52.69 Y19.014
X-52.032 Y19.361
X-51.867 Y19.447
X-51.849 Y19.456
X-51.84 Y19.46
X-51.831 Y19.465
X-51.574 Y19.59
X-51.559 Y19.598
X-51.538 Y19.607
X-51.492 Y19.629
X-51.374 Y19.684
X-51.209 Y19.757
X-51.045 Y19.83
X-50.88 Y19.902
X-50.058 Y20.237
X-49.923 Y20.288
X-49.893 Y20.298
X-49.729 Y20.356
X-49.235 Y20.523
X-49.071 Y20.577
X-48.398 Y20.781
X-48.248 Y20.826
X-48.083 Y20.871
X-47.919 Y20.915
X-47.801 Y20.946
X-47.754 Y20.958
X-47.59 Y20.999
X-47.425 Y21.04
X-47.261 Y21.077
X-46.603 Y21.217
X-46.438 Y21.25
X-45.78 Y21.368
X-45.616 Y21.395
X-44.958 Y21.492
X-44.793 Y21.514
X-44.629 Y21.533
X-44.464 Y21.551
X-44.3 Y21.57
X-44.135 Y21.588
X-43.97 Y21.603
X-43.806 Y21.616
X-43.641 Y21.628
X-43.312 Y21.653
X-43.148 Y21.662
X-42.49 Y21.691
X-42.325 Y21.695
X-41.667 Y21.704
X-41.503 Y21.703
X-40.845 Y21.691
X-40.68 Y21.684
X-40.516 Y21.676
X-40.351 Y21.668
X-40.187 Y21.659
X-40.022 Y21.651
X-39.858 Y21.638
X-39.693 Y21.624
X-39.528 Y21.61
X-39.199 Y21.581
X-39.035 Y21.562
X-38.377 Y21.482
X-38.212 Y21.458
X-37.554 Y21.357
X-37.39 Y21.328
X-36.732 Y21.205
X-36.567 Y21.172
X-36.403 Y21.135
X-36.299 Y21.11
X-36.238 Y21.096
X-35.909 Y21.017
X-35.745 Y20.976
X-35.633 Y20.946
X-34.922 Y20.75
X-34.757 Y20.701
X-34.487 Y20.617
X-34.428 Y20.598
X-34.264 Y20.545
X-34.099 Y20.489
X-33.992 Y20.452
X-33.935 Y20.432
X-33.77 Y20.37
X-33.112 Y20.121
X-32.948 Y20.057
X-32.783 Y19.988
X-32.714 Y19.959
X-32.619 Y19.916
X-32.351 Y19.794
X-32.125 Y19.691
X-31.994 Y19.629
X-31.467 Y19.369
X-31.4 Y19.335
X-31.367 Y19.318
X-31.35 Y19.309
X-31.346 Y19.307
G3 X-30.536 Y19.561 I0.278 J0.532
G2 X-29.546 Y19.671 I0.532 J-0.278
G1 X-28.312 Y18.209
S10000
Z46.192
X-28.311 Z46.184
X-28.31 Z46.176
X-28.307 Z46.168
X-28.304 Y18.21 Z46.161
X-28.301 Z46.153
X-28.297 Y18.211 Z46.146
X-28.292 Z46.14
X-28.287 Y18.212 Z46.133
X-28.282 Y18.213 Z46.128
X-28.276 Y18.214 Z46.122
X-28.269 Y18.215 Z46.117
X-28.263 Y18.216 Z46.113
X-28.256 Y18.218 Z46.109
X-28.248 Y18.219 Z46.106
X-28.241 Y18.221 Z46.104
X-28.233 Y18.223 Z46.102
X-28.225 Y18.225 Z46.101
X-28.218 Y18.227 Z46.1
G3 X-28.593 Y19.679 Z46.018 I-0.187 J0.726
X-29. Y19.409 Z46. I0.187 J-0.726
G1 X-29.013 Y19.392
S15000
X-29.192 Y19.145
G3 X-29.022 Y18.091 I0.612 J-0.442
G1 X-29.012 Y18.084
X-28.999 Y18.074
X-28.877 Y17.984
X-28.835 Y17.952
X-28.824 Y17.944
X-28.819 Y17.94
G3 X-27.86 Y18.496 I0.365 J0.476
G0 Z59.
X-40.077 Y8.305
Z52.875
G1 Z52.542 F1440.
Y8.307 Z52.483
X-40.078 Y8.313 Z52.424
Y8.322 Z52.366
X-40.08 Y8.335 Z52.308
X-40.081 Y8.351 Z52.251
X-40.084 Y8.371 Z52.196
X-40.088 Y8.394 Z52.141
X-40.094 Y8.42 Z52.088
X-40.102 Y8.449 Z52.037
X-40.113 Y8.481 Z51.989
X-40.126 Y8.515 Z51.942
X-40.143 Y8.55 Z51.897
X-40.163 Y8.587 Z51.855
X-40.188 Y8.624 Z51.816
X-40.216 Y8.661 Z51.78
X-40.249 Y8.697 Z51.747
X-40.286 Y8.732 Z51.717
X-40.328 Y8.764 Z51.69
X-40.374 Y8.794 Z51.666
X-40.423 Y8.82 Z51.646
X-40.475 Y8.841 Z51.63
X-40.531 Y8.858 Z51.617
X-40.588 Y8.869 Z51.607
X-40.647 Y8.875 Z51.602
X-40.706 Z51.6
X-40.845 Y8.869
X-41.009 Y8.861
X-41.174 Y8.853
X-41.338 Y8.851
X-41.667 Y8.846
X-41.832 Y8.845
X-42.325 Y8.851
X-42.49 Y8.857
X-42.654 Y8.863
X-42.819 Y8.87
X-42.983 Y8.878
X-43.001 Y8.879
X-43.061 Z51.602
X-43.119 Y8.874 Z51.607
X-43.177 Y8.863 Z51.617
X-43.232 Y8.847 Z51.63
X-43.285 Y8.826 Z51.646
X-43.335 Y8.801 Z51.666
X-43.38 Y8.772 Z51.69
X-43.422 Y8.74 Z51.717
X-43.46 Y8.705 Z51.747
X-43.493 Y8.67 Z51.78
X-43.522 Y8.633 Z51.816
X-43.547 Y8.596 Z51.855
X-43.568 Y8.56 Z51.897
X-43.585 Y8.524 Z51.942
X-43.599 Y8.491 Z51.989
X-43.61 Y8.459 Z52.037
X-43.618 Y8.431 Z52.088
X-43.624 Y8.404 Z52.141
X-43.628 Y8.381 Z52.196
X-43.632 Y8.361 Z52.251
X-43.634 Y8.345 Z52.308
X-43.635 Y8.332 Z52.366
X-43.636 Y8.323 Z52.424
Y8.317 Z52.483
Y8.316 Z52.542
G0 Z59.
X-45.153 Y8.841
Z52.922
G1 Z52.1 F1440.
S10000
X-45.158 Y8.842 Z52.019
X-45.175 Y8.843 Z51.939
X-45.202 Y8.845 Z51.861
X-45.24 Y8.848 Z51.789
X-45.287 Y8.852 Z51.722
X-45.344 Y8.857 Z51.66
X-45.287 Y8.852 Z51.613
X-45.208 Y8.846 Z51.565
X-45.122 Y8.839 Z51.529
X-45.099 Y8.837 Z51.522
X-45.047 Y8.833 Z51.51
X-45.099 Y8.837 Z51.503
X-45.122 Y8.839 Z51.501
X-45.135 Y8.84
X-45.287 Y8.852 Z51.495
X-45.344 Y8.857 Z51.493
X-45.287 Y8.852 Z51.491
X-45.122 Y8.839 Z51.486
X-45.099 Y8.837 Z51.485
X-45.047 Y8.833 Z51.483
X-45.099 Y8.837 Z51.481
X-45.122 Y8.839 Z51.48
X-45.287 Y8.852 Z51.475
X-45.344 Y8.857 Z51.473
X-45.287 Y8.852 Z51.471
X-45.122 Y8.839 Z51.465
X-45.099 Y8.837 Z51.464
X-45.047 Y8.833 Z51.462
X-45.099 Y8.837 Z51.46
X-45.122 Y8.839
X-45.287 Y8.852 Z51.454
X-45.344 Y8.857 Z51.452
X-45.287 Y8.852 Z51.45
X-45.122 Y8.839 Z51.444
X-45.099 Y8.837 Z51.443
X-45.047 Y8.833 Z51.441
X-45.099 Y8.837 Z51.439
X-45.122 Y8.839
X-45.287 Y8.852 Z51.433
X-45.344 Y8.857 Z51.431
X-45.287 Y8.852 Z51.429
X-45.122 Y8.839 Z51.423
X-45.099 Y8.837 Z51.422
X-45.047 Y8.833 Z51.42
X-45.099 Y8.837 Z51.419
X-45.122 Y8.839 Z51.418
X-45.287 Y8.852 Z51.412
X-45.344 Y8.857 Z51.41
X-45.287 Y8.852 Z51.408
X-45.122 Y8.839 Z51.402
X-45.099 Y8.837 Z51.401
X-45.068 Y8.834 Z51.4
X-45.047 Y8.833
S15000
X-45.099 Y8.837
X-45.122 Y8.839
X-45.287 Y8.852
X-45.344 Y8.857
X-45.432 Y8.865 Z51.414
X-45.517 Y8.872 Z51.441
X-45.596 Y8.878 Z51.48
X-45.669 Y8.885 Z51.531
X-45.734 Y8.89 Z51.592
X-45.789 Y8.895 Z51.662
X-45.833 Y8.898 Z51.739
X-45.865 Y8.901 Z51.822
X-45.885 Y8.903 Z51.909
X-45.892 Z51.998
G0 Z59.
X-46.64 Y8.773
Z52.721
G1 Z51.9 F1440.
S10000
X-46.645 Y8.774 Z51.821
X-46.661 Y8.775 Z51.743
X-46.687 Y8.778 Z51.667
X-46.723 Y8.781 Z51.596
X-46.767 Y8.785 Z51.53
X-46.808 Y8.79 Z51.483
X-46.814 Z51.478
X-46.808 Z51.473
X-46.767 Y8.785 Z51.435
X-46.689 Y8.778 Z51.381
X-46.603 Y8.77 Z51.34
X-46.595 Y8.769 Z51.337
X-46.603 Y8.77 Z51.334
X-46.684 Y8.777 Z51.312
X-46.767 Y8.785 Z51.301
X-46.779 Y8.787
X-46.808 Y8.79 Z51.3
X-46.814
X-46.808 Z51.299
X-46.767 Y8.785 Z51.298
X-46.603 Y8.77 Z51.292
X-46.595 Y8.769
X-46.603 Y8.77
X-46.767 Y8.785 Z51.286
X-46.808 Y8.79 Z51.284
X-46.814
X-46.808
X-46.767 Y8.785 Z51.283
X-46.603 Y8.77 Z51.277
X-46.595 Y8.769 Z51.276
X-46.603 Y8.77
X-46.767 Y8.785 Z51.27
X-46.808 Y8.79 Z51.269
X-46.814
X-46.808
X-46.767 Y8.785 Z51.267
X-46.603 Y8.77 Z51.261
X-46.595 Y8.769
X-46.603 Y8.77
X-46.767 Y8.785 Z51.255
X-46.808 Y8.79 Z51.254
X-46.814 Z51.253
X-46.808
X-46.767 Y8.785 Z51.252
X-46.603 Y8.77 Z51.246
X-46.595 Y8.769
X-46.603 Y8.77 Z51.245
X-46.767 Y8.785 Z51.24
X-46.808 Y8.79 Z51.238
X-46.814
X-46.808
X-46.767 Y8.785 Z51.236
X-46.603 Y8.77 Z51.231
X-46.595 Y8.769 Z51.23
X-46.603 Y8.77
X-46.767 Y8.785 Z51.224
X-46.808 Y8.79 Z51.223
X-46.814
X-46.808 Z51.222
X-46.767 Y8.785 Z51.221
X-46.603 Y8.77 Z51.215
X-46.595 Y8.769
X-46.603 Y8.77
X-46.767 Y8.785 Z51.209
X-46.808 Y8.79 Z51.207
X-46.814
X-46.808
X-46.767 Y8.785 Z51.206
X-46.615 Y8.771 Z51.2
X-46.603 Y8.77
X-46.595 Y8.769
S15000
X-46.603 Y8.77
X-46.767 Y8.785
X-46.808 Y8.79
X-46.814
X-46.907 Y8.801 Z51.207
X-46.998 Y8.811 Z51.229
X-47.084 Y8.821 Z51.265
X-47.164 Y8.83 Z51.315
X-47.235 Y8.838 Z51.376
X-47.296 Y8.844 Z51.447
X-47.345 Y8.85 Z51.528
X-47.381 Y8.854 Z51.615
X-47.402 Y8.856 Z51.706
X-47.41 Y8.857 Z51.8
G0 Z59.
X-47.877 Y8.714
Z52.674
G1 Z51.7 F1440.
S10000
X-47.871 Y8.713 Z51.617
X-47.854 Y8.711 Z51.536
X-47.829 Y8.708 Z51.465
X-47.796 Y8.703 Z51.398
X-47.754 Y8.698 Z51.336
X-47.734 Y8.696 Z51.311
X-47.754 Y8.698 Z51.288
X-47.802 Y8.704 Z51.243
X-47.854 Y8.711 Z51.203
X-47.884 Y8.715 Z51.184
X-47.882 Z51.182
X-47.854 Y8.711 Z51.167
X-47.805 Y8.705 Z51.144
X-47.754 Y8.698 Z51.126
X-47.734 Y8.696 Z51.12
X-47.754 Y8.698 Z51.115
X-47.804 Y8.705 Z51.106
X-47.854 Y8.711 Z51.101
X-47.866 Y8.712
X-47.882 Y8.715 Z51.1
X-47.884
X-47.882
X-47.854 Y8.711 Z51.099
X-47.754 Y8.698 Z51.096
X-47.734 Y8.696 Z51.095
X-47.754 Y8.698 Z51.094
X-47.854 Y8.711 Z51.091
X-47.882 Y8.715 Z51.09
X-47.884
X-47.882 Z51.089
X-47.854 Y8.711 Z51.088
X-47.754 Y8.698 Z51.085
X-47.734 Y8.696 Z51.084
X-47.754 Y8.698
X-47.854 Y8.711 Z51.08
X-47.882 Y8.715 Z51.079
X-47.884
X-47.882
X-47.854 Y8.711 Z51.078
X-47.754 Y8.698 Z51.074
X-47.734 Y8.696
X-47.754 Y8.698 Z51.073
X-47.854 Y8.711 Z51.069
X-47.882 Y8.715 Z51.068
X-47.884
X-47.882
X-47.854 Y8.711 Z51.067
X-47.754 Y8.698 Z51.064
X-47.734 Y8.696 Z51.063
X-47.754 Y8.698 Z51.062
X-47.854 Y8.711 Z51.059
X-47.882 Y8.715 Z51.058
X-47.884
X-47.882
X-47.854 Y8.711 Z51.057
X-47.754 Y8.698 Z51.053
X-47.734 Y8.696 Z51.052
X-47.754 Y8.698
X-47.854 Y8.711 Z51.048
X-47.882 Y8.715 Z51.047
X-47.884
X-47.882
X-47.854 Y8.711 Z51.046
X-47.754 Y8.698 Z51.043
X-47.734 Y8.696 Z51.042
X-47.754 Y8.698 Z51.041
X-47.854 Y8.711 Z51.038
X-47.882 Y8.715 Z51.037
X-47.884
X-47.882
X-47.854 Y8.711 Z51.036
X-47.754 Y8.698 Z51.032
X-47.734 Y8.696 Z51.031
X-47.754 Y8.698
X-47.854 Y8.711 Z51.027
X-47.882 Y8.715 Z51.026
X-47.884
X-47.882
X-47.854 Y8.711 Z51.025
X-47.754 Y8.698 Z51.021
X-47.734 Y8.696
X-47.754 Y8.698 Z51.02
X-47.854 Y8.711 Z51.017
X-47.882 Y8.715 Z51.016
X-47.884 Z51.015
X-47.882
X-47.854 Y8.711 Z51.014
X-47.754 Y8.698 Z51.011
X-47.734 Y8.696 Z51.01
X-47.754 Y8.698 Z51.009
X-47.854 Y8.711 Z51.006
X-47.882 Y8.715 Z51.005
X-47.884
X-47.882
X-47.854 Y8.711 Z51.004
X-47.755 Y8.698 Z51.
X-47.754
X-47.734 Y8.696
S15000
X-47.754 Y8.698
X-47.854 Y8.711
X-47.882 Y8.715
X-47.884
X-47.929 Y8.717 Z51.002
X-47.972 Y8.714 Z51.008
X-48.015 Y8.705 Z51.017
X-48.055 Y8.691 Z51.031
X-48.091 Y8.672 Z51.048
X-48.124 Y8.65 Z51.068
X-48.152 Y8.626 Z51.092
X-48.176 Y8.6 Z51.119
X-48.195 Y8.574 Z51.149
X-48.211 Y8.548 Z51.182
X-48.223 Y8.524 Z51.217
X-48.231 Y8.501 Z51.254
X-48.238 Y8.482 Z51.294
X-48.242 Y8.465 Z51.335
X-48.244 Y8.452 Z51.377
X-48.246 Y8.443 Z51.42
X-48.247 Y8.437 Z51.464
Y8.435 Z51.509
G0 Z59.
X-48.197 Y8.782
Z52.661
G1 Z52. F1440.
G3 X-47.978 Y7.695 I0.334 J-0.498
G1 X-47.96 Y7.691
X-47.919 Y7.683
X-47.754 Y7.649
X-47.629 Y7.618
X-47.59 Y7.607
X-47.425 Y7.561
X-47.261 Y7.514
X-47.096 Y7.458
X-47.083 Y7.453
X-46.932 Y7.398
X-46.767 Y7.337
X-46.65 Y7.288
X-46.603 Y7.267
X-46.438 Y7.194
X-46.284 Y7.124
X-46.274 Y7.119
X-46.109 Y7.038
X-45.957 Y6.959
X-45.945 Y6.953
X-45.78 Y6.862
X-45.661 Y6.795
X-45.616 Y6.767
X-45.451 Y6.666
X-45.394 Y6.63
X-45.287 Y6.563
X-45.133 Y6.466
X-45.122 Y6.458
X-44.958 Y6.344
X-44.896 Y6.301
X-44.793 Y6.225
X-44.677 Y6.137
X-44.629 Y6.1
X-44.476 Y5.972
X-44.464 Y5.962
X-44.3 Y5.809
X-44.271 Y5.843
X-44.254 Y5.883
X-44.252 Y5.927
X-44.264 Y5.97
X-44.288 Y6.006
G0 Z59.
X-49.078 Y9.074
Z52.502
G1 Z51.8 F1440.
G3 X-48.765 Y8.01 I0.377 J-0.467
G1 X-48.742 Y8.008
X-48.577 Y7.989
X-48.412 Y7.967
X-48.296 Y7.947
X-48.248 Y7.938
X-48.083 Y7.908
X-47.919 Y7.871
X-47.754 Y7.83
X-47.59 Y7.788
X-47.57 Y7.782
X-47.425 Y7.737
X-47.261 Y7.684
X-47.096 Y7.628
X-47.068 Y7.618
X-46.932 Y7.564
X-46.767 Y7.498
X-46.658 Y7.453
X-46.603 Y7.429
X-46.438 Y7.352
X-46.307 Y7.288
X-46.274 Y7.272
X-46.109 Y7.191
X-45.983 Y7.124
X-45.945 Y7.103
X-45.78 Y7.011
X-45.692 Y6.959
X-45.616 Y6.914
X-45.451 Y6.812
X-45.425 Y6.795
X-45.287 Y6.705
X-45.202 Y6.65
G3 X-45.446 Y7.731 I-0.346 J0.49
G0 Z59.
X-50.025 Y9.268
Z52.381
G1 Z51.6 F1440.
G3 X-49.583 Y8.251 I0.431 J-0.417
G1 X-49.574
X-49.564
X-49.4 Y8.248
X-49.235 Y8.24
X-49.071 Y8.229
X-48.906 Y8.212
X-48.742 Y8.192
X-48.577 Y8.167
X-48.412 Y8.139
X-48.267 Y8.111
X-48.248 Y8.107
X-48.083 Y8.07
X-47.919 Y8.032
X-47.754 Y7.987
X-47.616 Y7.947
X-47.59 Y7.939
X-47.425 Y7.888
X-47.261 Y7.83
X-47.128 Y7.782
X-47.096 Y7.77
X-46.932 Y7.707
X-46.767 Y7.636
X-46.725 Y7.618
X-46.603 Y7.564
X-46.438 Y7.488
X-46.369 Y7.453
X-46.274 Y7.404
X-46.109 Y7.319
X-46.05 Y7.288
X-45.998 Y7.26
X-45.984 Y7.253
X-45.978 Y7.25
X-45.973 Y7.247
X-45.894 Y7.203 Z51.634
X-45.82 Y7.162 Z51.682
X-45.755 Y7.125 Z51.743
X-45.698 Y7.094 Z51.816
X-45.653 Y7.069 Z51.897
X-45.62 Y7.05 Z51.986
X-45.599 Y7.039 Z52.08
X-45.593 Y7.035 Z52.177
G0 Z59.
X-50.901 Y9.372
Z52.202
G1 Z51.4 F1440.
G3 X-50.353 Y8.408 I0.473 J-0.369
G1 X-50.346 Y8.409
X-50.304 Y8.414
X-50.222 Y8.422
X-50.058 Y8.432
X-49.893 Y8.439
X-49.861 Y8.44
X-49.729
X-49.72
X-49.564 Y8.436
X-49.4 Y8.429
X-49.235 Y8.415
X-49.071 Y8.398
X-48.906 Y8.377
X-48.742 Y8.351
X-48.577 Y8.323
X-48.412 Y8.289
X-48.348 Y8.276
X-48.248 Y8.254
X-48.083 Y8.214
X-47.919 Y8.17
X-47.754 Y8.125
X-47.712 Y8.111
X-47.59 Y8.072
X-47.425 Y8.018
X-47.261 Y7.959
X-47.229 Y7.947
X-47.096 Y7.895
X-46.932 Y7.829
X-46.821 Y7.782
X-46.767 Y7.757
X-46.697 Y7.725
X-46.693 Y7.723
X-46.734 Y7.767 Z51.407
X-46.773 Y7.809 Z51.427
X-46.809 Y7.846 Z51.459
X-46.838 Y7.878 Z51.502
X-46.86 Y7.902 Z51.554
X-46.874 Y7.916 Z51.612
X-46.879 Y7.921 Z51.672
G0 Z59.
X-51.798 Y9.37
Z51.953
G1 Z51.2 F1440.
G3 X-51.14 Y8.478 I0.514 J-0.31
G1 X-51.127 Y8.481
X-51.045 Y8.501
X-50.88 Y8.532
X-50.716 Y8.559
X-50.551 Y8.581
X-50.387 Y8.595
X-50.241 Y8.605
X-50.222 Y8.606
X-50.058 Y8.612
X-49.893 Y8.611
X-49.729 Y8.608
X-49.649 Y8.605
X-49.564 Y8.599
X-49.4 Y8.586
X-49.235 Y8.569
X-49.071 Y8.547
X-48.906 Y8.522
X-48.742 Y8.492
X-48.577 Y8.459
X-48.489 Y8.44
X-48.412 Y8.423
X-48.248 Y8.382
X-48.083 Y8.34
X-47.919 Y8.292
X-47.863 Y8.276
X-47.754 Y8.243
X-47.59 Y8.189
X-47.425 Y8.13
X-47.395 Y8.119
X-47.386 Y8.116
X-47.36 Y8.149
X-47.345 Y8.188
X-47.34 Y8.229
X-47.347 Y8.27
X-47.364 Y8.308
X-47.39 Y8.34
G0 Z59.
X-52.666 Y9.259
Z51.667
G1 Z51. F1440.
G3 X-51.904 Y8.455 I0.548 J-0.245
G1 X-51.867 Y8.469
X-51.703 Y8.524
X-51.538 Y8.573
X-51.422 Y8.605
X-51.374 Y8.617
X-51.209 Y8.652
X-51.045 Y8.684
X-50.88 Y8.71
X-50.716 Y8.729
X-50.551 Y8.745
X-50.387 Y8.755
X-50.222 Y8.759
X-50.058 Y8.761
X-49.893 Y8.756
X-49.729 Y8.747
X-49.564 Y8.736
X-49.4 Y8.717
X-49.235 Y8.697
X-49.071 Y8.672
X-48.906 Y8.642
X-48.742 Y8.611
X-48.714 Y8.605
X-48.577 Y8.573
X-48.412 Y8.534
X-48.248 Y8.49
X-48.083 Y8.444
X-48.07 Y8.44
X-48.04 Y8.431
X-48.024 Y8.427
X-47.941 Y8.403 Z51.036
X-47.865 Y8.381 Z51.086
X-47.796 Y8.362 Z51.147
X-47.738 Y8.345 Z51.218
X-47.691 Y8.332 Z51.298
X-47.657 Y8.322 Z51.385
X-47.636 Y8.316 Z51.476
X-47.629 Y8.314 Z51.569
G0 Z59.
X-53.503 Y9.052
Z51.47
G1 Z50.8 F1440.
G3 X-52.648 Y8.347 I0.574 J-0.176
G1 X-52.639 Y8.351
X-52.628 Y8.357
X-52.608 Y8.367
X-52.525 Y8.407
X-52.452 Y8.44
X-52.361 Y8.48
X-52.196 Y8.549
X-52.041 Y8.605
X-52.032 Y8.608
X-51.867 Y8.661
X-51.703 Y8.71
X-51.538 Y8.75
X-51.45 Y8.769
X-51.374 Y8.786
X-51.209 Y8.817
X-51.045 Y8.84
X-50.88 Y8.862
X-50.716 Y8.876
X-50.551 Y8.886
X-50.387 Y8.893
X-50.222 Y8.892
X-50.058 Y8.889
X-50.053 Y8.888
G0 Z59.
X-54.167 Y8.878
Z51.253
G1 Z50.6 F1440.
G3 X-53.272 Y8.224 I0.583 J-0.141
G1 X-53.267 Y8.227
X-53.185 Y8.276
X-53.184 Y8.277
X-53.019 Y8.372
X-52.891 Y8.44
X-52.854 Y8.458
X-52.69 Y8.535
X-52.534 Y8.605
X-52.525 Y8.608
X-52.361 Y8.671
X-52.196 Y8.729
X-52.076 Y8.769
X-52.032 Y8.782
X-51.867 Y8.827
X-51.703 Y8.868
X-51.538 Y8.904
X-51.374 Y8.932
X-51.365 Y8.934
X-51.209 Y8.959
X-51.199 Y8.961
X-51.194
X-51.185 Y8.963
X-51.183
X-51.099 Y8.974 Z50.637
X-51.021 Y8.985 Z50.686
X-50.951 Y8.994 Z50.748
X-50.892 Y9.003 Z50.819
X-50.844 Y9.009 Z50.898
X-50.809 Y9.014 Z50.985
X-50.788 Y9.017 Z51.075
X-50.781 Y9.018 Z51.168
G0 Z59.
X-54.938 Y8.514
Z51.053
G1 Z50.4 F1440.
G3 X-53.975 Y7.966 I0.595 J-0.075
G1 X-53.96 Y7.977
X-53.92 Y8.008
X-53.842 Y8.067
X-53.783 Y8.111
X-53.677 Y8.187
X-53.539 Y8.276
X-53.513 Y8.292
X-53.348 Y8.392
X-53.263 Y8.44
X-53.184 Y8.482
X-53.019 Y8.564
X-52.935 Y8.605
X-52.854 Y8.642
X-52.69 Y8.709
X-52.534 Y8.769
X-52.525 Y8.773
X-52.361 Y8.83
X-52.196 Y8.88
X-52.032 Y8.927
X-52.006 Y8.934
X-51.984 Y8.94
X-51.957 Y8.946
X-51.943 Y8.949
X-51.933 Y8.951
X-51.928 Y8.953
X-51.851 Y8.97 Z50.44
X-51.781 Y8.986 Z50.49
X-51.718 Y9. Z50.551
X-51.665 Y9.012 Z50.621
X-51.622 Y9.022 Z50.698
X-51.591 Y9.029 Z50.78
X-51.572 Y9.033 Z50.867
X-51.566 Y9.035 Z50.955
G0 Z59.
X-55.719 Y7.998
Z50.867
G1 Z50.2 F1440.
G3 X-54.689 Y7.588 I0.6 J0.008
G1 X-54.684 Y7.593
X-54.664 Y7.613
X-54.66 Y7.618
X-54.5 Y7.77
X-54.487 Y7.782
X-54.335 Y7.914
X-54.296 Y7.947
X-54.171 Y8.047
X-54.085 Y8.111
X-54.006 Y8.169
X-53.847 Y8.276
X-53.842 Y8.279
X-53.677 Y8.385
X-53.582 Y8.44
X-53.513 Y8.479
X-53.348 Y8.567
X-53.276 Y8.605
X-53.184 Y8.649
X-53.019 Y8.722
X-52.908 Y8.769
X-52.854 Y8.792
X-52.69 Y8.853
X-52.634 Y8.872
X-52.543 Y8.903
X-52.53 Y8.907
X-52.452 Y8.934 Z50.249
X-52.382 Y8.957 Z50.31
X-52.322 Y8.977 Z50.382
X-52.274 Y8.994 Z50.463
X-52.239 Y9.005 Z50.551
X-52.217 Y9.013 Z50.644
X-52.21 Y9.015 Z50.74
G0 Z59.
X-56.311 Y7.602
Z50.665
G1 Z50. F1440.
G3 X-55.257 Y7.258 I0.598 J0.046
G1 X-55.254 Y7.262
X-55.231 Y7.288
X-55.158 Y7.373
X-55.085 Y7.453
X-54.993 Y7.548
X-54.925 Y7.618
X-54.829 Y7.711
X-54.751 Y7.782
X-54.664 Y7.861
X-54.562 Y7.947
X-54.5 Y7.998
X-54.354 Y8.111
X-54.335 Y8.125
X-54.171 Y8.244
X-54.123 Y8.276
X-54.006 Y8.353
X-53.862 Y8.44
X-53.842 Y8.452
X-53.677 Y8.548
X-53.571 Y8.605
X-53.513 Y8.634
X-53.348 Y8.713
X-53.228 Y8.769
X-53.184 Y8.789
X-53.122 Y8.814
X-53.091 Y8.826
X-53.047 Y8.844
X-53.04 Y8.847
X-52.97 Y8.874 Z50.05
X-52.907 Y8.898 Z50.111
X-52.854 Y8.919 Z50.182
X-52.812 Y8.936 Z50.26
X-52.78 Y8.948 Z50.344
X-52.761 Y8.955 Z50.433
X-52.755 Y8.958 Z50.523
G0 Z59.
X-56.87 Y7.186
Z50.461
G1 Z49.8 F1440.
G3 X-55.799 Y6.902 I0.595 J0.08
G1 X-55.793 Y6.909
X-55.785 Y6.919
X-55.754 Y6.959
X-55.651 Y7.09
X-55.624 Y7.124
X-55.487 Y7.283
X-55.481 Y7.288
X-55.331 Y7.453
X-55.322 Y7.462
X-55.168 Y7.618
X-55.158 Y7.628
X-54.993 Y7.781
X-54.992 Y7.782
X-54.829 Y7.925
X-54.803 Y7.947
X-54.664 Y8.059
X-54.596 Y8.111
X-54.5 Y8.183
X-54.369 Y8.276
X-54.335 Y8.299
X-54.171 Y8.407
X-54.116 Y8.44
X-54.006 Y8.507
X-53.842 Y8.598
X-53.828 Y8.605
X-53.677 Y8.684
X-53.513 Y8.765
X-53.508 Y8.767
X-53.44 Y8.798 Z49.85
X-53.38 Y8.824 Z49.911
X-53.329 Y8.847 Z49.982
X-53.288 Y8.866 Z50.059
X-53.258 Y8.879 Z50.143
X-53.24 Y8.887 Z50.23
X-53.233 Y8.89 Z50.32
G0 Z59.
X-57.369 Y6.797
Z50.261
G1 Z49.6 F1440.
G3 X-56.286 Y6.557 I0.591 J0.104
G1 X-56.281 Y6.564
X-56.272 Y6.577
X-56.234 Y6.63
X-56.145 Y6.753
X-56.114 Y6.795
X-55.987 Y6.959
X-55.98 Y6.968
X-55.851 Y7.124
X-55.816 Y7.165
X-55.705 Y7.288
X-55.651 Y7.347
X-55.549 Y7.453
X-55.487 Y7.516
X-55.384 Y7.618
X-55.322 Y7.675
X-55.205 Y7.782
X-55.158 Y7.825
X-55.014 Y7.947
X-54.993 Y7.963
X-54.829 Y8.095
X-54.807 Y8.111
X-54.664 Y8.218
X-54.581 Y8.276
X-54.5 Y8.331
X-54.335 Y8.439
X-54.332 Y8.44
X-54.171 Y8.539
X-54.053 Y8.605
X-54.006 Y8.631
X-53.962 Y8.655
X-53.941 Y8.666
X-53.93 Y8.672
X-53.917 Y8.679
X-53.915 Y8.68
X-53.854 Y8.711 Z49.651
X-53.8 Y8.739 Z49.712
X-53.754 Y8.762 Z49.78
X-53.718 Y8.781 Z49.856
X-53.691 Y8.795 Z49.936
X-53.675 Y8.803 Z50.02
X-53.669 Y8.806 Z50.105
G0 Z59.
X-57.866 Y6.356
Z50.063
G1 Z49.4 F1440.
G3 X-56.772 Y6.174 I0.584 J0.136
G1 X-56.77 Y6.178
X-56.744 Y6.219
X-56.691 Y6.301
X-56.638 Y6.381
X-56.582 Y6.466
X-56.474 Y6.62
X-56.467 Y6.63
X-56.338 Y6.795
X-56.309 Y6.831
X-56.203 Y6.959
X-56.145 Y7.027
X-56.061 Y7.124
X-55.98 Y7.216
X-55.913 Y7.288
X-55.816 Y7.388
X-55.752 Y7.453
X-55.651 Y7.552
X-55.581 Y7.618
X-55.487 Y7.705
X-55.401 Y7.782
X-55.322 Y7.85
X-55.206 Y7.947
X-55.158 Y7.987
X-54.998 Y8.111
X-54.993 Y8.115
X-54.829 Y8.236
X-54.772 Y8.276
X-54.664 Y8.35
X-54.525 Y8.44
X-54.5 Y8.456
X-54.335 Y8.556
X-54.29 Y8.582
X-54.286 Y8.585
X-54.227 Y8.618 Z49.451
X-54.176 Y8.647 Z49.512
X-54.132 Y8.672 Z49.58
X-54.097 Y8.692 Z49.655
X-54.071 Y8.707 Z49.734
X-54.056 Y8.716 Z49.817
X-54.05 Y8.719 Z49.902
G0 Z59.
X-58.332 Y5.891
Z49.872
G1 Z49.2 F1440.
G3 X-57.229 Y5.778 I0.575 J0.172
G1 X-57.223 Y5.788
X-57.213 Y5.808
X-57.132 Y5.949
X-57.118 Y5.972
X-57.017 Y6.137
X-56.967 Y6.214
X-56.908 Y6.301
X-56.803 Y6.447
X-56.789 Y6.466
X-56.665 Y6.63
X-56.638 Y6.665
X-56.537 Y6.795
X-56.474 Y6.871
X-56.396 Y6.959
X-56.309 Y7.056
X-56.247 Y7.124
X-56.145 Y7.233
X-56.092 Y7.288
X-55.98 Y7.403
X-55.93 Y7.453
X-55.816 Y7.56
X-55.754 Y7.618
X-55.651 Y7.711
X-55.569 Y7.782
X-55.487 Y7.852
X-55.373 Y7.947
X-55.322 Y7.987
X-55.162 Y8.111
X-55.158 Y8.114
X-54.993 Y8.234
X-54.934 Y8.276
X-54.829 Y8.348
X-54.687 Y8.44
X-54.664 Y8.455
X-54.614 Y8.487
X-54.558 Y8.522 Z49.261
X-54.51 Y8.553 Z49.331
X-54.472 Y8.577 Z49.409
X-54.444 Y8.595 Z49.493
X-54.427 Y8.606 Z49.581
X-54.421 Y8.609 Z49.671
G0 Z59.
X-58.752 Y5.476
Z49.671
G1 Z49. F1440.
G3 X-57.645 Y5.41 I0.567 J0.196
G1 X-57.642 Y5.417
X-57.625 Y5.451
X-57.612 Y5.478
X-57.524 Y5.643
X-57.461 Y5.756
X-57.431 Y5.808
X-57.33 Y5.972
X-57.296 Y6.024
X-57.223 Y6.137
X-57.132 Y6.266
X-57.107 Y6.301
X-56.986 Y6.466
X-56.967 Y6.489
X-56.854 Y6.63
X-56.803 Y6.692
X-56.716 Y6.795
X-56.638 Y6.886
X-56.574 Y6.959
X-56.474 Y7.07
X-56.422 Y7.124
X-56.309 Y7.237
X-56.258 Y7.288
X-56.145 Y7.399
X-56.089 Y7.453
X-55.98 Y7.557
X-55.913 Y7.618
X-55.816 Y7.702
X-55.723 Y7.782
X-55.651 Y7.842
X-55.521 Y7.947
X-55.487 Y7.974
X-55.322 Y8.1
X-55.307 Y8.111
X-55.158 Y8.22
X-55.078 Y8.276
X-54.993 Y8.333
X-54.92 Y8.381
X-54.864 Y8.418 Z49.061
X-54.816 Y8.45 Z49.132
X-54.777 Y8.476 Z49.21
X-54.749 Y8.494 Z49.295
X-54.732 Y8.506 Z49.384
X-54.726 Y8.51 Z49.475
G0 Z59.
X-56.109 Y0.045
Z50.089
G1 Z49. F1440.
G3 X-55.246 Y0.644 I0.266 J0.538
G1 X-55.252 Y0.643
X-55.261 Y0.642
X-55.281 Y0.639
X-55.322 Y0.634
X-55.487 Y0.62
X-55.651 Y0.619
X-55.816 Y0.629
X-55.98 Y0.648
X-56.145 Y0.677
X-56.266 Y0.707
X-56.309 Y0.719
X-56.474 Y0.775
X-56.638 Y0.846
X-56.689 Y0.871
X-56.803 Y0.933
X-56.962 Y1.036
X-56.967 Y1.039
X-57.132 Y1.161
X-57.179 Y1.2
X-57.296 Y1.308
X-57.352 Y1.365
X-57.461 Y1.491
X-57.491 Y1.529
X-57.552 Y1.612
X-57.58 Y1.653
X-57.595 Y1.673
X-57.602 Y1.684
X-57.606 Y1.69
G3 X-58.692 Y1.465 I-0.496 J-0.337
G0 Z59.
X-58.164 Y2.447
Z50.36
G1 Z49.5 F1440.
S10000
X-58.162 Y2.441 Z49.413
X-58.156 Y2.423 Z49.327
X-58.146 Y2.393 Z49.245
X-58.133 Y2.352 Z49.169
X-58.119 Y2.313 Z49.113
X-58.097 Y2.254 Z49.05
X-58.072 Y2.188 Z48.996
X-58.049 Y2.135 Z48.963
X-58.026 Y2.08 Z48.937
X-58.001 Y2.023 Z48.918
X-57.978 Y1.975 Z48.907
X-57.955 Y1.926 Z48.902
X-57.947 Y1.911 Z48.901
X-57.919 Y1.858 Z48.899
X-57.824 Y1.694 Z48.892
X-57.79 Y1.639 Z48.89
X-57.715 Y1.529 Z48.885
X-57.625 Y1.414 Z48.88
X-57.583 Y1.365 Z48.878
X-57.461 Y1.229 Z48.871
X-57.433 Y1.2 Z48.87
X-57.296 Y1.073 Z48.863
X-57.252 Y1.036 Z48.861
X-57.132 Y0.944 Z48.856
X-57.024 Y0.871 Z48.852
X-56.967 Y0.836 Z48.849
X-56.803 Y0.745 Z48.843
X-56.728 Y0.707 Z48.84
X-56.638 Y0.665 Z48.836
X-56.474 Y0.6 Z48.83
X-56.309 Y0.548 Z48.824
X-56.287 Y0.542 Z48.823
X-56.145 Y0.509 Z48.818
X-55.98 Y0.482 Z48.812
X-55.816 Y0.467 Z48.807
X-55.651 Y0.461 Z48.801
X-55.636 Z48.8
X-55.631
X-55.622
X-55.615
S15000
X-55.622
X-55.631
X-55.651
X-55.816 Y0.467
X-55.98 Y0.482
X-56.145 Y0.509
X-56.287 Y0.542
X-56.309 Y0.548
X-56.474 Y0.6
X-56.638 Y0.665
X-56.728 Y0.707
X-56.803 Y0.745
X-56.967 Y0.836
X-57.024 Y0.871
X-57.132 Y0.944
X-57.252 Y1.036
X-57.296 Y1.073
X-57.433 Y1.2
X-57.461 Y1.229
X-57.583 Y1.365
X-57.625 Y1.414
X-57.715 Y1.529
X-57.79 Y1.639
X-57.824 Y1.694
X-57.919 Y1.858
X-57.955 Y1.926
X-58.001 Y2.023
X-58.072 Y2.188
X-58.119 Y2.313
X-58.133 Y2.352
X-58.186 Y2.517
X-58.199 Y2.559
G3 X-58.486 Y2.917 I-0.576 J-0.167
G2 X-58.721 Y3.349 I0.22 J0.4
G1 X-58.653 Y4.344
G2 X-58.362 Y4.738 I0.455 J-0.031
G3 X-58.03 Y5.055 I-0.217 J0.56
G1 X-58.025 Y5.067
X-57.988 Y5.149
X-57.955 Y5.218
X-57.907 Y5.314
X-57.82 Y5.478
X-57.79 Y5.532
X-57.726 Y5.643
X-57.626 Y5.808
X-57.625
X-57.519 Y5.972
X-57.461 Y6.058
X-57.405 Y6.137
X-57.296 Y6.287
X-57.286 Y6.301
X-57.157 Y6.466
X-57.132 Y6.498
X-57.024 Y6.63
X-56.967 Y6.695
X-56.879 Y6.795
X-56.803 Y6.879
X-56.729 Y6.959
X-56.638 Y7.056
X-56.574 Y7.124
X-56.474 Y7.225
X-56.407 Y7.288
X-56.309 Y7.38
X-56.23 Y7.453
X-56.145 Y7.531
X-56.048 Y7.618
X-55.98 Y7.678
X-55.856 Y7.782
X-55.816 Y7.814
X-55.651 Y7.946
Y7.947
X-55.487 Y8.07
X-55.431 Y8.111
X-55.322 Y8.19
X-55.198 Y8.276
X-55.193 Y8.279
X-55.22 Y8.29 Z48.802
X-55.248 Y8.297 Z48.807
X-55.276 Y8.298 Z48.816
X-55.302 Y8.294 Z48.828
X-55.326 Y8.287 Z48.843
X-55.347 Y8.276 Z48.861
X-55.364 Y8.265 Z48.882
X-55.377 Y8.253 Z48.905
X-55.388 Y8.241 Z48.93
X-55.395 Y8.232 Z48.956
X-55.4 Y8.224 Z48.984
X-55.402 Y8.22 Z49.013
X-55.403 Y8.218 Z49.042
G0 Z59.
X-59.53 Y4.595
Z49.252
G1 Z48.6 F1440.
G3 X-58.422 Y4.636 I0.545 J0.25
G1 X-58.419 Y4.644
X-58.415 Y4.656
X-58.349 Y4.82
X-58.284 Y4.968
X-58.276 Y4.985
X-58.196 Y5.149
X-58.119 Y5.295
X-58.109 Y5.314
X-58.015 Y5.478
X-57.955 Y5.579
X-57.916 Y5.643
X-57.809 Y5.808
X-57.79 Y5.835
X-57.696 Y5.972
X-57.625 Y6.07
X-57.576 Y6.137
X-57.461 Y6.288
X-57.45 Y6.301
X-57.318 Y6.466
X-57.296 Y6.492
X-57.178 Y6.63
X-57.132 Y6.682
X-57.031 Y6.795
X-56.967 Y6.862
X-56.873 Y6.959
X-56.803 Y7.031
X-56.711 Y7.124
X-56.638 Y7.195
X-56.543 Y7.288
X-56.474 Y7.353
X-56.361 Y7.453
X-56.309 Y7.498
X-56.17 Y7.618
X-56.145 Y7.639
X-55.98 Y7.777
X-55.974 Y7.782
X-55.816 Y7.906
X-55.763 Y7.947
X-55.651 Y8.031
X-55.54 Y8.111
X-55.487 Y8.148
X-55.452 Y8.173
X-55.403 Y8.207 Z48.66
X-55.362 Y8.235 Z48.728
X-55.329 Y8.258 Z48.803
X-55.305 Y8.275 Z48.882
X-55.291 Y8.285 Z48.965
X-55.286 Y8.289 Z49.05
G0 Z59.
X-54.902 Y18.821
Z46.874
G1 Z46.2 F1440.
G3 X-53.968 Y18.225 I0.591 J-0.105
G1 X-53.965 Y18.227
X-53.924 Y18.255
X-53.842 Y18.309
X-53.84 Y18.31
G3 X-54.028 Y19.403 I-0.32 J0.507
G0 Z59.
X-55.265 Y18.816
Z46.669
G1 Z46. F1440.
G3 X-54.331 Y18.22 I0.591 J-0.105
G1 X-54.326 Y18.223
X-54.317 Y18.229
X-54.3 Y18.241
X-54.264 Y18.265
X-54.193 Y18.313
X-53.842 Y18.547
X-53.768 Y18.596
X-53.75 Y18.608
X-53.741 Y18.613
X-53.736 Y18.616
G3 X-53.925 Y19.709 I-0.321 J0.507
G0 Z59.
X-54.192 Y19.541
Z46.67
G1 Z46. F1440.
G3 X-53.293 Y18.893 I0.584 J-0.138
G1 X-53.286 Y18.897
X-53.266 Y18.91
X-53.184 Y18.959
X-53.162 Y18.971
X-53.019 Y19.053
X-52.854 Y19.146
X-52.69 Y19.237
X-52.032 Y19.584
X-51.944 Y19.629
X-51.867 Y19.668
X-51.703 Y19.744
X-51.045 Y20.037
X-50.88 Y20.11
X-50.85 Y20.123
X-50.716 Y20.178
X-50.551 Y20.245
X-50.445 Y20.288
X-50.387 Y20.31
X-50.222 Y20.373
X-50.009 Y20.452
X-49.893 Y20.494
X-49.235 Y20.717
X-49.071 Y20.772
X-49.043 Y20.781
X-48.906 Y20.823
X-48.742 Y20.873
X-48.577 Y20.922
X-48.497 Y20.946
X-48.412 Y20.97
X-48.248 Y21.016
X-48.083 Y21.059
X-47.425 Y21.221
X-47.261 Y21.26
X-46.603 Y21.4
X-46.438 Y21.434
X-46.109 Y21.493
X-45.945 Y21.523
X-45.78 Y21.552
X-45.616 Y21.579
X-45.451 Y21.601
X-44.958 Y21.669
X-44.793 Y21.69
X-44.135 Y21.759
X-44.046 Y21.769
X-43.97 Y21.775
X-43.312 Y21.824
X-43.148 Y21.834
X-42.49 Y21.863
X-42.325 Y21.867
X-41.667 Y21.875
X-41.503 Y21.874
X-41.009 Y21.865
X-40.845 Y21.862
X-40.68 Y21.855
X-40.187 Y21.831
X-40.022 Y21.823
X-39.858 Y21.81
X-39.335 Y21.769
X-39.199 Y21.758
X-39.035 Y21.74
X-38.87 Y21.722
X-38.706 Y21.704
X-38.541 Y21.685
X-38.377 Y21.666
X-38.212 Y21.641
X-37.719 Y21.565
X-37.554 Y21.54
X-37.39 Y21.51
X-36.732 Y21.386
X-36.567 Y21.352
X-35.909 Y21.207
X-35.745 Y21.168
X-35.58 Y21.125
X-35.528 Y21.11
X-35.086 Y20.989
X-34.933 Y20.946
X-34.922 Y20.943
X-34.757 Y20.892
X-34.099 Y20.688
X-33.935 Y20.633
X-33.887 Y20.617
X-33.77 Y20.575
X-33.606 Y20.514
X-33.277 Y20.389
X-33.112 Y20.327
X-33.016 Y20.288
X-32.454 Y20.055
X-32.29 Y19.986
X-32.226 Y19.959
X-32.125 Y19.913
X-31.961 Y19.831
X-31.221 Y19.465
X-31.138 Y19.423
X-30.974 Y19.335
X-30.911 Y19.3
X-30.809 Y19.241
X-30.151 Y18.853
X-30.074 Y18.807
X-29.986 Y18.751
X-29.822 Y18.647
X-29.815 Y18.642
X-29.795 Y18.629
X-29.785 Y18.623
X-29.78 Y18.619
G3 X-28.857 Y19.234 I0.334 J0.498
G0 Z59.
X-28.892 Y19.506
Z46.459
G1 Z45.8 F1440.
G3 X-29.147 Y18.427 I0.096 J-0.592
G1 X-29.143 Y18.424
X-29.123 Y18.409
X-29.082 Y18.379
X-28.55 Y17.984
X-28.506 Y17.951
X-28.499 Y17.946
G3 X-27.54 Y18.502 I0.365 J0.477
G0 Z59.
X-27.643 Y18.582
Z46.471
G1 Z45.8 F1440.
G3 X-27.992 Y17.53 I0.044 J-0.598
G1 X-27.987 Y17.526
X-27.979 Y17.519
X-27.683 Y17.261
X-27.655 Y17.237
X-27.648 Y17.231
G3 X-26.653 Y17.72 I0.396 J0.451
G0 Z59.
X-38.316 Y8.933
Z52.915
G1 Z52.1 F1440.
S10000
X-38.322 Y8.932 Z52.009
X-38.343 Y8.929 Z51.92
X-38.377 Y8.924 Z51.835
X-38.421 Y8.917 Z51.759
X-38.477 Y8.91 Z51.69
X-38.541 Y8.9 Z51.63
X-38.591 Y8.894 Z51.594
X-38.616 Y8.89 Z51.579
X-38.663 Y8.883 Z51.554
X-38.691 Y8.88 Z51.542
X-38.663 Y8.883 Z51.532
X-38.616 Y8.89 Z51.518
X-38.591 Y8.894 Z51.512
X-38.541 Y8.9 Z51.504
X-38.493 Y8.907 Z51.501
X-38.377 Y8.924 Z51.497
X-38.306 Y8.934 Z51.494
X-38.259 Y8.941 Z51.492
X-38.253 Y8.942
X-38.259 Y8.941
X-38.306 Y8.934 Z51.49
X-38.377 Y8.924 Z51.488
X-38.541 Y8.9 Z51.482
X-38.591 Y8.894 Z51.48
X-38.616 Y8.89 Z51.479
X-38.663 Y8.883 Z51.478
X-38.691 Y8.88 Z51.477
X-38.663 Y8.883 Z51.476
X-38.616 Y8.89 Z51.474
X-38.591 Y8.894 Z51.473
X-38.541 Y8.9 Z51.472
X-38.377 Y8.924 Z51.466
X-38.306 Y8.934 Z51.463
X-38.259 Y8.941 Z51.462
X-38.253 Y8.942 Z51.461
X-38.259 Y8.941
X-38.306 Y8.934 Z51.46
X-38.377 Y8.924 Z51.457
X-38.541 Y8.9 Z51.451
X-38.591 Y8.894 Z51.449
X-38.616 Y8.89
X-38.663 Y8.883 Z51.447
X-38.691 Y8.88 Z51.446
X-38.663 Y8.883 Z51.445
X-38.616 Y8.89 Z51.443
X-38.591 Y8.894 Z51.442
X-38.541 Y8.9 Z51.441
X-38.377 Y8.924 Z51.435
X-38.306 Y8.934 Z51.432
X-38.259 Y8.941 Z51.431
X-38.253 Y8.942
X-38.259 Y8.941 Z51.43
X-38.306 Y8.934 Z51.429
X-38.377 Y8.924 Z51.426
X-38.541 Y8.9 Z51.42
X-38.591 Y8.894 Z51.419
X-38.616 Y8.89 Z51.418
X-38.663 Y8.883 Z51.416
X-38.691 Y8.88 Z51.415
X-38.663 Y8.883 Z51.414
X-38.616 Y8.89 Z51.412
X-38.591 Y8.894
X-38.541 Y8.9 Z51.41
X-38.377 Y8.924 Z51.404
X-38.306 Y8.934 Z51.402
X-38.274 Y8.939 Z51.4
X-38.253 Y8.942
S15000
X-38.259 Y8.941
X-38.306 Y8.934
X-38.377 Y8.924
X-38.541 Y8.9
X-38.591 Y8.894
X-38.616 Y8.89
X-38.663 Y8.883
X-38.691 Y8.88
X-38.777 Y8.868 Z51.426
X-38.859 Y8.856 Z51.464
X-38.933 Y8.846 Z51.514
X-38.999 Y8.837 Z51.575
X-39.056 Y8.829 Z51.646
X-39.101 Y8.823 Z51.724
X-39.134 Y8.818 Z51.808
X-39.155 Y8.815 Z51.896
X-39.161 Y8.814 Z51.987
G0 Z59.
X-37.18 Y8.914
Z52.732
G1 Z51.9 F1440.
S10000
X-37.184 Z51.834
X-37.194 Y8.912 Z51.769
X-37.212 Y8.909 Z51.706
X-37.186 Y8.913 Z51.641
X-37.153 Y8.919 Z51.581
X-37.11 Y8.926 Z51.52
X-37.061 Y8.935 Z51.466
X-37.021 Y8.942 Z51.431
X-36.978 Y8.949 Z51.4
X-36.937 Y8.957 Z51.374
X-36.904 Y8.963 Z51.357
X-36.937 Y8.957 Z51.342
X-36.978 Y8.949 Z51.328
X-37.061 Y8.935 Z51.308
X-37.11 Y8.926 Z51.302
X-37.134 Y8.922 Z51.301
X-37.153 Y8.919 Z51.3
X-37.186 Y8.913 Z51.299
X-37.212 Y8.909 Z51.298
X-37.186 Y8.913 Z51.297
X-37.153 Y8.919 Z51.296
X-37.11 Y8.926 Z51.294
X-37.061 Y8.935 Z51.293
X-36.978 Y8.949 Z51.29
X-36.937 Y8.957 Z51.288
X-36.904 Y8.963 Z51.287
X-36.937 Y8.957 Z51.286
X-36.978 Y8.949 Z51.284
X-37.061 Y8.935 Z51.281
X-37.11 Y8.926 Z51.28
X-37.153 Y8.919 Z51.278
X-37.186 Y8.913 Z51.277
X-37.212 Y8.909 Z51.276
X-37.186 Y8.913 Z51.275
X-37.153 Y8.919 Z51.274
X-37.11 Y8.926 Z51.272
X-37.061 Y8.935 Z51.271
X-36.978 Y8.949 Z51.268
X-36.937 Y8.957 Z51.266
X-36.904 Y8.963 Z51.265
X-36.937 Y8.957 Z51.264
X-36.978 Y8.949 Z51.263
X-37.061 Y8.935 Z51.26
X-37.11 Y8.926 Z51.258
X-37.153 Y8.919 Z51.256
X-37.186 Y8.913 Z51.255
X-37.212 Y8.909 Z51.254
X-37.186 Y8.913 Z51.253
X-37.153 Y8.919 Z51.252
X-37.11 Y8.926 Z51.251
X-37.061 Y8.935 Z51.249
X-36.978 Y8.949 Z51.246
X-36.937 Y8.957 Z51.245
