%
O00003001
(T5  D=6. CR=3. - ZMIN=26.201 - BALL END MILL)
G90 G94 G17
G21
G91
G28 Z0.
G90
(???1 (2))
T5 M6
S15000 M3
G54
G0 X73.056 Y11.185
G43 Z69. H5
G0 Z54.665
G1 Z26.808 F1440.
G19 G2 Y10.07 Z26.5 J-0.6
G1 Y9.944 Z26.71
Y9.8 Z26.911
Y9.639 Z27.102
Y9.46 Z27.279
Y9.266 Z27.442
Y9.058 Z27.589
Y8.837 Z27.718
Y8.605 Z27.829
Y8.362 Z27.919
Y8.112 Z27.989
Y7.856 Z28.036
Y7.596 Z28.062
Y5.96 Z28.066
Y-2.662 Z28.065
Y-2.951 Z28.041
Y-3.185 Z28.001
Y-3.416 Z27.943
Y-3.642 Z27.866
Y-3.862 Z27.771
Y-4.075 Z27.659
Y-4.278 Z27.529
Y-4.472 Z27.382
Y-4.654 Z27.219
Y-4.823 Z27.041
Y-4.978 Z26.848
Y-5.118 Z26.641
Y-5.199 Z26.502
G2 Y-5.459 Z26.352 J-0.259 K0.151
G1 X73.048 Y-5.497
X73.027 Y-5.529
X72.994 Y-5.551
X72.956 Y-5.559
X72.918 Y-5.551
X72.885 Y-5.529
X72.864 Y-5.497
X72.856 Y-5.459
G3 Y-5.199 Z26.502 K0.3
G1 Y-5.118 Z26.641
Y-4.978 Z26.848
Y-4.823 Z27.041
Y-4.654 Z27.219
Y-4.472 Z27.382
Y-4.278 Z27.529
Y-4.075 Z27.659
Y-3.862 Z27.771
Y-3.642 Z27.866
Y-3.416 Z27.943
Y-3.185 Z28.001
Y-2.951 Z28.041
Y-2.662 Z28.065
Y5.96 Z28.066
Y7.596 Z28.062
Y7.856 Z28.036
Y8.112 Z27.989
Y8.362 Z27.919
Y8.605 Z27.829
Y8.837 Z27.718
Y9.058 Z27.589
Y9.266 Z27.442
Y9.46 Z27.279
Y9.639 Z27.102
Y9.8 Z26.911
Y9.944 Z26.71
Y10.07 Z26.5
G3 Y10.328 Z26.354 J0.257 K0.154
G1 X72.848 Y10.366
X72.827 Y10.398
X72.794 Y10.42
X72.756 Y10.428
X72.718 Y10.42
X72.685 Y10.398
X72.664 Y10.366
X72.656 Y10.328
G2 Y10.07 Z26.5 K0.3
G1 Y9.944 Z26.71
Y9.8 Z26.911
Y9.639 Z27.102
Y9.46 Z27.279
Y9.266 Z27.442
Y9.058 Z27.589
Y8.837 Z27.718
Y8.605 Z27.829
Y8.362 Z27.919
Y8.112 Z27.989
Y7.856 Z28.036
Y7.596 Z28.062
Y5.96 Z28.066
Y-2.662 Z28.065
Y-2.951 Z28.041
Y-3.185 Z28.001
Y-3.416 Z27.943
Y-3.642 Z27.866
Y-3.862 Z27.771
Y-4.075 Z27.659
Y-4.278 Z27.529
Y-4.472 Z27.382
Y-4.654 Z27.219
Y-4.823 Z27.041
Y-4.978 Z26.848
Y-5.118 Z26.641
Y-5.199 Z26.502
G2 Y-5.459 Z26.352 J-0.259 K0.151
G1 X72.648 Y-5.497
X72.627 Y-5.529
X72.594 Y-5.551
X72.556 Y-5.559
X72.518 Y-5.551
X72.485 Y-5.529
X72.464 Y-5.497
X72.456 Y-5.459
G3 Y-5.199 Z26.502 K0.3
G1 Y-5.118 Z26.641
Y-4.978 Z26.848
Y-4.823 Z27.041
Y-4.654 Z27.219
Y-4.472 Z27.382
Y-4.278 Z27.529
Y-4.075 Z27.659
Y-3.862 Z27.771
Y-3.642 Z27.866
Y-3.416 Z27.943
Y-3.185 Z28.001
Y-2.951 Z28.041
Y-2.662 Z28.065
Y5.96 Z28.066
Y7.596 Z28.062
Y7.856 Z28.036
Y8.112 Z27.989
Y8.362 Z27.919
Y8.605 Z27.829
Y8.837 Z27.718
Y9.058 Z27.589
Y9.266 Z27.442
Y9.46 Z27.279
Y9.639 Z27.102
Y9.8 Z26.911
Y9.944 Z26.71
Y10.07 Z26.5
G3 Y10.328 Z26.354 J0.257 K0.154
G1 X72.448 Y10.366
X72.427 Y10.398
X72.394 Y10.42
X72.356 Y10.428
X72.318 Y10.42
X72.285 Y10.398
X72.264 Y10.366
X72.256 Y10.328
G2 Y10.07 Z26.5 K0.3
G1 Y9.944 Z26.71
Y9.8 Z26.911
Y9.639 Z27.102
Y9.46 Z27.279
Y9.266 Z27.442
Y9.058 Z27.589
Y8.837 Z27.718
Y8.605 Z27.829
Y8.362 Z27.919
Y8.112 Z27.989
Y7.856 Z28.036
Y7.596 Z28.062
Y5.96 Z28.066
Y-2.662 Z28.065
Y-2.951 Z28.041
Y-3.185 Z28.001
Y-3.416 Z27.943
Y-3.642 Z27.866
Y-3.862 Z27.771
Y-4.075 Z27.659
Y-4.278 Z27.529
Y-4.472 Z27.382
Y-4.654 Z27.219
Y-4.823 Z27.041
Y-4.978 Z26.848
Y-5.118 Z26.641
Y-5.199 Z26.502
G2 Y-5.459 Z26.352 J-0.259 K0.151
G1 X72.254 Y-5.478
X72.248 Y-5.497 Z26.353
X72.239 Y-5.514
X72.227 Y-5.529
X72.212 Y-5.542 Z26.354
X72.194 Y-5.551
X72.176 Y-5.557 Z26.355
X72.156 Y-5.559
X72.137 Y-5.557 Z26.356
X72.118 Y-5.551
X72.1 Y-5.542
X72.085 Y-5.529 Z26.357
X72.073 Y-5.514
X72.064 Y-5.497
X72.058 Y-5.478 Z26.358
X72.056 Y-5.459
Y-5.456
G3 Y-5.199 Z26.502 K0.3
G1 Y-5.052 Z26.744
Y-4.904 Z26.944
Y-4.742 Z27.13
Y-4.566 Z27.301
Y-4.378 Z27.456
Y-4.179 Z27.595
Y-3.97 Z27.717
Y-3.754 Z27.821
Y-3.53 Z27.907
Y-3.301 Z27.974
Y-3.068 Z28.024
Y-2.833 Z28.054
Y-2.566 Z28.066
Y7.59 Z28.062
Y7.85 Z28.037
Y8.106 Z27.99
Y8.357 Z27.921
Y8.599 Z27.831
Y8.832 Z27.721
Y9.053 Z27.592
Y9.262 Z27.446
Y9.456 Z27.283
Y9.635 Z27.106
Y9.797 Z26.916
Y9.941 Z26.715
Y10.069 Z26.503
Y10.07 Z26.5
G3 Y10.327 Z26.354 J0.257 K0.154
G1 Y10.328
X72.054 Y10.347
X72.048 Y10.366
X72.039 Y10.383
X72.027 Y10.398
X72.012 Y10.411
X71.994 Y10.42
X71.976 Y10.426
X71.956 Y10.428
X71.937 Y10.426
X71.918 Y10.42
X71.9 Y10.411
X71.885 Y10.398
X71.873 Y10.383
X71.864 Y10.366
X71.858 Y10.347
X71.856 Y10.328
G2 Y10.07 Z26.5 K0.3
G1 Y9.944 Z26.71
Y9.8 Z26.911
Y9.639 Z27.102
Y9.46 Z27.279
Y9.266 Z27.442
Y9.058 Z27.589
Y8.837 Z27.718
Y8.605 Z27.829
Y8.362 Z27.919
Y8.112 Z27.989
Y7.856 Z28.036
Y7.596 Z28.062
Y5.96 Z28.066
Y-2.662 Z28.065
Y-2.951 Z28.041
Y-3.185 Z28.001
Y-3.416 Z27.943
Y-3.642 Z27.866
Y-3.862 Z27.771
Y-4.075 Z27.659
Y-4.278 Z27.529
Y-4.472 Z27.382
Y-4.654 Z27.219
Y-4.823 Z27.041
Y-4.978 Z26.848
Y-5.118 Z26.641
Y-5.199 Z26.502
G2 Y-5.459 Z26.352 J-0.259 K0.151
G1 X71.848 Y-5.497
X71.827 Y-5.529
X71.794 Y-5.551
X71.756 Y-5.559
X71.718 Y-5.551
X71.685 Y-5.529
X71.664 Y-5.497
X71.656 Y-5.459
G3 Y-5.199 Z26.502 K0.3
G1 Y-5.118 Z26.641
Y-4.978 Z26.848
Y-4.823 Z27.041
Y-4.654 Z27.219
Y-4.472 Z27.382
Y-4.278 Z27.529
Y-4.075 Z27.659
Y-3.862 Z27.771
Y-3.642 Z27.866
Y-3.416 Z27.943
Y-3.185 Z28.001
Y-2.951 Z28.041
Y-2.662 Z28.065
Y5.96 Z28.066
Y7.596 Z28.062
Y7.856 Z28.036
Y8.112 Z27.989
Y8.362 Z27.919
Y8.605 Z27.829
Y8.837 Z27.718
Y9.058 Z27.589
Y9.266 Z27.442
Y9.46 Z27.279
Y9.639 Z27.102
Y9.8 Z26.911
Y9.944 Z26.71
Y10.07 Z26.5
G3 Y10.328 Z26.354 J0.257 K0.154
G1 X71.648 Y10.366
X71.627 Y10.398
X71.594 Y10.42
X71.556 Y10.428
X71.518 Y10.42
X71.485 Y10.398
X71.464 Y10.366
X71.456 Y10.328
G2 Y10.07 Z26.5 K0.3
G1 Y9.944 Z26.71
Y9.8 Z26.911
Y9.639 Z27.102
Y9.46 Z27.279
Y9.266 Z27.442
Y9.058 Z27.589
Y8.837 Z27.718
Y8.605 Z27.829
Y8.362 Z27.919
Y8.112 Z27.989
Y7.856 Z28.036
Y7.596 Z28.062
Y5.96 Z28.066
Y-2.662 Z28.065
Y-2.951 Z28.041
Y-3.185 Z28.001
Y-3.416 Z27.943
Y-3.642 Z27.866
Y-3.862 Z27.771
Y-4.075 Z27.659
Y-4.278 Z27.529
Y-4.472 Z27.382
Y-4.654 Z27.219
Y-4.823 Z27.041
Y-4.978 Z26.848
Y-5.118 Z26.641
Y-5.199 Z26.502
G2 Y-5.459 Z26.352 J-0.259 K0.151
G1 X71.448 Y-5.497
X71.427 Y-5.529
X71.394 Y-5.551
X71.356 Y-5.559
X71.318 Y-5.551
X71.285 Y-5.529
X71.264 Y-5.497
X71.256 Y-5.459
G3 Y-5.199 Z26.502 K0.3
G1 Y-5.118 Z26.641
Y-4.978 Z26.848
Y-4.823 Z27.041
Y-4.654 Z27.219
Y-4.472 Z27.382
Y-4.278 Z27.529
Y-4.075 Z27.659
Y-3.862 Z27.771
Y-3.642 Z27.866
Y-3.416 Z27.943
Y-3.185 Z28.001
Y-2.951 Z28.041
Y-2.662 Z28.065
Y5.96 Z28.066
Y7.596 Z28.062
Y7.856 Z28.036
Y8.112 Z27.989
Y8.362 Z27.919
Y8.605 Z27.829
Y8.837 Z27.718
Y9.058 Z27.589
Y9.266 Z27.442
Y9.46 Z27.279
Y9.639 Z27.102
Y9.8 Z26.911
Y9.944 Z26.71
Y10.07 Z26.5
G3 Y10.328 Z26.354 J0.257 K0.154
G1 X71.248 Y10.366
X71.227 Y10.398
X71.194 Y10.42
X71.156 Y10.428
X71.118 Y10.42
X71.085 Y10.398
X71.064 Y10.366
X71.056 Y10.328
G2 Y10.07 Z26.5 K0.3
G1 Y9.944 Z26.71
Y9.8 Z26.911
Y9.639 Z27.102
Y9.46 Z27.279
Y9.266 Z27.442
Y9.058 Z27.589
Y8.837 Z27.718
Y8.605 Z27.829
Y8.362 Z27.919
Y8.112 Z27.989
Y7.856 Z28.036
Y7.596 Z28.062
Y5.96 Z28.066
Y-2.662 Z28.065
Y-2.951 Z28.041
Y-3.185 Z28.001
Y-3.416 Z27.943
Y-3.642 Z27.866
Y-3.862 Z27.771
Y-4.075 Z27.659
Y-4.278 Z27.529
Y-4.472 Z27.382
Y-4.654 Z27.219
Y-4.823 Z27.041
Y-4.978 Z26.848
Y-5.118 Z26.641
Y-5.199 Z26.502
G2 Y-5.459 Z26.352 J-0.259 K0.151
G1 X71.048 Y-5.497
X71.027 Y-5.529
X70.994 Y-5.551
X70.956 Y-5.559
X70.918 Y-5.551
X70.885 Y-5.529
X70.864 Y-5.497
X70.856 Y-5.459
G3 Y-5.199 Z26.502 K0.3
G1 Y-5.118 Z26.641
Y-4.978 Z26.848
Y-4.823 Z27.041
Y-4.654 Z27.219
Y-4.472 Z27.382
Y-4.278 Z27.529
Y-4.075 Z27.659
Y-3.862 Z27.771
Y-3.642 Z27.866
Y-3.416 Z27.943
Y-3.185 Z28.001
Y-2.951 Z28.041
Y-2.662 Z28.065
Y5.96 Z28.066
Y7.596 Z28.062
Y7.856 Z28.036
Y8.112 Z27.989
Y8.362 Z27.919
Y8.605 Z27.829
Y8.837 Z27.718
Y9.058 Z27.589
Y9.266 Z27.442
Y9.46 Z27.279
Y9.639 Z27.102
Y9.8 Z26.911
Y9.944 Z26.71
Y10.07 Z26.5
G3 Y10.328 Z26.354 J0.257 K0.154
G1 X70.848 Y10.366
X70.827 Y10.398
X70.794 Y10.42
X70.756 Y10.428
X70.718 Y10.42
X70.685 Y10.398
X70.664 Y10.366
X70.656 Y10.328
G2 Y10.07 Z26.5 K0.3
G1 Y9.944 Z26.71
Y9.8 Z26.911
Y9.639 Z27.102
Y9.46 Z27.279
Y9.266 Z27.442
Y9.058 Z27.589
Y8.837 Z27.718
Y8.605 Z27.829
Y8.362 Z27.919
Y8.112 Z27.989
Y7.856 Z28.036
Y7.596 Z28.062
Y5.96 Z28.066
Y-2.662 Z28.065
Y-2.951 Z28.041
Y-3.185 Z28.001
Y-3.416 Z27.943
Y-3.642 Z27.866
Y-3.862 Z27.771
Y-4.075 Z27.659
Y-4.278 Z27.529
Y-4.472 Z27.382
Y-4.654 Z27.219
Y-4.823 Z27.041
Y-4.978 Z26.848
Y-5.118 Z26.641
Y-5.199 Z26.502
G2 Y-5.459 Z26.352 J-0.259 K0.151
G1 X70.648 Y-5.497
X70.627 Y-5.529
X70.594 Y-5.551
X70.556 Y-5.559
X70.518 Y-5.551
X70.485 Y-5.529
X70.464 Y-5.497
X70.456 Y-5.459
G3 Y-5.199 Z26.502 K0.3
G1 Y-5.118 Z26.641
Y-4.978 Z26.848
Y-4.823 Z27.041
Y-4.654 Z27.219
Y-4.472 Z27.382
Y-4.278 Z27.529
Y-4.075 Z27.659
Y-3.862 Z27.771
Y-3.642 Z27.866
Y-3.416 Z27.943
Y-3.185 Z28.001
Y-2.951 Z28.041
Y-2.662 Z28.065
Y5.96 Z28.066
Y7.596 Z28.062
Y7.856 Z28.036
Y8.112 Z27.989
Y8.362 Z27.919
Y8.605 Z27.829
Y8.837 Z27.718
Y9.058 Z27.589
Y9.266 Z27.442
Y9.46 Z27.279
Y9.639 Z27.102
Y9.8 Z26.911
Y9.944 Z26.71
Y10.07 Z26.5
G3 Y10.328 Z26.354 J0.257 K0.154
G1 X70.454 Y10.347
X70.448 Y10.366
X70.439 Y10.383
X70.427 Y10.398
X70.412 Y10.411
X70.394 Y10.42
X70.376 Y10.426
X70.356 Y10.428
X70.337 Y10.426
X70.318 Y10.42
X70.3 Y10.411
X70.285 Y10.398
X70.273 Y10.383
X70.264 Y10.366
X70.258 Y10.347
X70.256 Y10.328
Y10.327
G2 Y10.07 Z26.5 K0.3
G1 Y10.069 Z26.503
Y9.941 Z26.715
Y9.797 Z26.916
Y9.635 Z27.106
Y9.456 Z27.283
Y9.262 Z27.446
Y9.053 Z27.592
Y8.832 Z27.721
Y8.599 Z27.831
Y8.357 Z27.921
Y8.106 Z27.99
Y7.85 Z28.037
Y7.59 Z28.062
Y-2.566 Z28.066
Y-2.833 Z28.054
Y-3.068 Z28.024
Y-3.301 Z27.974
Y-3.53 Z27.907
Y-3.754 Z27.821
Y-3.97 Z27.717
Y-4.179 Z27.595
Y-4.378 Z27.456
Y-4.566 Z27.301
Y-4.742 Z27.13
Y-4.904 Z26.944
Y-5.052 Z26.744
Y-5.199 Z26.502
G2 Y-5.456 Z26.358 J-0.256 K0.156
G1 Y-5.459
X70.254 Y-5.478
X70.248 Y-5.497 Z26.357
X70.239 Y-5.514
X70.227 Y-5.529
X70.212 Y-5.542 Z26.356
X70.194 Y-5.551
X70.176 Y-5.557
X70.156 Y-5.559 Z26.355
X70.137 Y-5.557
X70.118 Y-5.551 Z26.354
X70.1 Y-5.542
X70.085 Y-5.529 Z26.353
X70.073 Y-5.514
X70.064 Y-5.497
X70.058 Y-5.478 Z26.352
X70.056 Y-5.459
G3 Y-5.199 Z26.502 K0.3
G1 Y-5.118 Z26.641
Y-4.978 Z26.848
Y-4.823 Z27.041
Y-4.654 Z27.219
Y-4.472 Z27.382
Y-4.278 Z27.529
Y-4.075 Z27.659
Y-3.862 Z27.771
Y-3.642 Z27.866
Y-3.416 Z27.943
Y-3.185 Z28.001
Y-2.951 Z28.041
Y-2.662 Z28.065
Y5.96 Z28.066
Y7.596 Z28.062
Y7.856 Z28.036
Y8.112 Z27.989
Y8.362 Z27.919
Y8.605 Z27.829
Y8.837 Z27.718
Y9.058 Z27.589
Y9.266 Z27.442
Y9.46 Z27.279
Y9.639 Z27.102
Y9.8 Z26.911
Y9.944 Z26.71
Y10.07 Z26.5
G3 Y10.328 Z26.354 J0.257 K0.154
G1 X70.048 Y10.366
X70.027 Y10.398
X69.994 Y10.42
X69.956 Y10.428
X69.918 Y10.42
X69.885 Y10.398
X69.864 Y10.366
X69.856 Y10.328
G2 Y10.07 Z26.5 K0.3
G1 Y9.944 Z26.71
Y9.8 Z26.911
Y9.639 Z27.102
Y9.46 Z27.279
Y9.266 Z27.442
Y9.058 Z27.589
Y8.837 Z27.718
Y8.605 Z27.829
Y8.362 Z27.919
Y8.112 Z27.989
Y7.856 Z28.036
Y7.596 Z28.062
Y5.96 Z28.066
Y-2.662 Z28.065
Y-2.951 Z28.041
Y-3.185 Z28.001
Y-3.416 Z27.943
Y-3.642 Z27.866
Y-3.862 Z27.771
Y-4.075 Z27.659
Y-4.278 Z27.529
Y-4.472 Z27.382
Y-4.654 Z27.219
Y-4.823 Z27.041
Y-4.978 Z26.848
Y-5.118 Z26.641
Y-5.199 Z26.502
G2 Y-5.459 Z26.352 J-0.259 K0.151
G1 X69.848 Y-5.497
X69.827 Y-5.529
X69.794 Y-5.551
X69.756 Y-5.559
X69.718 Y-5.551
X69.685 Y-5.529
X69.664 Y-5.497
X69.656 Y-5.459
G3 Y-5.199 Z26.502 K0.3
G1 Y-5.118 Z26.641
Y-4.978 Z26.848
Y-4.823 Z27.041
Y-4.654 Z27.219
Y-4.472 Z27.382
Y-4.278 Z27.529
Y-4.075 Z27.659
Y-3.862 Z27.771
Y-3.642 Z27.866
Y-3.416 Z27.943
Y-3.185 Z28.001
Y-2.951 Z28.041
Y-2.662 Z28.065
Y5.96 Z28.066
Y7.596 Z28.062
Y7.856 Z28.036
Y8.112 Z27.989
Y8.362 Z27.919
Y8.605 Z27.829
Y8.837 Z27.718
Y9.058 Z27.589
Y9.266 Z27.442
Y9.46 Z27.279
Y9.639 Z27.102
Y9.8 Z26.911
Y9.944 Z26.71
Y10.07 Z26.5
G3 Y10.328 Z26.354 J0.257 K0.154
G1 X69.648 Y10.366
X69.627 Y10.398
X69.594 Y10.42
X69.556 Y10.428
X69.518 Y10.42
X69.485 Y10.398
X69.464 Y10.366
X69.456 Y10.328
G2 Y10.07 Z26.5 K0.3
G1 Y9.944 Z26.71
Y9.8 Z26.911
Y9.639 Z27.102
Y9.46 Z27.279
Y9.266 Z27.442
Y9.058 Z27.589
Y8.837 Z27.718
Y8.605 Z27.829
Y8.362 Z27.919
Y8.112 Z27.989
Y7.856 Z28.036
Y7.596 Z28.062
Y5.96 Z28.066
Y-2.662 Z28.065
Y-2.951 Z28.041
Y-3.185 Z28.001
Y-3.416 Z27.943
Y-3.642 Z27.866
Y-3.862 Z27.771
Y-4.075 Z27.659
Y-4.278 Z27.529
Y-4.472 Z27.382
Y-4.654 Z27.219
Y-4.823 Z27.041
Y-4.978 Z26.848
Y-5.118 Z26.641
Y-5.199 Z26.502
G2 Y-5.459 Z26.352 J-0.259 K0.151
G1 X69.448 Y-5.497
X69.427 Y-5.529
X69.394 Y-5.551
X69.356 Y-5.559
X69.318 Y-5.551
X69.285 Y-5.529
X69.264 Y-5.497
X69.256 Y-5.459
G3 Y-5.199 Z26.502 K0.3
G1 Y-5.118 Z26.641
Y-4.978 Z26.848
Y-4.823 Z27.041
Y-4.654 Z27.219
Y-4.472 Z27.382
Y-4.278 Z27.529
Y-4.075 Z27.659
Y-3.862 Z27.771
Y-3.642 Z27.866
Y-3.416 Z27.943
Y-3.185 Z28.001
Y-2.951 Z28.041
Y-2.662 Z28.065
Y5.96 Z28.066
Y7.596 Z28.062
Y7.856 Z28.036
Y8.112 Z27.989
Y8.362 Z27.919
Y8.605 Z27.829
Y8.837 Z27.718
Y9.058 Z27.589
Y9.266 Z27.442
Y9.46 Z27.279
Y9.639 Z27.102
Y9.8 Z26.911
Y9.944 Z26.71
Y10.07 Z26.5
G3 Y10.328 Z26.354 J0.257 K0.154
G1 X69.248 Y10.366
X69.227 Y10.398
X69.194 Y10.42
X69.156 Y10.428
X69.118 Y10.42
X69.085 Y10.398
X69.064 Y10.366
X69.056 Y10.328
G2 Y10.07 Z26.5 K0.3
G1 Y9.944 Z26.71
Y9.8 Z26.911
Y9.639 Z27.102
Y9.46 Z27.279
Y9.266 Z27.442
Y9.058 Z27.589
Y8.837 Z27.718
Y8.605 Z27.829
Y8.362 Z27.919
Y8.112 Z27.989
Y7.856 Z28.036
Y7.596 Z28.062
Y5.96 Z28.066
Y-2.662 Z28.065
Y-2.951 Z28.041
Y-3.185 Z28.001
Y-3.416 Z27.943
Y-3.642 Z27.866
Y-3.862 Z27.771
Y-4.075 Z27.659
Y-4.278 Z27.529
Y-4.472 Z27.382
Y-4.654 Z27.219
Y-4.823 Z27.041
Y-4.978 Z26.848
Y-5.118 Z26.641
Y-5.199 Z26.502
G2 Y-5.459 Z26.352 J-0.259 K0.151
G1 X69.048 Y-5.497
X69.027 Y-5.529
X68.994 Y-5.551
X68.956 Y-5.559
X68.918 Y-5.551
X68.885 Y-5.529
X68.864 Y-5.497
X68.856 Y-5.459
G3 Y-5.199 Z26.502 K0.3
G1 Y-5.118 Z26.641
Y-4.978 Z26.848
Y-4.823 Z27.041
Y-4.654 Z27.219
Y-4.472 Z27.382
Y-4.278 Z27.529
Y-4.075 Z27.659
Y-3.862 Z27.771
Y-3.642 Z27.866
Y-3.416 Z27.943
Y-3.185 Z28.001
Y-2.951 Z28.041
Y-2.662 Z28.065
Y5.96 Z28.066
Y7.596 Z28.062
Y7.856 Z28.036
Y8.112 Z27.989
Y8.362 Z27.919
Y8.605 Z27.829
Y8.837 Z27.718
Y9.058 Z27.589
Y9.266 Z27.442
Y9.46 Z27.279
Y9.639 Z27.102
Y9.8 Z26.911
Y9.944 Z26.71
Y10.07 Z26.5
G3 Y10.328 Z26.354 J0.257 K0.154
G1 X68.848 Y10.366
X68.827 Y10.398
X68.794 Y10.42
X68.756 Y10.428
X68.718 Y10.42
X68.685 Y10.398
X68.664 Y10.366
X68.656 Y10.328
G2 Y10.07 Z26.5 K0.3
G1 Y9.944 Z26.71
Y9.8 Z26.911
Y9.639 Z27.102
Y9.46 Z27.279
Y9.266 Z27.442
Y9.058 Z27.589
Y8.837 Z27.718
Y8.605 Z27.829
Y8.362 Z27.919
Y8.112 Z27.989
Y7.856 Z28.036
Y7.596 Z28.062
Y5.96 Z28.066
Y-2.662 Z28.065
Y-2.951 Z28.041
Y-3.185 Z28.001
Y-3.416 Z27.943
Y-3.642 Z27.866
Y-3.862 Z27.771
Y-4.075 Z27.659
Y-4.278 Z27.529
Y-4.472 Z27.382
Y-4.654 Z27.219
Y-4.823 Z27.041
Y-4.978 Z26.848
Y-5.118 Z26.641
Y-5.199 Z26.502
G2 Y-5.459 Z26.352 J-0.259 K0.151
G1 X68.654 Y-5.478
X68.648 Y-5.497 Z26.353
X68.639 Y-5.514
X68.627 Y-5.529
X68.612 Y-5.542 Z26.354
X68.594 Y-5.551
X68.576 Y-5.557 Z26.355
X68.556 Y-5.559
X68.537 Y-5.557 Z26.356
X68.518 Y-5.551
X68.501 Y-5.542
X68.485 Y-5.529 Z26.357
X68.473 Y-5.514
X68.464 Y-5.497
X68.458 Y-5.478 Z26.358
X68.456 Y-5.459
Y-5.456
G3 Y-5.199 Z26.502 K0.3
G1 Y-5.052 Z26.744
Y-4.904 Z26.944
Y-4.742 Z27.13
Y-4.566 Z27.301
Y-4.378 Z27.456
Y-4.179 Z27.595
Y-3.97 Z27.717
Y-3.754 Z27.821
Y-3.53 Z27.907
Y-3.301 Z27.974
Y-3.068 Z28.024
Y-2.833 Z28.054
Y-2.566 Z28.066
Y7.59 Z28.062
Y7.85 Z28.037
Y8.106 Z27.99
Y8.357 Z27.921
Y8.599 Z27.831
Y8.832 Z27.721
Y9.053 Z27.592
Y9.262 Z27.446
Y9.456 Z27.283
Y9.635 Z27.106
Y9.797 Z26.916
Y9.941 Z26.715
Y10.069 Z26.503
G3 Y10.626 Z26.657 J0.257 K0.154
G1 Z28.116
X68.455 Y10.619 Z28.229
X68.453 Y10.597 Z28.341
X68.448 Y10.56 Z28.448
X68.443 Y10.51 Z28.55
X68.435 Y10.448 Z28.644
X68.427 Y10.373 Z28.73
X68.417 Y10.289 Z28.805
X68.406 Y10.195 Z28.868
X68.394 Y10.094 Z28.918
X68.382 Y9.987 Z28.954
X68.369 Y9.876 Z28.976
X68.356 Y9.764 Z28.984
X68.343 Y9.651 Z28.976
X68.33 Y9.541 Z28.954
X68.318 Y9.434 Z28.918
X68.306 Y9.333 Z28.868
X68.295 Y9.239 Z28.805
X68.285 Y9.154 Z28.73
X68.277 Y9.08 Z28.644
X68.269 Y9.017 Z28.55
X68.264 Y8.967 Z28.448
X68.259 Y8.931 Z28.341
X68.257 Y8.909 Z28.229
X68.256 Y8.902 Z28.116
G2 Y8.631 Z27.817 J-0.3
G1 Y8.389 Z27.91
Y8.139 Z27.982
Y7.884 Z28.032
Y7.624 Z28.06
Y7.167 Z28.066
Y-2.662 Z28.065
Y-2.951 Z28.041
Y-3.185 Z28.001
Y-3.416 Z27.943
Y-3.642 Z27.866
Y-3.862 Z27.771
Y-4.075 Z27.659
Y-4.278 Z27.529
Y-4.472 Z27.382
Y-4.654 Z27.219
Y-4.823 Z27.041
Y-4.978 Z26.848
Y-5.118 Z26.641
Y-5.199 Z26.502
G2 Y-5.459 Z26.352 J-0.259 K0.151
G1 X68.254 Y-5.478
X68.248 Y-5.497 Z26.353
X68.239 Y-5.514
X68.227 Y-5.529
X68.212 Y-5.542 Z26.354
X68.194 Y-5.551
X68.176 Y-5.557 Z26.355
X68.156 Y-5.559
X68.137 Y-5.557 Z26.356
X68.118 Y-5.551
X68.101 Y-5.542
X68.085 Y-5.529 Z26.357
X68.073 Y-5.514
X68.064 Y-5.497
X68.058 Y-5.478 Z26.358
X68.056 Y-5.459
Y-5.456
G3 Y-5.199 Z26.502 K0.3
G1 Y-5.052 Z26.744
Y-4.904 Z26.944
Y-4.742 Z27.13
Y-4.566 Z27.301
Y-4.378 Z27.456
Y-4.179 Z27.595
Y-3.97 Z27.717
Y-3.754 Z27.821
Y-3.53 Z27.907
Y-3.301 Z27.974
Y-3.068 Z28.024
Y-2.833 Z28.054
Y-2.645 Z28.065
Y6.744 Z28.066
Y6.783 Z28.112
Y6.811 Z28.164
Y6.828 Z28.221
Y6.834 Z28.28
Z33.84
X68.049 Y6.832 Z33.946
X68.028 Y6.824 Z34.05
X67.993 Y6.81 Z34.15
X67.945 Y6.792 Z34.244
X67.885 Y6.77 Z34.33
X67.814 Y6.743 Z34.405
X67.735 Y6.713 Z34.469
X67.647 Y6.68 Z34.52
X67.553 Y6.644 Z34.558
X67.456 Y6.607 Z34.58
X67.356 Y6.57 Z34.588
X67.256 Y6.532 Z34.58
X67.159 Y6.495 Z34.558
X67.065 Y6.46 Z34.52
X66.978 Y6.427 Z34.469
X66.898 Y6.396 Z34.405
X66.827 Y6.37 Z34.33
X66.767 Y6.347 Z34.244
X66.719 Y6.329 Z34.15
X66.684 Y6.316 Z34.05
X66.663 Y6.308 Z33.946
X66.656 Y6.305 Z33.84
G3 Y6.711 Z33.559 J0.3
G1 Y7.283 Z33.776
Y7.777 Z33.921
Y8.036 Z33.973
Y8.268 Z34.014
Y8.535 Z34.038
Y8.801 Z34.047
Y9.035 Z34.038
Y9.39 Z33.987
Y9.605 Z33.941
Y10.076 Z33.772
Y10.247 Z33.689
Y10.487 Z33.542
G3 Y11.399 Z34.054 J0.313 K0.512
G0 Z59.
X67.856 Y5.624
Z35.566
G1 Z28.49 F1440.
G2 Y5.448 Z28.066 J-0.6
G1 Y-2.668 Z28.064
Y-2.951 Z28.041
Y-3.185 Z28.001
Y-3.416 Z27.943
Y-3.642 Z27.866
Y-3.862 Z27.771
Y-4.075 Z27.659
Y-4.278 Z27.529
Y-4.472 Z27.382
Y-4.654 Z27.219
Y-4.823 Z27.041
Y-4.978 Z26.848
Y-5.118 Z26.641
Y-5.199 Z26.502
G2 Y-5.459 Z26.352 J-0.259 K0.151
G1 X67.848 Y-5.497
X67.827 Y-5.529
X67.794 Y-5.551
X67.756 Y-5.559
X67.718 Y-5.551
X67.685 Y-5.529
X67.664 Y-5.497
X67.656 Y-5.459
G3 Y-5.199 Z26.502 K0.3
G1 Y-5.118 Z26.641
Y-4.978 Z26.848
Y-4.823 Z27.041
Y-4.654 Z27.219
Y-4.472 Z27.382
Y-4.278 Z27.529
Y-4.075 Z27.659
Y-3.862 Z27.771
Y-3.642 Z27.866
Y-3.416 Z27.943
Y-3.185 Z28.001
Y-2.951 Z28.041
Y-2.727 Z28.062
Y4.251 Z28.066
X67.61 Y3.985
X67.561 Y3.721
X67.51 Y3.456
X67.456 Y3.192
Y-2.71 Z28.063
Y-2.951 Z28.041
Y-3.185 Z28.001
Y-3.416 Z27.943
Y-3.642 Z27.866
Y-3.862 Z27.771
Y-4.075 Z27.659
Y-4.278 Z27.529
Y-4.472 Z27.382
Y-4.654 Z27.219
Y-4.823 Z27.041
Y-4.978 Z26.848
Y-5.118 Z26.641
Y-5.199 Z26.502
G2 Y-5.459 Z26.352 J-0.259 K0.151
G1 X67.448 Y-5.497
X67.427 Y-5.529
X67.394 Y-5.551
X67.356 Y-5.559
X67.318 Y-5.551
X67.285 Y-5.529
X67.264 Y-5.497
X67.256 Y-5.459
G3 Y-5.199 Z26.502 K0.3
G1 Y-5.118 Z26.641
Y-4.978 Z26.848
Y-4.823 Z27.041
Y-4.654 Z27.219
Y-4.472 Z27.382
Y-4.278 Z27.529
Y-4.075 Z27.659
Y-3.862 Z27.771
Y-3.642 Z27.866
Y-3.416 Z27.943
Y-3.185 Z28.001
Y-2.951 Z28.041
Y-2.658 Z28.065
Y2.303 Z28.066
X67.209 Y2.106
X67.158 Y1.91
X67.108 Y1.714
X67.056 Y1.518
Y-2.729 Z28.062
Y-3.068 Z28.024
Y-3.301 Z27.974
Y-3.53 Z27.907
Y-3.754 Z27.821
Y-3.97 Z27.717
Y-4.179 Z27.595
Y-4.378 Z27.456
Y-4.566 Z27.301
Y-4.742 Z27.13
Y-4.904 Z26.944
Y-5.052 Z26.744
Y-5.199 Z26.502
G2 Y-5.456 Z26.358 J-0.256 K0.156
G1 Y-5.459
X67.054 Y-5.478
X67.048 Y-5.497 Z26.357
X67.039 Y-5.514
X67.027 Y-5.529
X67.012 Y-5.542 Z26.356
X66.994 Y-5.551
X66.976 Y-5.557
X66.956 Y-5.559 Z26.355
X66.937 Y-5.557
X66.918 Y-5.551 Z26.354
X66.901 Y-5.542
X66.885 Y-5.529 Z26.353
X66.873 Y-5.514
X66.864 Y-5.497
X66.858 Y-5.478 Z26.352
X66.856 Y-5.459
G3 Y-5.199 Z26.502 K0.3
G1 Y-5.118 Z26.641
Y-4.978 Z26.848
Y-4.823 Z27.041
Y-4.654 Z27.219
Y-4.472 Z27.382
Y-4.278 Z27.529
Y-4.075 Z27.659
Y-3.862 Z27.771
Y-3.642 Z27.866
Y-3.416 Z27.943
Y-3.185 Z28.001
Y-2.951 Z28.041
Y-2.686 Z28.064
Y0.804 Z28.066
X66.807 Y0.635
X66.707 Y0.298
X66.656 Y0.129
Y-2.695 Z28.063
Y-2.951 Z28.041
Y-3.185 Z28.001
Y-3.416 Z27.943
Y-3.642 Z27.866
Y-3.862 Z27.771
Y-4.075 Z27.659
Y-4.278 Z27.529
Y-4.472 Z27.382
Y-4.654 Z27.219
Y-4.823 Z27.041
Y-4.978 Z26.848
Y-5.118 Z26.641
Y-5.199 Z26.502
G2 Y-5.459 Z26.352 J-0.259 K0.151
G1 X66.648 Y-5.497
X66.627 Y-5.529
X66.594 Y-5.551
X66.556 Y-5.559
X66.518 Y-5.551
X66.485 Y-5.529
X66.464 Y-5.497
X66.456 Y-5.459
G3 Y-5.199 Z26.502 K0.3
G1 Y-5.118 Z26.641
Y-4.978 Z26.848
Y-4.823 Z27.041
Y-4.654 Z27.219
Y-4.472 Z27.382
Y-4.278 Z27.529
Y-4.075 Z27.659
Y-3.862 Z27.771
Y-3.642 Z27.866
Y-3.416 Z27.943
Y-3.185 Z28.001
Y-2.951 Z28.041
Y-2.655 Z28.065
Y-0.509 Z28.066
X66.358 Y-0.821
X66.256 Y-1.132
Y-2.711 Z28.063
Y-2.951 Z28.041
Y-3.185 Z28.001
Y-3.416 Z27.943
Y-3.642 Z27.866
Y-3.862 Z27.771
Y-4.075 Z27.659
Y-4.278 Z27.529
Y-4.472 Z27.382
Y-4.654 Z27.219
Y-4.823 Z27.041
Y-4.978 Z26.848
Y-5.118 Z26.641
Y-5.199 Z26.502
G2 Y-5.459 Z26.352 J-0.259 K0.151
G1 X66.248 Y-5.497
X66.227 Y-5.529
X66.194 Y-5.551
X66.156 Y-5.559
X66.118 Y-5.551
X66.085 Y-5.529
X66.064 Y-5.497
X66.056 Y-5.459
G3 Y-5.199 Z26.502 K0.3
G1 Y-5.118 Z26.641
Y-4.978 Z26.848
Y-4.823 Z27.041
Y-4.654 Z27.219
Y-4.472 Z27.382
Y-4.278 Z27.529
Y-4.075 Z27.659
Y-3.862 Z27.771
Y-3.642 Z27.866
Y-3.416 Z27.943
Y-3.185 Z28.001
Y-2.951 Z28.041
Y-2.662 Z28.065
Y-1.741 Z28.066
X65.957 Y-2.039
X65.856 Y-2.337
Y-2.719 Z28.062
Y-2.951 Z28.041
Y-3.185 Z28.001
Y-3.416 Z27.943
Y-3.642 Z27.866
Y-3.862 Z27.771
Y-4.075 Z27.659
Y-4.278 Z27.529
Y-4.472 Z27.382
Y-4.654 Z27.219
Y-4.823 Z27.041
Y-4.978 Z26.848
Y-5.118 Z26.641
Y-5.199 Z26.502
G2 Y-5.459 Z26.352 J-0.259 K0.151
G1 X65.854 Y-5.478
X65.848 Y-5.497
X65.839 Y-5.514
X65.827 Y-5.529
X65.812 Y-5.542 Z26.353
X65.794 Y-5.551
X65.776 Y-5.557
X65.756 Y-5.559
X65.737 Y-5.557
X65.718 Y-5.551
X65.701 Y-5.542
X65.685 Y-5.529
X65.673 Y-5.514
X65.664 Y-5.497
X65.658 Y-5.478
X65.656 Y-5.459
Y-5.458
G3 Y-5.199 Z26.502 K0.3
G1 Y-5.113 Z26.65
Y-4.972 Z26.857
Y-4.816 Z27.05
Y-4.645 Z27.228
Y-4.463 Z27.39
Y-4.268 Z27.536
Y-4.064 Z27.665
Y-3.85 Z27.777
Y-3.63 Z27.871
Y-3.403 Z27.947
Y-3.172 Z28.004
Y-2.938 Z28.043
Y-2.915 Z28.083
Y-2.901 Z28.126
Y-2.896 Z28.172
X65.654 Y-2.903 Z28.244
X65.647 Y-2.925 Z28.313
X65.637 Y-2.959 Z28.375
X65.623 Y-3.006 Z28.429
X65.606 Y-3.062 Z28.472
X65.587 Y-3.125 Z28.501
X65.567 Y-3.193 Z28.516
X65.546 Y-3.262
X65.525 Y-3.33 Z28.501
X65.506 Y-3.393 Z28.472
X65.489 Y-3.449 Z28.429
X65.475 Y-3.496 Z28.375
X65.465 Y-3.53 Z28.313
X65.458 Y-3.552 Z28.244
X65.456 Y-3.559 Z28.172
Z28.005
Y-3.565 Z27.945
Y-3.582 Z27.888
Y-3.806 Z27.797
Y-4.021 Z27.689
Y-4.227 Z27.563
Y-4.424 Z27.421
Y-4.609 Z27.262
Y-4.782 Z27.087
Y-4.941 Z26.898
Y-5.085 Z26.694
Y-5.2 Z26.5
G2 Y-5.458 Z26.353 J-0.258 K0.153
G1 Y-5.462
X65.454 Y-5.482
X65.448 Y-5.5
X65.439 Y-5.518
X65.427 Y-5.533 Z26.352
X65.412 Y-5.545
X65.394 Y-5.555 Z26.351
X65.376 Y-5.56 Z26.35
X65.356 Y-5.562
X65.337 Y-5.56 Z26.349
X65.318 Y-5.555 Z26.348
X65.301 Y-5.545
X65.285 Y-5.533 Z26.347
X65.273 Y-5.518
X65.264 Y-5.5
X65.258 Y-5.482 Z26.346
X65.256 Y-5.462
G3 Y-5.2 Z26.5 K0.3
G1 Y-5.199 Z26.502
Y-5.169 Z26.555
Y-4.997 Z26.822
Y-4.844 Z27.017
Y-4.676 Z27.198
Y-4.495 Z27.363
Y-4.303 Z27.512
Y-4.281 Z27.559
Y-4.268 Z27.609
Y-4.263 Z27.661
X65.254 Y-4.271 Z27.741
X65.249 Y-4.292 Z27.819
X65.241 Y-4.327 Z27.892
X65.23 Y-4.375 Z27.956
X65.216 Y-4.433 Z28.011
X65.201 Y-4.5 Z28.053
X65.183 Y-4.574 Z28.083
X65.165 Y-4.651 Z28.097
X65.147 Y-4.73
X65.129 Y-4.807 Z28.083
X65.112 Y-4.881 Z28.053
X65.096 Y-4.948 Z28.011
X65.082 Y-5.006 Z27.956
X65.071 Y-5.054 Z27.892
X65.063 Y-5.089 Z27.819
X65.058 Y-5.111 Z27.741
X65.056 Y-5.118 Z27.661
Z26.67
Y-5.121 Z26.644
Y-5.131 Z26.62
Y-5.199 Z26.502
G2 Y-6.319 Z26.801 J-0.52 K0.299
G0 Z59.
X66.456 Y4.51
Z38.037
G1 Z34.051 F1440.
G3 Y5.358 Z33.505 J0.6
G1 Y5.416 Z33.531
Y6.385 Z33.954
Y6.606 Z34.044
Y7.291 Z34.292
Y7.754 Z34.42
Y8.014 Z34.473
Y8.246 Z34.511
Y8.488 Z34.537
Y8.821 Z34.548
Y9.017 Z34.541
Y9.47 Z34.479
Y9.646 Z34.435
Y10.036 Z34.302
Y10.238 Z34.214
Y10.648 Z33.974
Y10.756 Z33.903
G3 Y11.22 Z34.155 J0.164 K0.251
G1 Z34.168
X66.454 Y11.227 Z34.238
X66.446 Y11.249 Z34.305
X66.434 Y11.285 Z34.364
X66.418 Y11.332 Z34.414
X66.399 Y11.389 Z34.452
X66.378 Y11.452 Z34.475
X66.356 Y11.518 Z34.483
X66.334 Y11.585 Z34.475
X66.313 Y11.648 Z34.452
X66.294 Y11.704 Z34.414
X66.278 Y11.752 Z34.364
X66.266 Y11.787 Z34.305
X66.259 Y11.809 Z34.238
X66.256 Y11.817 Z34.168
G2 Y11.321 Z33.941 J-0.3
G1 Y10.903 Z34.301
Y10.699 Z34.446
Y10.245 Z34.702
Y10.039 Z34.787
Y9.635 Z34.918
Y9.429 Z34.962
Y8.991 Z35.017
Y8.729
Y8.394 Z35.005
Y7.959 Z34.94
Y7.726 Z34.891
Y7.497 Z34.833
Y7.243 Z34.759
Y6.573 Z34.527
Y5.889 Z34.25
Y5.428 Z34.058
Y4.754 Z33.758
Y4.098 Z33.448
G2 Y3.67 Z33.719 J-0.128 K0.271
G1 X66.255 Y3.662 Z33.811
X66.251 Y3.64 Z33.9
X66.244 Y3.603 Z33.985
X66.235 Y3.554 Z34.062
X66.224 Y3.492 Z34.13
X66.211 Y3.421 Z34.186
X66.196 Y3.341 Z34.23
X66.181 Y3.255 Z34.26
X66.164 Y3.166 Z34.275
X66.148 Y3.075
X66.132 Y2.985 Z34.26
X66.116 Y2.9 Z34.23
X66.101 Y2.82 Z34.186
X66.088 Y2.748 Z34.13
X66.077 Y2.687 Z34.062
X66.068 Y2.637 Z33.985
X66.062 Y2.601 Z33.9
X66.057 Y2.578 Z33.811
X66.056 Y2.571 Z33.719
Z33.651
G3 Y3.029 Z33.396 J0.3
G1 Y3.032 Z33.398
Y3.582 Z33.709
Y3.977 Z33.914
Y4.699 Z34.24
Y5.352 Z34.519
Y6.447 Z34.951
Y7.289 Z35.234
Y7.793 Z35.362
Y8.216 Z35.431
Y8.456 Z35.459
Y8.848 Z35.47
Y9.083 Z35.457
Y9.407 Z35.417
Y9.598 Z35.383
Y10.097 Z35.229
Y10.306 Z35.137
Y10.689 Z34.928
Y10.91 Z34.779
Y11.322 Z34.441
Y11.536 Z34.23
Y11.582 Z34.193
Y11.633 Z34.165
Y11.689 Z34.149
Y11.747 Z34.143
Y12.091
X66.055 Y12.11 Z34.144
X66.05 Y12.129 Z34.146
X66.043 Y12.147 Z34.15
X66.033 Y12.163 Z34.155
X66.02 Y12.177 Z34.161
X66.006 Y12.188 Z34.169
X65.99 Y12.196 Z34.177
X65.973 Y12.201 Z34.186
X65.956 Y12.203 Z34.195
X65.939 Y12.201 Z34.204
X65.922 Y12.196 Z34.212
X65.906 Y12.188 Z34.22
X65.892 Y12.177 Z34.228
X65.879 Y12.163 Z34.234
X65.869 Y12.147 Z34.239
X65.862 Y12.129 Z34.243
X65.858 Y12.11 Z34.246
X65.856 Y12.091
Y12.028 Z34.253
Y11.969 Z34.272
Y11.915 Z34.303
Y11.868 Z34.345
Y11.492 Z34.759
Y11.307 Z34.927
Y10.918 Z35.233
Y10.707 Z35.37
Y10.215 Z35.625
Y10.005 Z35.698
Y9.64 Z35.806
Y9.43 Z35.846
Y9.007 Z35.896
Y8.745
Y8.477 Z35.889
Y8.226 Z35.863
Y7.992 Z35.829
Y7.732 Z35.781
Y7.502 Z35.728
Y7.215 Z35.65
Y6.597 Z35.45
Y6.151 Z35.288
Y5.382 Z34.997
Y4.78 Z34.754
Y3.984 Z34.412
Y3.651 Z34.248
Y3.119 Z33.969
Y2.772 Z33.762
Y2.57 Z33.635
Y2.125 Z33.341
Y2.074 Z33.313
Y2.018 Z33.296
Y1.959 Z33.291
Y1.144
X65.855 Y1.125 Z33.29
X65.85 Y1.107 Z33.289
X65.843 Y1.091 Z33.286
X65.833 Y1.076 Z33.283
X65.82 Y1.063 Z33.279
X65.806 Y1.052 Z33.274
X65.79 Y1.044 Z33.268
X65.773 Y1.039 Z33.262
X65.756 Y1.038 Z33.256
X65.739 Y1.039 Z33.25
X65.722 Y1.044 Z33.245
X65.706 Y1.052 Z33.239
X65.692 Y1.063 Z33.234
X65.679 Y1.076 Z33.23
X65.669 Y1.091 Z33.227
X65.662 Y1.107 Z33.224
X65.658 Y1.125 Z33.223
X65.656 Y1.144 Z33.222
Y1.207 Z33.229
Y1.268 Z33.249
Y1.323 Z33.281
Y1.716 Z33.574
Y2.025 Z33.792
Y2.528 Z34.114
Y2.937 Z34.356
Y3.172 Z34.484
Y3.596 Z34.698
Y4.054 Z34.91
Y4.928 Z35.265
Y5.504 Z35.486
Y6.476 Z35.836
Y7.317 Z36.099
Y7.721 Z36.194
Y7.981 Z36.242
Y8.215 Z36.274
Y8.451 Z36.3
Y8.982 Z36.309
Y9.373 Z36.266
Y9.616 Z36.228
Y9.982 Z36.125
Y10.224 Z36.043
Y10.8 Z35.749
Y10.955 Z35.644
Y11.303 Z35.379
Y11.494 Z35.216
Y11.939 Z34.742
Y12.157 Z34.472
G3 Y12.39 Z34.36 J0.233 K0.189
G1 Y12.531
X65.655 Y12.556 Z34.362
X65.652 Y12.58 Z34.366
X65.647 Y12.602 Z34.373
X65.64 Y12.624 Z34.382
X65.632 Y12.643 Z34.394
X65.622 Y12.66 Z34.408
X65.61 Y12.675 Z34.424
X65.598 Y12.687 Z34.441
X65.584 Y12.695 Z34.46
X65.57 Y12.7 Z34.479
X65.556 Y12.702 Z34.499
X65.542 Y12.7 Z34.518
X65.528 Y12.695 Z34.538
X65.515 Y12.687 Z34.556
X65.502 Y12.675 Z34.573
X65.491 Y12.66 Z34.589
X65.481 Y12.643 Z34.603
X65.472 Y12.624 Z34.615
X65.465 Y12.602 Z34.624
X65.46 Y12.58 Z34.631
X65.457 Y12.556 Z34.636
X65.456 Y12.531 Z34.637
G2 Y12.289 Z34.76 K0.3
G1 Y12.172 Z34.92
Y11.973 Z35.159
Y11.605 Z35.544
Y11.448 Z35.692
Y10.967 Z36.056
Y10.826 Z36.149
Y10.484 Z36.323
Y10.247 Z36.436
Y10.036 Z36.509
Y9.639 Z36.622
Y9.429 Z36.658
Y8.94 Z36.706
Y8.475 Z36.697
Y8.226 Z36.672
Y7.816 Z36.612
Y7.527 Z36.548
Y7.27 Z36.484
Y6.566 Z36.274
Y5.786 Z36.008
Y4.904 Z35.686
Y4.437 Z35.507
Y3.973 Z35.318
Y3.517 Z35.113
Y3. Z34.857
Y2.469 Z34.557
Y2.063 Z34.311
Y1.477 Z33.91
Y1.093 Z33.627
Y0.583 Z33.222
Y0.526 Z33.187
Y0.463 Z33.165
Y0.396 Z33.157
Y-0.307
X65.455 Y-0.326
X65.45 Y-0.343 Z33.155
X65.443 Y-0.36 Z33.153
X65.433 Y-0.375 Z33.149
X65.42 Y-0.388 Z33.145
X65.406 Y-0.399 Z33.14
X65.39 Y-0.407 Z33.135
X65.373 Y-0.411 Z33.129
X65.356 Y-0.413 Z33.124
X65.339 Y-0.411 Z33.118
X65.322 Y-0.407 Z33.112
X65.306 Y-0.399 Z33.107
X65.292 Y-0.388 Z33.102
X65.28 Y-0.375 Z33.098
X65.27 Y-0.36 Z33.094
X65.262 Y-0.343 Z33.092
X65.258 Y-0.326 Z33.09
X65.256 Y-0.307
Y-0.255 Z33.095
Y-0.203 Z33.108
Y-0.156 Z33.131
Y-0.112 Z33.162
Y0.237 Z33.46
Y0.606 Z33.758
Y1.148 Z34.166
Y1.609 Z34.483
Y2.122 Z34.813
Y2.545 Z35.055
Y3.09 Z35.346
Y3.519 Z35.547
Y3.978 Z35.745
Y4.653 Z36.007
Y5.556 Z36.327
Y6.42 Z36.621
Y6.982 Z36.785
Y7.44 Z36.912
Y7.817 Z36.991
Y8.373 Z37.069
Y8.767 Z37.082
Y9.032 Z37.081
Y9.46 Z37.034
Y9.678 Z36.993
Y10.079 Z36.882
Y10.298 Z36.802
Y10.711 Z36.609
Y10.932 Z36.483
Y11.404 Z36.142
Y11.587 Z35.983
Y11.988 Z35.578
Y12.194 Z35.339
Y12.504 Z34.917
Y12.657 Z34.7
G3 Y12.902 Z34.572 J0.245 K0.173
G1 Y12.942
X65.255 Y12.971 Z34.574
X65.253 Y12.999 Z34.579
X65.248 Y13.026 Z34.587
X65.243 Y13.052 Z34.598
X65.235 Y13.075 Z34.613
X65.227 Y13.097 Z34.629
X65.217 Y13.116 Z34.649
X65.206 Y13.132 Z34.67
X65.194 Y13.145 Z34.693
X65.182 Y13.154 Z34.717
X65.169 Y13.159 Z34.742
X65.156 Y13.161 Z34.767
X65.143 Y13.159 Z34.793
X65.13 Y13.154 Z34.818
X65.118 Y13.145 Z34.842
X65.106 Y13.132 Z34.865
X65.095 Y13.116 Z34.886
X65.085 Y13.097 Z34.905
X65.077 Y13.075 Z34.922
X65.07 Y13.052 Z34.936
X65.064 Y13.026 Z34.948
X65.06 Y12.999 Z34.956
X65.057 Y12.971 Z34.961
X65.056 Y12.942 Z34.962
G2 Y12.698 Z35.088 K0.3
G1 Y12.514 Z35.346
Y12.154 Z35.814
Y11.941 Z36.041
Y11.543 Z36.426
Y11.321 Z36.598
Y10.957 Z36.85
Y10.747 Z36.973
Y10.287 Z37.183
Y10.071 Z37.256
Y9.677 Z37.361
Y9.454 Z37.4
Y9.043 Z37.444
Y8.792 Z37.447
Y8.363 Z37.431
Y7.821 Z37.358
Y7.458 Z37.285
Y6.999 Z37.164
Y6.43 Z37.001
Y5.369 Z36.651
Y4.673 Z36.41
Y3.959 Z36.143
Y3.497 Z35.951
Y3.066 Z35.753
Y2.62 Z35.527
Y2.102 Z35.24
Y1.798 Z35.055
Y1.374 Z34.786
Y1.176 Z34.653
Y0.769 Z34.365
Y0.387 Z34.079
Y-0.257 Z33.558
Y-0.765 Z33.123
Y-0.808 Z33.092
Y-0.856 Z33.07
Y-0.907 Z33.056
Y-0.96 Z33.051
Y-1.102
X65.055 Y-1.131 Z33.053
X65.053 Y-1.159 Z33.058
X65.048 Y-1.186 Z33.066
X65.043 Y-1.212 Z33.077
X65.035 Y-1.236 Z33.092
X65.027 Y-1.258 Z33.108
X65.017 Y-1.277 Z33.128
X65.006 Y-1.293 Z33.149
X64.994 Y-1.306 Z33.172
X64.982 Y-1.315 Z33.197
X64.969 Y-1.321 Z33.222
X64.956 Y-1.323 Z33.248
X64.943 Y-1.321 Z33.273
X64.93 Y-1.315 Z33.299
X64.918 Y-1.306 Z33.323
X64.906 Y-1.293 Z33.346
X64.895 Y-1.277 Z33.367
X64.885 Y-1.258 Z33.387
X64.877 Y-1.236 Z33.404
X64.87 Y-1.212 Z33.418
X64.864 Y-1.186 Z33.429
X64.86 Y-1.159 Z33.438
X64.857 Y-1.131 Z33.443
X64.856 Y-1.102 Z33.444
Y-1.048 Z33.449
Y-0.996 Z33.464
Y-0.948 Z33.487
Y-0.904 Z33.519
Y-0.848 Z33.568
Y-0.416 Z33.923
Y0.162 Z34.379
Y0.652 Z34.739
Y1.174 Z35.095
Y1.574 Z35.349
Y2.086 Z35.65
Y2.502 Z35.877
Y3.032 Z36.138
Y3.464 Z36.333
Y3.709 Z36.436
Y3.929 Z36.522
Y4.424 Z36.702
Y5.318 Z37.01
Y6.495 Z37.384
Y7.293 Z37.604
Y7.829 Z37.715
Y8.359 Z37.783
Y8.878 Z37.801
Y9.14 Z37.787
Y9.465 Z37.753
Y9.658 Z37.722
Y10.069 Z37.616
Y10.283 Z37.547
Y10.756 Z37.333
Y10.979 Z37.205
Y11.408 Z36.917
Y11.605 Z36.754
Y11.892 Z36.484
Y12.13 Z36.246
Y12.548 Z35.726
Y12.695 Z35.524
Y12.972 Z35.083
G3 Y13.226 Z34.942 J0.254 K0.159
G1 Y13.429
X64.855 Y13.448 Z34.943
X64.85 Y13.467 Z34.945
X64.843 Y13.485 Z34.949
X64.833 Y13.5 Z34.953
X64.82 Y13.514 Z34.959
X64.806 Y13.525 Z34.966
X64.79 Y13.533 Z34.974
X64.773 Y13.538 Z34.982
X64.756 Y13.54 Z34.991
X64.739 Y13.538 Z34.999
X64.722 Y13.533 Z35.007
X64.706 Y13.525 Z35.015
X64.692 Y13.514 Z35.022
X64.68 Y13.5 Z35.028
X64.67 Y13.485 Z35.033
X64.662 Y13.467 Z35.036
X64.658 Y13.448 Z35.038
X64.656 Y13.429 Z35.039
G2 Y13.174 Z35.182 K0.3
G1 Y12.902 Z35.622
Y12.702 Z35.927
Y12.472 Z36.225
Y12.137 Z36.625
Y11.936 Z36.825
Y11.592 Z37.137
Y11.367 Z37.311
Y10.958 Z37.578
Y10.734 Z37.697
Y10.254 Z37.905
Y10.007 Z37.977
Y9.625 Z38.073
Y9.368 Z38.107
Y8.975 Z38.143
Y8.38 Z38.128
Y7.837 Z38.059
Y7.503 Z37.994
Y7.271 Z37.941
Y6.478 Z37.729
Y5.604 Z37.462
Y4.655 Z37.151
Y3.996 Z36.924
Y3.494 Z36.725
Y3.034 Z36.526
Y2.52 Z36.282
Y1.978 Z35.992
Y1.542 Z35.744
Y1.138 Z35.494
Y0.544 Z35.102
Y0.136 Z34.811
Y-0.244 Z34.528
Y-0.846 Z34.059
Y-1.562 Z33.449
Y-1.606 Z33.418
Y-1.653 Z33.396
Y-1.704 Z33.382
Y-1.757 Z33.377
Y-2.41
X64.655 Y-2.429 Z33.376
X64.65 Y-2.446 Z33.375
X64.643 Y-2.463 Z33.372
X64.633 Y-2.479 Z33.368
X64.62 Y-2.492 Z33.364
X64.606 Y-2.502 Z33.358
X64.59 Y-2.51 Z33.353
X64.573 Y-2.515 Z33.346
X64.556 Y-2.517 Z33.34
X64.539 Y-2.515 Z33.334
X64.522 Y-2.51 Z33.327
X64.506 Y-2.502 Z33.321
X64.492 Y-2.492 Z33.316
X64.48 Y-2.479 Z33.312
X64.47 Y-2.463 Z33.308
X64.462 Y-2.446 Z33.305
X64.458 Y-2.429 Z33.303
X64.456 Y-2.41
Y-2.355 Z33.308
Y-2.301 Z33.323
Y-2.251 Z33.348
Y-2.207 Z33.382
Y-2.193 Z33.394
Y-1.635 Z33.879
Y-0.915 Z34.465
Y-0.456 Z34.812
Y0.119 Z35.23
Y0.714 Z35.634
Y1.335 Z36.017
Y1.77 Z36.27
Y1.978 Z36.381
Y2.634 Z36.716
Y2.91 Z36.843
Y3.308 Z37.014
Y3.748 Z37.189
Y4.192 Z37.351
Y4.891 Z37.584
Y5.619 Z37.81
Y6.577 Z38.097
Y7.316 Z38.285
Y7.574 Z38.339
Y7.806 Z38.383
Y8.041 Z38.417
Y8.376 Z38.456
Y8.812 Z38.47
Y9.073 Z38.466
Y9.464 Z38.426
Y9.706 Z38.386
Y10.225 Z38.25
Y10.706 Z38.052
Y10.934 Z37.939
Y11.345 Z37.676
Y11.566 Z37.516
Y11.992 Z37.14
Y12.213 Z36.914
Y12.534 Z36.535
Y12.756 Z36.246
Y13.107 Z35.711
Y13.251 Z35.475
G3 Y13.507 Z35.33 J0.256 K0.156
G1 Y13.565
X64.455 Y13.591 Z35.332
X64.452 Y13.616 Z35.336
X64.447 Y13.64 Z35.344
X64.44 Y13.663 Z35.354
X64.432 Y13.684 Z35.368
X64.422 Y13.702 Z35.383
X64.41 Y13.718 Z35.4
X64.398 Y13.73 Z35.419
X64.384 Y13.74 Z35.44
X64.37 Y13.745 Z35.461
X64.356 Y13.747 Z35.483
X64.342 Y13.745 Z35.504
X64.328 Y13.74 Z35.526
X64.315 Y13.73 Z35.546
X64.302 Y13.718 Z35.565
X64.291 Y13.702 Z35.583
X64.281 Y13.684 Z35.598
X64.272 Y13.663 Z35.611
X64.265 Y13.64 Z35.622
X64.26 Y13.616 Z35.629
X64.257 Y13.591 Z35.634
X64.256 Y13.565 Z35.635
G2 Y13.308 Z35.78 K0.3
G1 Y13.119 Z36.094
Y12.758 Z36.628
Y12.563 Z36.874
Y12.154 Z37.339
Y11.972 Z37.512
Y11.576 Z37.855
Y11.342 Z38.019
Y10.924 Z38.277
Y10.695 Z38.387
Y10.235 Z38.574
Y9.985 Z38.64
Y9.729 Z38.702
Y9.474 Z38.746
Y9.081 Z38.784
Y8.816 Z38.789
Y8.363 Z38.773
Y7.827 Z38.708
Y7.478 Z38.644
Y7.104 Z38.557
Y6.418 Z38.379
Y5.121 Z37.995
Y4.421 Z37.771
Y3.947 Z37.612
Y3.478 Z37.438
Y3.258 Z37.351
Y3.013 Z37.248
Y2.557 Z37.041
Y2.026 Z36.78
Y1.506 Z36.498
Y1.072 Z36.247
Y0.667 Z35.999
Y0.051 Z35.595
Y-0.767 Z35.019
Y-1.584 Z34.386
Y-2.089 Z33.973
Y-2.644 Z33.489
Y-2.845 Z33.311
Y-2.888 Z33.279
Y-2.937 Z33.255
Y-2.989 Z33.241
Y-3.044 Z33.236
Y-3.666
X64.255 Y-3.684 Z33.235
X64.25 Y-3.702 Z33.234
X64.243 Y-3.718 Z33.231
X64.233 Y-3.734 Z33.228
X64.22 Y-3.747 Z33.223
X64.206 Y-3.757 Z33.218
X64.19 Y-3.765 Z33.213
X64.173 Y-3.77 Z33.207
X64.156 Y-3.771 Z33.201
X64.139 Y-3.77 Z33.195
X64.122 Y-3.765 Z33.189
X64.106 Y-3.757 Z33.184
X64.092 Y-3.747 Z33.179
X64.08 Y-3.734 Z33.174
X64.07 Y-3.718 Z33.171
X64.062 Y-3.702 Z33.168
X64.058 Y-3.684 Z33.167
X64.056 Y-3.666 Z33.166
Y-3.61 Z33.171
Y-3.557 Z33.186
Y-3.508 Z33.211
Y-3.464 Z33.244
Y-3. Z33.666
Y-2.729 Z33.899
Y-2.072 Z34.445
Y-1.677 Z34.755
Y-1.066 Z35.213
Y-0.658 Z35.51
Y0.148 Z36.055
Y0.775 Z36.446
Y1.182 Z36.686
Y1.831 Z37.038
Y2.279 Z37.264
Y2.819 Z37.509
Y3.475 Z37.778
Y4.031 Z37.978
Y4.731 Z38.202
Y5.365 Z38.395
Y6.168 Z38.626
Y6.651 Z38.758
Y7.307 Z38.92
Y7.829 Z39.021
Y8.366 Z39.085
Y8.835 Z39.1
Y9.097 Z39.095
Y9.618 Z39.04
Y10.064 Z38.936
Y10.31 Z38.863
Y10.729 Z38.692
Y10.963 Z38.578
Y11.406 Z38.309
Y11.613 Z38.158
Y11.914 Z37.904
Y12.17 Z37.672
Y12.454 Z37.356
Y12.702 Z37.07
Y13.079 Z36.537
Y13.217 Z36.328
Y13.5 Z35.831
Y13.503 Z35.826
G3 Y13.764 Z35.674 J0.261 K0.149
G1 Y13.98
X64.054 Y14.
X64.049 Y14.018
X64.039 Y14.036
X64.027 Y14.051
X64.012 Y14.063
X63.994 Y14.073 Z35.673
X63.976 Y14.078
X63.956 Y14.08
X63.937 Y14.078 Z35.672
X63.918 Y14.073
X63.901 Y14.063
X63.885 Y14.051 Z35.671
X63.873 Y14.036
X63.864 Y14.018
X63.858 Y14.
X63.856 Y13.98
G2 Y13.718 Z35.826 K0.3
G1 Y13.469 Z36.277
Y13.281 Z36.6
Y13.079 Z36.905
Y12.713 Z37.407
Y12.464 Z37.691
Y12.197 Z37.979
Y11.964 Z38.193
Y11.531 Z38.543
Y11.318 Z38.681
Y10.938 Z38.907
Y10.69 Z39.019
Y10.326 Z39.163
Y10.079 Z39.236
Y9.632 Z39.338
Y9.373 Z39.369
Y9.111 Z39.394
Y8.876 Z39.401
Y8.371 Z39.385
Y8.105 Z39.357
Y7.844 Z39.323
Y7.352 Z39.233
Y6.637 Z39.063
Y6.04 Z38.902
Y4.993 Z38.601
Y4.038 Z38.307
Y3.592 Z38.151
Y3.126 Z37.972
Y2.583 Z37.745
Y2.02 Z37.48
Y1.573 Z37.253
Y1.155 Z37.028
Y0.722 Z36.78
Y0.115 Z36.409
Y-0.717 Z35.865
Y-1.322 Z35.436
Y-1.938 Z34.982
Y-2.497 Z34.543
Y-2.887 Z34.23
Y-3.512 Z33.691
Y-4.081 Z33.173
Y-4.125 Z33.14
Y-4.175 Z33.115
Y-4.228 Z33.1
Y-4.283 Z33.095
Y-4.878
X63.855 Y-4.897 Z33.094
X63.85 Y-4.914 Z33.093
X63.843 Y-4.931 Z33.09
X63.833 Y-4.946 Z33.087
X63.82 Y-4.959 Z33.083
X63.806 Y-4.97 Z33.078
X63.79 Y-4.978 Z33.072
X63.773 Y-4.982 Z33.066
X63.756 Y-4.984 Z33.06
X63.739 Y-4.982 Z33.054
X63.722 Y-4.978 Z33.048
X63.706 Y-4.97 Z33.043
X63.692 Y-4.959 Z33.038
X63.68 Y-4.946 Z33.034
X63.67 Y-4.931 Z33.03
X63.662 Y-4.914 Z33.028
X63.658 Y-4.897 Z33.026
X63.656 Y-4.878 Z33.025
Y-4.822 Z33.031
Y-4.767 Z33.047
Y-4.717 Z33.073
Y-4.672 Z33.107
Y-4.191 Z33.562
Y-3.992 Z33.74
Y-3.432 Z34.223
Y-2.863 Z34.689
Y-2.138 Z35.245
Y-1.418 Z35.763
Y-0.688 Z36.262
Y-0.49 Z36.39
Y0.155 Z36.796
Y0.62 Z37.074
Y1.229 Z37.414
Y1.649 Z37.633
Y2.315 Z37.951
Y2.748 Z38.143
Y2.967 Z38.233
Y3.522 Z38.443
Y4.109 Z38.643
Y4.614 Z38.798
Y5.318 Z39.002
Y6.534 Z39.337
Y7.34 Z39.527
Y7.864 Z39.621
Y8.459 Z39.685
Y9.046 Z39.691
Y9.426 Z39.657
Y9.683 Z39.623
Y10.066 Z39.536
Y10.303 Z39.471
Y10.775 Z39.286
Y10.994 Z39.178
Y11.323 Z38.986
Y11.538 Z38.851
Y11.974 Z38.504
Y12.2 Z38.301
Y12.46 Z38.029
Y12.714 Z37.745
Y13.088 Z37.244
Y13.294 Z36.943
Y13.619 Z36.39
Y13.725 Z36.2
G3 Y13.987 Z36.046 J0.262 K0.146
G1 Y14.214
X63.655 Y14.232 Z36.045
X63.65 Y14.251 Z36.044
X63.643 Y14.267 Z36.041
X63.633 Y14.283 Z36.037
X63.62 Y14.296 Z36.032
X63.606 Y14.307 Z36.027
X63.59 Y14.314 Z36.021
X63.573 Y14.319 Z36.014
X63.556 Y14.321 Z36.008
X63.539 Y14.319 Z36.001
X63.522 Y14.314 Z35.995
X63.506 Y14.307 Z35.989
X63.492 Y14.296 Z35.983
X63.48 Y14.283 Z35.978
X63.47 Y14.267 Z35.975
X63.462 Y14.251 Z35.972
X63.458 Y14.232 Z35.97
X63.456 Y14.214
G2 Y13.947 Z36.133 K0.3
G1 Y13.678 Z36.657
Y13.269 Z37.334
Y13.019 Z37.678
Y12.783 Z37.991
Y12.533 Z38.272
Y12.193 Z38.626
Y11.978 Z38.811
Y11.566 Z39.134
Y11.353 Z39.271
Y10.919 Z39.514
Y10.684 Z39.614
Y10.329 Z39.751
Y10.093 Z39.818
Y9.581 Z39.928
Y9.074 Z39.976
Y8.688
Y8.361 Z39.963
Y7.832 Z39.902
Y7.482 Z39.842
Y6.993 Z39.733
Y6.507 Z39.619
Y5.402 Z39.324
Y4.808 Z39.156
Y4.104 Z38.946
Y3.516 Z38.751
Y2.961 Z38.542
Y2.742 Z38.455
Y2.306 Z38.268
Y1.875 Z38.07
Y1.214 Z37.738
Y0.616 Z37.412
Y0.206 Z37.175
Y-0.6 Z36.681
Y-1.02 Z36.409
Y-1.848 Z35.849
Y-2.255 Z35.555
Y-2.68 Z35.244
Y-3.079 Z34.939
Y-3.654 Z34.478
Y-4.14 Z34.075
Y-4.735 Z33.538
Y-5.243 Z33.041
Y-5.288 Z33.004
Y-5.34 Z32.977
Y-5.395 Z32.961
Y-5.453 Z32.955
Y-6.005
X63.455 Y-6.023
X63.45 Y-6.041 Z32.953
X63.443 Y-6.057 Z32.951
X63.433 Y-6.073 Z32.947
X63.42 Y-6.086 Z32.943
X63.406 Y-6.096 Z32.938
X63.39 Y-6.104 Z32.933
X63.373 Y-6.109 Z32.927
X63.356 Y-6.11 Z32.921
X63.339 Y-6.109 Z32.915
X63.322 Y-6.104 Z32.909
X63.306 Y-6.096 Z32.904
X63.292 Y-6.086 Z32.899
X63.28 Y-6.073 Z32.895
X63.27 Y-6.057 Z32.891
X63.262 Y-6.041 Z32.889
X63.258 Y-6.023 Z32.887
X63.256 Y-6.005
Y-5.945 Z32.893
Y-5.889 Z32.91
Y-5.836 Z32.938
Y-5.791 Z32.976
Y-5.319 Z33.456
Y-4.78 Z33.959
Y-4.581 Z34.136
Y-4.401 Z34.29
Y-4.016 Z34.615
Y-3.83 Z34.761
Y-3.251 Z35.214
Y-2.777 Z35.567
Y-1.935 Z36.163
Y-1.052 Z36.746
Y-0.627 Z37.014
Y-0.02 Z37.379
Y0.414 Z37.629
Y0.985 Z37.941
Y1.671 Z38.286
Y2.287 Z38.571
Y2.804 Z38.786
Y3.024 Z38.871
Y3.469 Z39.033
Y3.944 Z39.193
Y4.196 Z39.271
Y4.449 Z39.344
Y5.384 Z39.606
Y6.437 Z39.886
Y7.269 Z40.076
Y7.529 Z40.128
Y7.996 Z40.201
Y8.393 Z40.241
Y9.004 Z40.255
Y9.501 Z40.213
Y9.757 Z40.172
Y10.014 Z40.115
Y10.265 Z40.054
Y10.761 Z39.871
Y11.008 Z39.756
Y11.526 Z39.456
Y12.004 Z39.094
Y12.23 Z38.894
Y12.58 Z38.539
Y12.748 Z38.354
Y13.069 Z37.942
Y13.29 Z37.639
Y13.62 Z37.109
Y13.801 Z36.789
Y14.1 Z36.196
G3 Y14.368 Z36.031 J0.268 K0.135
G1 Y14.411
X63.255 Y14.436 Z36.033
X63.252 Y14.46 Z36.037
X63.247 Y14.483 Z36.044
X63.24 Y14.505 Z36.054
X63.232 Y14.525 Z36.066
X63.222 Y14.542 Z36.08
X63.21 Y14.557 Z36.096
X63.198 Y14.569 Z36.114
X63.184 Y14.577 Z36.133
X63.17 Y14.582 Z36.152
X63.156 Y14.584 Z36.172
X63.142 Y14.582 Z36.192
X63.128 Y14.577 Z36.212
X63.115 Y14.569 Z36.231
X63.102 Y14.557 Z36.249
X63.091 Y14.542 Z36.265
X63.081 Y14.525 Z36.279
X63.072 Y14.505 Z36.291
X63.065 Y14.483 Z36.301
X63.06 Y14.46 Z36.308
X63.057 Y14.436 Z36.312
X63.056 Y14.411 Z36.313
G2 Y14.145 Z36.475 K0.3
G1 Y13.776 Z37.186
Y13.509 Z37.626
Y13.306 Z37.941
Y13.089 Z38.236
Y12.781 Z38.623
Y12.521 Z38.904
Y12.147 Z39.268
Y11.629 Z39.672
Y11.384 Z39.827
Y10.969 Z40.055
Y10.734 Z40.158
Y10.304 Z40.318
Y9.99 Z40.395
Y9.604 Z40.473
Y9.096 Z40.521
Y8.844 Z40.524
Y8.383 Z40.51
Y7.854 Z40.454
Y7.329 Z40.363
Y6.496 Z40.175
Y5.13 Z39.82
Y4.422 Z39.622
Y3.942 Z39.479
Y3.467 Z39.324
Y3.244 Z39.247
Y2.774 Z39.072
Y2.336 Z38.891
Y1.878 Z38.689
Y1.343 Z38.437
Y0.793 Z38.155
Y0.375 Z37.931
Y-0.06 Z37.682
Y-0.82 Z37.235
Y-1.787 Z36.621
Y-2.615 Z36.06
Y-3.194 Z35.648
Y-3.971 Z35.064
Y-4.18 Z34.898
Y-4.566 Z34.582
Y-4.77 Z34.409
Y-5.34 Z33.9
Y-5.869 Z33.386
Y-6.32 Z32.911
Y-6.366 Z32.871
Y-6.419 Z32.842
Y-6.477 Z32.823
Y-6.538 Z32.817
Y-7.056
X63.055 Y-7.075
X63.05 Y-7.092 Z32.815
X63.043 Y-7.109 Z32.812
X63.033 Y-7.124 Z32.809
X63.02 Y-7.138 Z32.804
X63.006 Y-7.148 Z32.799
X62.99 Y-7.156 Z32.793
X62.973 Y-7.161 Z32.787
X62.956 Y-7.162 Z32.781
X62.939 Y-7.161 Z32.775
X62.922 Y-7.156 Z32.769
X62.906 Y-7.148 Z32.763
X62.892 Y-7.138 Z32.758
X62.88 Y-7.124 Z32.753
X62.87 Y-7.109 Z32.75
X62.862 Y-7.092 Z32.747
X62.858 Y-7.075 Z32.745
X62.856 Y-7.056
Y-6.994 Z32.751
Y-6.935 Z32.77
Y-6.882 Z32.801
Y-6.835 Z32.842
Y-6.468 Z33.242
Y-6.135 Z33.584
Y-5.776 Z33.937
Y-5.229 Z34.438
Y-4.711 Z34.877
Y-4.084 Z35.372
Y-3.872 Z35.53
Y-3.062 Z36.116
Y-2.844 Z36.264
Y-2.211 Z36.69
Y-1.591 Z37.088
Y-0.941 Z37.488
Y-0.535 Z37.731
Y0.337 Z38.222
Y0.754 Z38.444
Y1.176 Z38.655
Y1.735 Z38.923
Y2.303 Z39.17
Y2.854 Z39.389
Y3.522 Z39.628
Y4.113 Z39.813
Y4.593 Z39.947
Y5.329 Z40.146
Y6.5 Z40.444
Y7.361 Z40.633
Y7.944 Z40.73
Y8.532 Z40.783
Y9.082 Z40.785
Y9.603 Z40.737
Y10.124 Z40.631
Y10.366 Z40.562
Y10.736 Z40.427
Y10.971 Z40.327
Y11.402 Z40.095
Y11.643 Z39.94
Y12.156 Z39.549
Y12.577 Z39.142
Y12.795 Z38.91
Y13.122 Z38.503
Y13.338 Z38.213
Y13.742 Z37.582
Y14.071 Z36.974
Y14.184 Z36.749
G3 Y14.452 Z36.584 J0.268 K0.135
G1 Y14.574
X62.855 Y14.593 Z36.585
X62.85 Y14.611 Z36.587
X62.843 Y14.629 Z36.59
X62.833 Y14.644 Z36.595
X62.82 Y14.658 Z36.6
X62.806 Y14.669 Z36.606
X62.79 Y14.677 Z36.613
X62.774 Y14.682 Z36.621
X62.756 Y14.683 Z36.628
X62.739 Y14.682 Z36.636
X62.722 Y14.677 Z36.644
X62.706 Y14.669 Z36.65
X62.692 Y14.658 Z36.657
X62.68 Y14.644 Z36.662
X62.67 Y14.629 Z36.667
X62.662 Y14.611 Z36.67
X62.658 Y14.593 Z36.672
X62.656 Y14.574 Z36.673
G2 Y14.305 Z36.84 K0.3
G1 Y14.085 Z37.285
Y13.783 Z37.834
Y13.583 Z38.152
Y13.246 Z38.649
Y12.972 Z38.988
Y12.696 Z39.313
Y12.183 Z39.805
Y11.883 Z40.039
Y11.564 Z40.266
Y11.344 Z40.394
Y10.998 Z40.579
Y10.764 Z40.681
Y10.295 Z40.847
Y10.043 Z40.908
Y9.657 Z40.987
Y9.071 Z41.042
Y8.469 Z41.036
Y7.88 Z40.978
Y7.53 Z40.923
Y7.27 Z40.874
Y6.551 Z40.719
Y5.354 Z40.418
Y4.617 Z40.225
Y4.135 Z40.092
Y3.682 Z39.954
Y3.095 Z39.757
Y2.761 Z39.635
Y2.295 Z39.452
Y1.643 Z39.167
Y1.054 Z38.891
Y0.369 Z38.541
Y-0.278 Z38.188
Y-1.098 Z37.716
Y-1.952 Z37.195
Y-3.013 Z36.507
Y-3.906 Z35.88
Y-4.57 Z35.384
Y-5.124 Z34.937
Y-5.328 Z34.767
Y-5.903 Z34.255
Y-6.428 Z33.749
Y-6.954 Z33.201
Y-7.334 Z32.776
Y-7.381 Z32.734
Y-7.435 Z32.702
Y-7.495 Z32.683
Y-7.558 Z32.676
Y-8.05
X62.655 Y-8.069 Z32.675
X62.65 Y-8.087 Z32.674
X62.643 Y-8.104 Z32.671
X62.633 Y-8.119 Z32.667
X62.62 Y-8.132 Z32.663
X62.606 Y-8.143 Z32.658
X62.59 Y-8.15 Z32.652
X62.574 Y-8.155 Z32.646
X62.556 Y-8.157 Z32.64
X62.539 Y-8.155 Z32.633
X62.522 Y-8.15 Z32.627
X62.506 Y-8.143 Z32.621
X62.492 Y-8.132 Z32.616
X62.48 Y-8.119 Z32.612
X62.47 Y-8.104 Z32.608
X62.462 Y-8.087 Z32.605
X62.458 Y-8.069 Z32.604
X62.456 Y-8.05 Z32.603
Y-7.987 Z32.61
Y-7.926 Z32.63
Y-7.872 Z32.662
Y-7.825 Z32.705
Y-7.423 Z33.164
Y-6.862 Z33.76
Y-6.352 Z34.26
Y-5.851 Z34.719
Y-5.264 Z35.217
Y-4.685 Z35.673
Y-4.305 Z35.955
Y-3.775 Z36.331
Y-2.919 Z36.909
Y-1.924 Z37.538
Y-0.786 Z38.208
Y-0.094 Z38.588
Y0.348 Z38.825
Y0.559 Z38.932
Y1.007 Z39.153
Y1.542 Z39.405
Y2.109 Z39.65
Y2.549 Z39.826
Y2.937 Z39.972
Y3.555 Z40.181
Y4.148 Z40.359
Y4.655 Z40.497
Y5.226 Z40.647
Y6.539 Z40.97
Y7.375 Z41.147
Y7.872 Z41.228
Y8.497 Z41.289
Y9.084 Z41.293
Y9.609 Z41.247
Y10.106 Z41.148
Y10.344 Z41.086
Y10.703 Z40.958
Y10.942 Z40.864
Y11.291 Z40.685
Y11.57 Z40.529
Y12.021 Z40.205
Y12.243 Z40.025
Y12.51 Z39.775
Y12.78 Z39.503
Y13.099 Z39.126
Y13.258 Z38.928
Y13.682 Z38.31
Y13.914 Z37.92
Y14.233 Z37.331
Y14.518 Z36.723
G3 Y14.79 Z36.551 J0.272 K0.128
G1 Y14.8
X62.455 Y14.826 Z36.552
X62.452 Y14.853 Z36.557
X62.447 Y14.878 Z36.565
X62.44 Y14.901 Z36.576
X62.432 Y14.923 Z36.59
X62.422 Y14.942 Z36.606
X62.41 Y14.958 Z36.624
X62.398 Y14.97 Z36.644
X62.384 Y14.98 Z36.665
X62.37 Y14.986 Z36.687
X62.356 Y14.987 Z36.71
X62.342 Y14.986 Z36.732
X62.328 Y14.98 Z36.755
X62.315 Y14.97 Z36.776
X62.302 Y14.958 Z36.796
X62.291 Y14.942 Z36.814
X62.281 Y14.923 Z36.83
X62.272 Y14.901 Z36.844
X62.265 Y14.878 Z36.855
X62.26 Y14.853 Z36.862
X62.257 Y14.826 Z36.867
X62.256 Y14.8 Z36.869
G2 Y14.53 Z37.038 K0.3
G1 Y14.181 Z37.758
Y13.79 Z38.443
Y13.368 Z39.067
Y13.157 Z39.339
Y12.821 Z39.736
Y12.599 Z39.961
Y12.194 Z40.336
Y11.967 Z40.507
Y11.646 Z40.735
Y11.398 Z40.883
Y10.965 Z41.108
Y10.726 Z41.202
Y10.355 Z41.33
Y10.105 Z41.394
Y9.719 Z41.473
Y9.46 Z41.505
Y9.001 Z41.539
Y8.407 Z41.526
Y8.042 Z41.492
Y7.574 Z41.427
Y7.314 Z41.38
Y6.478 Z41.205
Y5.164 Z40.884
Y4.681 Z40.76
Y4.046 Z40.591
Y3.692 Z40.487
Y3.241 Z40.341
Y2.769 Z40.176
Y2.141 Z39.934
Y1.644 Z39.723
Y1.188 Z39.517
Y0.761 Z39.316
Y0.338 Z39.105
Y-0.65 Z38.582
Y-1.797 Z37.925
Y-2.702 Z37.373
Y-3.464 Z36.882
Y-4.252 Z36.348
Y-4.685 Z36.035
Y-5.271 Z35.589
Y-5.66 Z35.274
Y-6.022 Z34.965
Y-6.572 Z34.469
Y-7.065 Z33.992
Y-7.497 Z33.547
Y-7.937 Z33.064
Y-8.305 Z32.637
G2 Y-8.532 Z32.532 J-0.228 K0.196
G1 Y-9.008
X62.255 Y-9.026
X62.25 Y-9.044 Z32.53
X62.243 Y-9.061 Z32.527
X62.233 Y-9.076 Z32.524
X62.22 Y-9.089 Z32.519
X62.206 Y-9.1 Z32.514
X62.19 Y-9.108 Z32.508
X62.174 Y-9.113 Z32.502
X62.156 Y-9.114 Z32.496
X62.139 Y-9.113 Z32.489
X62.122 Y-9.108 Z32.483
X62.106 Y-9.1 Z32.478
X62.092 Y-9.089 Z32.472
X62.08 Y-9.076 Z32.468
X62.07 Y-9.061 Z32.464
X62.062 Y-9.044 Z32.462
X62.058 Y-9.026 Z32.46
X62.056 Y-9.008 Z32.459
G3 Y-8.779 Z32.566 K0.3
G1 Y-8.424 Z32.985
Y-8.091 Z33.359
Y-7.768 Z33.707
Y-7.268 Z34.216
Y-6.753 Z34.705
Y-6.224 Z35.178
Y-5.838 Z35.502
Y-5.303 Z35.926
Y-4.828 Z36.281
Y-4.202 Z36.724
Y-3.39 Z37.256
Y-2.867 Z37.585
Y-2.034 Z38.087
Y-1.578 Z38.351
Y-0.729 Z38.825
Y0.132 Z39.277
Y0.58 Z39.5
Y1.221 Z39.804
Y1.462 Z39.91
Y2.115 Z40.185
Y2.681 Z40.405
Y3.254 Z40.602
Y3.706 Z40.743
Y4.186 Z40.881
Y5.025 Z41.099
Y6.495 Z41.45
Y7.356 Z41.63
Y7.59 Z41.671
Y7.882 Z41.715
Y8.495 Z41.772
Y9.093 Z41.776
Y9.615 Z41.731
Y10.104 Z41.637
Y10.355 Z41.574
Y10.725 Z41.446
Y10.965 Z41.352
Y11.401 Z41.131
Y11.639 Z40.993
Y12.027 Z40.721
Y12.253 Z40.543
Y12.567 Z40.257
Y12.814 Z40.012
Y13.072 Z39.715
Y13.313 Z39.425
Y13.615 Z39.
Y13.824 Z38.682
Y14.198 Z38.034
Y14.589 Z37.238
G3 Y14.859 Z37.07 J0.269 K0.132
G1 Y14.885
X62.055 Y14.909 Z37.071
X62.052 Y14.932 Z37.075
X62.047 Y14.954 Z37.082
X62.04 Y14.975 Z37.091
X62.032 Y14.994 Z37.102
X62.022 Y15.011 Z37.116
X62.01 Y15.025 Z37.131
X61.998 Y15.036 Z37.148
X61.984 Y15.044 Z37.165
X61.97 Y15.049 Z37.184
X61.956 Y15.051 Z37.203
X61.942 Y15.049 Z37.222
X61.928 Y15.044 Z37.24
X61.915 Y15.036 Z37.258
X61.902 Y15.025 Z37.274
X61.891 Y15.011 Z37.289
X61.881 Y14.994 Z37.303
X61.872 Y14.975 Z37.314
X61.865 Y14.954 Z37.323
X61.86 Y14.932 Z37.33
X61.857 Y14.909 Z37.334
X61.856 Y14.885 Z37.335
G2 Y14.616 Z37.503 K0.3
G1 Y14.346 Z38.052
Y14.121 Z38.473
Y13.81 Z38.992
Y13.604 Z39.296
Y13.314 Z39.696
Y12.942 Z40.132
Y12.735 Z40.356
Y12.258 Z40.793
Y12.032 Z40.968
Y11.628 Z41.246
Y11.407 Z41.373
Y10.962 Z41.595
Y10.721 Z41.686
Y10.348 Z41.812
Y10.096 Z41.873
Y9.71 Z41.95
Y9.451 Z41.979
Y9.189 Z42.001
Y8.954 Z42.011
Y8.416 Z41.999
Y7.889 Z41.947
Y7.363 Z41.865
Y6.526 Z41.696
Y5.58 Z41.475
Y4.839 Z41.294
Y4.013 Z41.079
Y3.248 Z40.851
Y2.772 Z40.689
Y2.302 Z40.515
Y1.714 Z40.28
Y1.158 Z40.037
Y0.491 Z39.726
Y-0.167 Z39.396
Y-0.61 Z39.168
Y-1.052 Z38.931
Y-1.925 Z38.446
Y-2.99 Z37.819
Y-4.036 Z37.161
Y-4.788 Z36.65
Y-5.617 Z36.039
Y-6.18 Z35.588
Y-6.564 Z35.261
Y-6.939 Z34.929
Y-7.457 Z34.444
Y-8. Z33.899
Y-8.446 Z33.424
Y-8.917 Z32.89
Y-9.245 Z32.496
G2 Y-9.475 Z32.389 J-0.23 K0.192
G1 Y-9.939
X61.855 Y-9.957 Z32.388
X61.85 Y-9.975 Z32.386
X61.843 Y-9.992 Z32.384
X61.833 Y-10.007 Z32.38
X61.82 Y-10.02 Z32.376
X61.806 Y-10.031 Z32.37
X61.79 Y-10.039 Z32.365
X61.774 Y-10.044 Z32.359
X61.756 Y-10.045 Z32.352
X61.739 Y-10.044 Z32.346
X61.722 Y-10.039 Z32.34
X61.706 Y-10.031 Z32.334
X61.692 Y-10.02 Z32.329
X61.68 Y-10.007 Z32.324
X61.67 Y-9.992 Z32.321
X61.662 Y-9.975 Z32.318
X61.658 Y-9.957 Z32.317
X61.656 Y-9.939 Z32.316
G3 Y-9.708 Z32.425 K0.3
G1 Y-9.363 Z32.843
Y-8.968 Z33.297
Y-8.517 Z33.787
Y-8.332 Z33.979
Y-8. Z34.316
Y-7.639 Z34.666
Y-7.293 Z34.99
Y-6.74 Z35.479
Y-6.24 Z35.895
Y-5.799 Z36.241
Y-5.381 Z36.557
Y-4.581 Z37.117
Y-3.805 Z37.618
Y-2.951 Z38.14
Y-1.858 Z38.769
Y-0.747 Z39.369
Y0.121 Z39.807
Y0.571 Z40.026
Y1.217 Z40.319
Y1.676 Z40.515
Y2.212 Z40.731
Y2.808 Z40.947
Y3.258 Z41.096
Y3.736 Z41.242
Y4.192 Z41.369
Y4.65 Z41.485
Y5.391 Z41.664
Y6.626 Z41.949
Y7.548 Z42.129
Y8.044 Z42.195
Y8.412 Z42.227
Y8.964 Z42.239
Y9.314 Z42.22
Y9.705 Z42.181
Y10.092 Z42.106
Y10.344 Z42.047
Y10.777 Z41.9
Y11.015 Z41.805
Y11.366 Z41.63
Y11.635 Z41.481
Y12.002 Z41.233
Y12.256 Z41.041
Y12.551 Z40.78
Y12.782 Z40.565
Y13.088 Z40.225
Y13.334 Z39.938
Y13.566 Z39.621
Y13.802 Z39.286
Y14.187 Z38.652
Y14.523 Z38.006
Y14.805 Z37.39
G3 Y15.077 Z37.215 J0.273 K0.125
G1 Y15.18
X61.655 Y15.199
X61.65 Y15.217 Z37.217
X61.643 Y15.234 Z37.22
X61.633 Y15.25 Z37.224
X61.62 Y15.263 Z37.229
X61.606 Y15.274 Z37.235
X61.59 Y15.281 Z37.241
X61.574 Y15.286 Z37.247
X61.556 Y15.288 Z37.254
X61.539 Y15.286 Z37.261
X61.522 Y15.281 Z37.268
X61.506 Y15.274 Z37.274
X61.492 Y15.263 Z37.28
X61.48 Y15.25 Z37.285
X61.47 Y15.234 Z37.289
X61.462 Y15.217 Z37.292
X61.458 Y15.199 Z37.293
X61.456 Y15.18 Z37.294
G2 Y14.907 Z37.471 K0.3
G1 Y14.637 Z38.071
Y14.472 Z38.401
Y14.178 Z38.949
Y13.819 Z39.53
Y13.639 Z39.788
Y13.328 Z40.204
Y13.08 Z40.491
Y12.814 Z40.78
Y12.535 Z41.04
Y12.249 Z41.288
Y12.003 Z41.469
Y11.635 Z41.717
Y11.423 Z41.836
Y10.966 Z42.057
Y10.614 Z42.183
Y10.364 Z42.265
Y10.113 Z42.325
Y9.726 Z42.401
Y9.466 Z42.43
Y9.008 Z42.463
Y8.417 Z42.45
Y8.057 Z42.419
Y7.588 Z42.357
Y7.355 Z42.317
Y6.491 Z42.146
Y5.403 Z41.898
Y4.688 Z41.726
Y4.204 Z41.604
Y3.722 Z41.474
Y3.242 Z41.331
Y2.654 Z41.134
Y2.099 Z40.928
Y1.633 Z40.744
Y1.197 Z40.561
Y0.741 Z40.357
Y0.288 Z40.147
Y-0.372 Z39.822
Y-0.818 Z39.596
Y-1.677 Z39.141
Y-2.345 Z38.773
Y-3.008 Z38.394
Y-3.819 Z37.908
Y-4.268 Z37.629
Y-4.665 Z37.372
Y-5.32 Z36.925
Y-5.891 Z36.507
Y-6.266 Z36.217
Y-6.656 Z35.905
Y-7.199 Z35.444
Y-7.573 Z35.109
Y-8.092 Z34.623
Y-8.597 Z34.122
Y-9.087 Z33.606
Y-9.406 Z33.256
Y-9.871 Z32.715
Y-10.165 Z32.354
G2 Y-10.398 Z32.244 J-0.232 K0.19
G1 Y-10.852
X61.455 Y-10.87 Z32.243
X61.45 Y-10.888 Z32.242
X61.443 Y-10.905 Z32.239
X61.433 Y-10.92 Z32.236
X61.42 Y-10.933 Z32.231
X61.406 Y-10.944 Z32.226
X61.39 Y-10.952 Z32.22
X61.374 Y-10.956 Z32.214
X61.356 Y-10.958 Z32.208
X61.339 Y-10.956 Z32.202
X61.322 Y-10.952 Z32.196
X61.306 Y-10.944 Z32.19
X61.292 Y-10.933 Z32.185
X61.28 Y-10.92 Z32.181
X61.27 Y-10.905 Z32.177
X61.262 Y-10.888 Z32.175
X61.258 Y-10.87 Z32.173
X61.256 Y-10.852 Z32.172
G3 Y-10.619 Z32.284 K0.3
G1 Y-10.294 Z32.685
Y-9.978 Z33.056
Y-9.486 Z33.607
Y-8.956 Z34.166
Y-8.365 Z34.748
Y-7.883 Z35.198
Y-7.293 Z35.719
Y-7.09 Z35.888
Y-6.539 Z36.338
Y-6.142 Z36.643
Y-5.761 Z36.926
Y-5.18 Z37.334
Y-4.762 Z37.61
Y-4.189 Z37.976
Y-3.1 Z38.623
Y-1.989 Z39.242
Y-0.826 Z39.852
Y0.254 Z40.381
Y0.684 Z40.578
Y1.36 Z40.872
Y2.122 Z41.177
Y2.71 Z41.388
Y3.159 Z41.536
Y3.637 Z41.68
Y4.092 Z41.807
Y5.089 Z42.049
Y6.549 Z42.381
Y7.361 Z42.539
Y7.887 Z42.617
Y8.416 Z42.666
Y8.952 Z42.678
Y9.214 Z42.668
Y9.476 Z42.647
Y9.736 Z42.618
Y10.25 Z42.518
Y10.661 Z42.391
Y10.965 Z42.282
Y11.548 Z41.996
Y11.769 Z41.858
Y12.194 Z41.568
Y12.591 Z41.23
Y12.823 Z41.015
Y13.301 Z40.489
Y13.538 Z40.182
Y13.838 Z39.765
Y14.116 Z39.324
Y14.26 Z39.081
Y14.608 Z38.426
Y14.94 Z37.704
G3 Y15.213 Z37.53 J0.272 K0.126
G1 Y15.23
X61.255 Y15.253 Z37.531
X61.252 Y15.276 Z37.535
X61.247 Y15.298 Z37.542
X61.24 Y15.318 Z37.55
X61.232 Y15.337 Z37.561
X61.222 Y15.353 Z37.574
X61.21 Y15.367 Z37.589
X61.198 Y15.379 Z37.605
X61.184 Y15.387 Z37.623
X61.17 Y15.392 Z37.641
X61.156 Y15.393 Z37.659
X61.142 Y15.392 Z37.677
X61.128 Y15.387 Z37.695
X61.115 Y15.379 Z37.713
X61.102 Y15.367 Z37.729
X61.091 Y15.353 Z37.744
X61.081 Y15.337 Z37.757
X61.072 Y15.318 Z37.768
X61.065 Y15.298 Z37.776
X61.06 Y15.276 Z37.783
X61.057 Y15.253 Z37.787
X61.056 Y15.23 Z37.788
G2 Y14.958 Z37.961 K0.3
G1 Y14.644 Z38.636
Y14.468 Z38.971
Y14.183 Z39.484
Y13.78 Z40.111
Y13.365 Z40.658
Y13.158 Z40.896
Y12.752 Z41.322
Y12.262 Z41.743
Y12.058 Z41.893
Y11.591 Z42.197
Y11.275 Z42.355
Y10.943 Z42.507
Y10.699 Z42.592
Y10.323 Z42.71
Y9.796 Z42.817
Y9.553 Z42.851
Y9.029 Z42.888
Y8.429 Z42.877
Y8.126 Z42.851
Y7.891 Z42.827
Y7.397 Z42.755
Y6.532 Z42.59
Y5.326 Z42.326
Y4.521 Z42.134
Y4.011 Z42.007
Y3.328 Z41.815
Y2.731 Z41.627
Y2.155 Z41.42
Y1.689 Z41.241
Y1.142 Z41.018
Y0.385 Z40.684
Y-0.519 Z40.256
Y-1.673 Z39.671
Y-2.709 Z39.114
Y-2.94 Z38.987
Y-4.012 Z38.369
Y-4.84 Z37.856
Y-5.516 Z37.407
Y-6.013 Z37.054
Y-6.583 Z36.628
Y-7.182 Z36.152
Y-7.703 Z35.713
Y-8.409 Z35.081
Y-9.008 Z34.508
Y-9.445 Z34.068
Y-9.95 Z33.53
Y-10.441 Z32.976
Y-10.746 Z32.614
Y-11.069 Z32.213
G2 Y-11.303 Z32.101 J-0.234 K0.188
G1 Y-11.751
X61.055 Y-11.77 Z32.1
X61.05 Y-11.788 Z32.099
X61.043 Y-11.804 Z32.096
X61.033 Y-11.82 Z32.093
X61.02 Y-11.833 Z32.088
X61.006 Y-11.843 Z32.083
X60.99 Y-11.851 Z32.077
X60.974 Y-11.856 Z32.071
X60.956 Y-11.858 Z32.065
X60.939 Y-11.856 Z32.059
X60.922 Y-11.851 Z32.053
X60.906 Y-11.843 Z32.047
X60.892 Y-11.833 Z32.042
X60.88 Y-11.82 Z32.037
X60.87 Y-11.804 Z32.034
X60.862 Y-11.788 Z32.031
X60.858 Y-11.77 Z32.029
X60.856 Y-11.751
G3 Y-11.518 Z32.141 K0.3
G1 Y-11.116 Z32.639
Y-10.812 Z33.
Y-10.412 Z33.451
Y-9.959 Z33.938
Y-9.423 Z34.484
Y-9.064 Z34.832
Y-8.718 Z35.157
Y-8.191 Z35.633
Y-7.608 Z36.132
Y-7.039 Z36.592
Y-6.325 Z37.134
Y-5.7 Z37.577
Y-5.306 Z37.843
Y-4.686 Z38.239
Y-4.258 Z38.498
Y-3.438 Z38.972
Y-2.771 Z39.341
Y-1.937 Z39.786
Y-1.282 Z40.121
Y-0.597 Z40.46
Y0.281 Z40.875
Y0.714 Z41.066
Y1.417 Z41.363
Y1.883 Z41.547
Y2.353 Z41.719
Y2.801 Z41.872
Y3.279 Z42.022
Y3.505 Z42.089
Y4.09 Z42.248
Y4.473 Z42.34
Y5.19 Z42.505
Y6.511 Z42.794
Y7.375 Z42.96
Y7.636 Z43.001
Y7.87 Z43.033
Y8.105 Z43.059
Y8.407 Z43.084
Y8.742 Z43.095
Y9.139 Z43.094
Y9.662 Z43.049
Y10.303 Z42.926
Y10.801 Z42.77
Y11.03 Z42.682
Y11.375 Z42.519
Y11.603 Z42.404
Y12.059 Z42.116
Y12.302 Z41.937
Y12.746 Z41.558
Y13.001 Z41.3
Y13.348 Z40.919
Y13.653 Z40.53
Y13.803 Z40.327
Y14.177 Z39.754
Y14.546 Z39.1
Y14.792 Z38.606
Y15.054 Z38.031
G3 Y15.327 Z37.855 J0.273 K0.124
G1 Y15.497
X60.855 Y15.517 Z37.854
X60.85 Y15.536 Z37.852
X60.843 Y15.554 Z37.847
X60.833 Y15.571 Z37.842
X60.82 Y15.585 Z37.835
X60.806 Y15.596 Z37.827
X60.79 Y15.605 Z37.818
X60.774 Y15.61 Z37.809
X60.756 Y15.612 Z37.799
X60.739 Y15.61 Z37.789
X60.722 Y15.605 Z37.78
X60.706 Y15.596 Z37.771
X60.692 Y15.585 Z37.763
X60.68 Y15.571 Z37.756
X60.67 Y15.554 Z37.75
X60.662 Y15.536 Z37.746
X60.658 Y15.517 Z37.744
X60.656 Y15.497 Z37.743
G2 Y15.222 Z37.924 K0.3
G1 Y14.965 Z38.52
Y14.585 Z39.294
Y14.215 Z39.946
Y13.861 Z40.488
Y13.635 Z40.792
Y13.351 Z41.152
Y13.138 Z41.385
Y12.774 Z41.758
Y12.583 Z41.924
Y12.278 Z42.173
Y12.016 Z42.356
Y11.641 Z42.593
Y11.426 Z42.707
Y10.953 Z42.926
Y10.397 Z43.111
Y10.144 Z43.171
Y9.823 Z43.233
Y9.564 Z43.27
Y9.171 Z43.301
Y8.906 Z43.307
Y8.43 Z43.295
Y7.915 Z43.249
Y7.564 Z43.2
Y7.071 Z43.112
Y6.555 Z43.013
Y5.092 Z42.692
Y4.006 Z42.435
Y3.663 Z42.346
Y3.208 Z42.217
Y2.619 Z42.032
Y1.841 Z41.753
Y1.18 Z41.492
Y0.718 Z41.299
Y0.261 Z41.096
Y-0.722 Z40.64
Y-1.799 Z40.106
Y-3.064 Z39.442
Y-4.171 Z38.821
Y-5.037 Z38.297
Y-5.26 Z38.157
Y-5.874 Z37.749
Y-6.454 Z37.34
Y-7.025 Z36.914
Y-7.605 Z36.459
Y-8.152 Z36.005
Y-8.688 Z35.538
Y-9.059 Z35.2
Y-9.425 Z34.858
Y-9.952 Z34.341
Y-10.301 Z33.985
Y-10.846 Z33.399
Y-11.295 Z32.887
Y-11.75 Z32.337
Y-11.963 Z32.069
G2 Y-12.198 Z31.956 J-0.235 K0.187
G1 Y-12.32
X60.655 Y-12.348 Z31.957
X60.652 Y-12.375 Z31.962
X60.647 Y-12.401 Z31.971
X60.64 Y-12.425 Z31.982
X60.632 Y-12.447 Z31.996
X60.622 Y-12.467 Z32.013
X60.61 Y-12.483 Z32.032
X60.598 Y-12.497 Z32.053
X60.584 Y-12.506 Z32.075
X60.57 Y-12.512 Z32.098
X60.556 Y-12.514 Z32.122
X60.542 Y-12.512 Z32.146
X60.528 Y-12.506 Z32.169
X60.515 Y-12.497 Z32.191
X60.502 Y-12.483 Z32.212
X60.491 Y-12.467 Z32.231
X60.481 Y-12.447 Z32.248
X60.472 Y-12.425 Z32.262
X60.465 Y-12.401 Z32.273
X60.46 Y-12.375 Z32.282
X60.457 Y-12.348 Z32.287
X60.456 Y-12.32 Z32.288
G3 Y-12.09 Z32.396 K0.3
G1 Y-11.644 Z32.93
Y-11.333 Z33.285
Y-10.873 Z33.786
Y-10.297 Z34.379
Y-9.788 Z34.876
Y-9.248 Z35.379
Y-8.806 Z35.773
Y-8.336 Z36.175
Y-7.95 Z36.494
Y-7.44 Z36.9
Y-6.826 Z37.364
Y-6.225 Z37.792
Y-5.636 Z38.189
Y-5.014 Z38.583
Y-4.585 Z38.843
Y-3.97 Z39.197
Y-2.861 Z39.8
Y-1.737 Z40.377
Y-0.864 Z40.803
Y0.042 Z41.225
Y0.499 Z41.427
Y1.177 Z41.712
Y1.741 Z41.934
Y2.337 Z42.147
Y2.561 Z42.221
Y3.21 Z42.426
Y4.094 Z42.667
Y5.124 Z42.908
Y6.471 Z43.203
Y7.4 Z43.377
Y7.957 Z43.454
Y8.591 Z43.501
Y9.124 Z43.502
Y9.517 Z43.472
Y9.776 Z43.442
Y10.291 Z43.344
Y10.797 Z43.192
Y11.038 Z43.101
Y11.593 Z42.833
Y12.034 Z42.556
Y12.295 Z42.372
Y12.746 Z42.
Y13.027 Z41.726
Y13.354 Z41.376
Y13.601 Z41.07
Y13.831 Z40.769
Y14.209 Z40.205
Y14.581 Z39.562
Y14.918 Z38.892
Y15.024 Z38.662
Y15.226 Z38.2
G3 Y15.501 Z38.02 J0.275 K0.12
G1 Y15.539
X60.455 Y15.56 Z38.021
X60.451 Y15.581 Z38.025
X60.445 Y15.601 Z38.031
X60.437 Y15.62 Z38.038
X60.427 Y15.636 Z38.048
X60.415 Y15.65 Z38.059
X60.402 Y15.661 Z38.072
X60.387 Y15.669 Z38.085
X60.372 Y15.675 Z38.1
X60.356 Y15.676 Z38.114
X60.341 Y15.675 Z38.129
X60.325 Y15.669 Z38.143
X60.311 Y15.661 Z38.157
X60.297 Y15.65 Z38.17
X60.285 Y15.636 Z38.181
X60.275 Y15.62 Z38.19
X60.267 Y15.601 Z38.198
X60.261 Y15.581 Z38.204
X60.257 Y15.56 Z38.207
X60.256 Y15.539 Z38.208
G2 Y15.265 Z38.387 K0.3
G1 Y15.015 Z38.952
Y14.774 Z39.444
Y14.555 Z39.857
Y14.268 Z40.35
Y14.067 Z40.659
Y13.853 Z40.971
Y13.5 Z41.423
Y13.315 Z41.643
Y12.885 Z42.083
Y12.647 Z42.297
Y12.269 Z42.605
Y12.06 Z42.752
Y11.631 Z43.021
Y11.295 Z43.183
Y10.936 Z43.34
Y10.815 Z43.381
Y10.339 Z43.526
Y10.084 Z43.579
Y9.71 Z43.646
Y9.069 Z43.698
Y8.444 Z43.687
Y8.061 Z43.657
Y7.565 Z43.596
Y7.072 Z43.511
Y6.581 Z43.421
Y5.231 Z43.139
Y4.169 Z42.894
Y3.369 Z42.68
Y2.803 Z42.509
Y2.327 Z42.352
Y1.855 Z42.185
Y1.387 Z42.008
Y0.677 Z41.724
Y0.028 Z41.439
Y-0.798 Z41.064
Y-1.779 Z40.59
Y-2.882 Z40.032
Y-3.741 Z39.574
Y-4.203 Z39.319
Y-4.817 Z38.964
Y-5.446 Z38.583
Y-6.041 Z38.195
Y-6.627 Z37.793
Y-7.298 Z37.306
Y-8.001 Z36.763
Y-8.688 Z36.2
Y-9.291 Z35.68
Y-9.88 Z35.146
Y-10.499 Z34.553
Y-10.853 Z34.201
Y-11.345 Z33.688
Y-11.824 Z33.161
Y-12.287 Z32.619
Y-12.533 Z32.319
G2 Y-12.765 Z32.209 J-0.232 K0.19
G1 Y-13.209
X60.255 Y-13.228
X60.25 Y-13.246 Z32.207
X60.243 Y-13.263 Z32.204
X60.233 Y-13.278 Z32.2
X60.22 Y-13.292 Z32.195
X60.206 Y-13.302 Z32.19
X60.19 Y-13.31 Z32.184
X60.174 Y-13.315 Z32.177
X60.156 Y-13.317 Z32.17
X60.139 Y-13.315 Z32.163
X60.122 Y-13.31 Z32.157
X60.106 Y-13.302 Z32.151
X60.092 Y-13.292 Z32.145
X60.08 Y-13.278 Z32.14
X60.07 Y-13.263 Z32.136
X60.062 Y-13.246 Z32.134
X60.058 Y-13.228 Z32.132
X60.056 Y-13.209 Z32.131
G3 Y-12.978 Z32.241 K0.3
G1 Y-12.731 Z32.541
Y-12.253 Z33.103
Y-11.935 Z33.458
Y-11.43 Z33.994
Y-10.91 Z34.519
Y-10.378 Z35.031
Y-9.854 Z35.512
Y-9.498 Z35.827
Y-8.959 Z36.288
Y-8.368 Z36.773
Y-7.809 Z37.21
Y-7.24 Z37.634
Y-6.662 Z38.045
Y-6.073 Z38.444
Y-5.474 Z38.825
Y-4.842 Z39.204
Y-4.111 Z39.62
Y-2.878 Z40.272
Y-1.855 Z40.783
Y-0.606 Z41.375
Y-0.175 Z41.568
Y0.501 Z41.859
Y1.182 Z42.136
Y1.872 Z42.398
Y2.344 Z42.566
Y2.819 Z42.722
Y3.045 Z42.792
Y3.614 Z42.956
Y4.214 Z43.105
Y4.701 Z43.215
Y5.445 Z43.377
Y6.681 Z43.633
Y7.405 Z43.763
Y7.873 Z43.829
Y8.135 Z43.856
Y8.437 Z43.88
Y8.773 Z43.889
Y9.169 Z43.886
Y9.692 Z43.842
Y10.182 Z43.755
Y10.308 Z43.728
Y10.808 Z43.578
Y11.051 Z43.488
Y11.41 Z43.326
Y11.64 Z43.212
Y11.864 Z43.077
Y12.244 Z42.834
Y12.65 Z42.508
Y12.886 Z42.295
Y13.337 Z41.833
Y13.671 Z41.434
Y13.865 Z41.183
Y14.268 Z40.59
Y14.654 Z39.928
Y14.978 Z39.293
Y15.281 Z38.622
G3 Y15.554 Z38.445 J0.273 K0.123
G1 Y15.723
X60.055 Y15.744 Z38.444
X60.05 Y15.765 Z38.441
X60.043 Y15.784 Z38.436
X60.033 Y15.802 Z38.429
X60.02 Y15.817 Z38.42
X60.006 Y15.829 Z38.41
X59.99 Y15.838 Z38.399
X59.974 Y15.844 Z38.387
X59.956 Y15.846 Z38.374
X59.939 Y15.844 Z38.362
X59.922 Y15.838 Z38.35
X59.906 Y15.829 Z38.339
X59.892 Y15.817 Z38.329
X59.88 Y15.802 Z38.32
X59.87 Y15.784 Z38.313
X59.862 Y15.765 Z38.308
X59.858 Y15.744 Z38.305
X59.856 Y15.723 Z38.304
G2 Y15.447 Z38.485 K0.3
G1 Y15.178 Z39.116
Y15.027 Z39.441
Y14.916 Z39.667
Y14.687 Z40.106
Y14.565 Z40.325
Y14.242 Z40.86
Y13.874 Z41.39
Y13.636 Z41.69
Y13.299 Z42.089
Y12.844 Z42.549
Y12.652 Z42.712
Y12.239 Z43.033
Y12.025 Z43.173
Y11.689 Z43.379
Y11.432 Z43.511
Y11.045 Z43.686
Y10.803 Z43.774
Y10.365 Z43.908
Y10.111 Z43.962
Y9.723 Z44.032
Y9.136 Z44.082
Y8.475 Z44.075
Y8.062 Z44.043
Y7.566 Z43.981
Y6.841 Z43.854
Y6.582 Z43.806
Y5.09 Z43.494
Y4.116 Z43.275
Y3.632 Z43.153
Y3.176 Z43.028
Y2.557 Z42.841
Y2.025 Z42.661
Y1.459 Z42.451
Y0.896 Z42.23
Y0.434 Z42.039
Y-0.724 Z41.535
Y-1.847 Z41.01
Y-2.879 Z40.502
Y-3.895 Z39.976
Y-4.645 Z39.565
Y-5.259 Z39.209
Y-5.912 Z38.808
Y-6.679 Z38.303
Y-7.282 Z37.881
Y-7.666 Z37.602
Y-8.357 Z37.078
Y-9.036 Z36.534
Y-9.579 Z36.079
Y-10.291 Z35.453
Y-10.813 Z34.972
Y-11.324 Z34.479
Y-11.824 Z33.974
Y-12.149 Z33.632
Y-12.664 Z33.063
Y-13.076 Z32.583
Y-13.421 Z32.163
G2 Y-13.653 Z32.054 J-0.232 K0.191
G1 Y-14.097
X59.855 Y-14.115 Z32.053
X59.85 Y-14.133 Z32.051
X59.843 Y-14.15 Z32.049
X59.833 Y-14.166 Z32.045
X59.82 Y-14.179 Z32.04
X59.806 Y-14.19 Z32.034
X59.79 Y-14.198 Z32.028
X59.774 Y-14.202 Z32.022
X59.756 Y-14.204 Z32.015
X59.739 Y-14.202 Z32.008
X59.722 Y-14.198 Z32.002
X59.706 Y-14.19 Z31.996
X59.692 Y-14.179 Z31.99
X59.68 Y-14.166 Z31.985
X59.67 Y-14.15 Z31.982
X59.662 Y-14.133 Z31.979
X59.658 Y-14.115 Z31.977
X59.656 Y-14.097 Z31.976
G3 Y-13.865 Z32.086 K0.3
G1 Y-13.528 Z32.496
Y-13.116 Z32.975
Y-12.62 Z33.524
Y-12.278 Z33.888
Y-11.946 Z34.228
Y-11.421 Z34.744
Y-10.884 Z35.248
Y-10.178 Z35.879
Y-9.455 Z36.492
Y-8.928 Z36.919
Y-8.18 Z37.498
Y-7.37 Z38.09
Y-6.555 Z38.647
Y-5.921 Z39.053
Y-5.416 Z39.362
Y-4.652 Z39.801
Y-4.237 Z40.028
Y-3.77 Z40.273
Y-2.879 Z40.728
Y-1.875 Z41.217
Y-0.594 Z41.802
Y0.105 Z42.106
Y0.564 Z42.301
Y1.277 Z42.588
Y1.914 Z42.819
Y2.388 Z42.979
Y2.865 Z43.129
Y3.32 Z43.261
Y3.803 Z43.389
Y4.262 Z43.501
Y5.006 Z43.668
Y6.471 Z43.975
Y7.428 Z44.147
Y7.923 Z44.212
Y8.185 Z44.236
Y8.454 Z44.256
Y8.957 Z44.266
Y9.219 Z44.258
Y9.481 Z44.238
Y9.742 Z44.213
Y10.258 Z44.121
Y10.547 Z44.044
Y10.981 Z43.906
Y11.46 Z43.693
Y11.715 Z43.559
Y12.235 Z43.232
Y12.545 Z42.992
Y12.841 Z42.749
Y13.169 Z42.433
Y13.387 Z42.204
Y13.8 Z41.704
Y14.104 Z41.281
Y14.283 Z41.021
Y14.576 Z40.538
Y14.881 Z39.976
Y15.107 Z39.519
Y15.311 Z39.073
Y15.515 Z38.586
G3 Y15.791 Z38.402 J0.277 K0.116
G1 Y15.821
X59.655 Y15.843 Z38.403
X59.651 Y15.864 Z38.407
X59.645 Y15.884 Z38.413
X59.637 Y15.902 Z38.42
X59.627 Y15.919 Z38.43
X59.615 Y15.933 Z38.441
X59.602 Y15.944 Z38.454
X59.587 Y15.952 Z38.468
X59.572 Y15.957 Z38.482
X59.556 Y15.959 Z38.497
X59.541 Y15.957 Z38.512
X59.525 Y15.952 Z38.527
X59.511 Y15.944 Z38.54
X59.497 Y15.933 Z38.553
X59.485 Y15.919 Z38.565
X59.475 Y15.902 Z38.574
X59.467 Y15.884 Z38.582
X59.461 Y15.864 Z38.588
X59.457 Y15.843 Z38.591
X59.456 Y15.821 Z38.592
G2 Y15.545 Z38.775 K0.3
G1 Y15.311 Z39.324
Y15.02 Z39.945
Y14.753 Z40.45
Y14.564 Z40.786
Y14.221 Z41.331
Y13.844 Z41.861
Y13.519 Z42.256
Y13.279 Z42.522
Y12.811 Z42.973
Y12.306 Z43.377
Y12.04 Z43.555
Y11.648 Z43.79
Y11.416 Z43.9
Y11.055 Z44.058
Y10.811 Z44.144
Y10.309 Z44.289
Y9.808 Z44.381
Y9.561 Z44.411
Y9.037 Z44.444
Y8.453 Z44.434
Y8.134 Z44.41
Y7.872 Z44.383
Y7.637 Z44.354
Y7.377 Z44.315
Y6.626 Z44.185
Y5.042 Z43.867
Y4.236 Z43.687
Y3.75 Z43.568
Y3.153 Z43.406
Y2.362 Z43.163
Y1.913 Z43.011
Y1.442 Z42.842
Y0.729 Z42.57
Y0.116 Z42.318
Y-0.65 Z41.984
Y-1.822 Z41.45
Y-2.831 Z40.972
Y-4.089 Z40.337
Y-4.894 Z39.9
Y-5.33 Z39.652
Y-5.961 Z39.274
Y-6.561 Z38.894
Y-7.152 Z38.501
Y-7.9 Z37.976
Y-8.54 Z37.502
Y-9.287 Z36.923
Y-9.88 Z36.44
Y-10.599 Z35.83
Y-11.151 Z35.338
Y-11.673 Z34.854
Y-12.245 Z34.297
Y-12.72 Z33.811
Y-13.224 Z33.271
Y-13.713 Z32.721
Y-14.039 Z32.337
Y-14.305 Z32.011
G2 Y-14.537 Z31.901 J-0.232 K0.19
G1 Y-14.974
X59.455 Y-14.993 Z31.9
X59.45 Y-15.011 Z31.899
X59.443 Y-15.028 Z31.896
X59.433 Y-15.043 Z31.892
X59.42 Y-15.056 Z31.887
X59.406 Y-15.067 Z31.882
X59.39 Y-15.075 Z31.875
X59.374 Y-15.08 Z31.869
X59.356 Y-15.082 Z31.862
X59.339 Y-15.08 Z31.855
X59.322 Y-15.075 Z31.849
X59.306 Y-15.067 Z31.843
X59.292 Y-15.056 Z31.837
X59.28 Y-15.043 Z31.833
X59.27 Y-15.028 Z31.829
X59.262 Y-15.011 Z31.826
X59.258 Y-14.993 Z31.824
X59.256 Y-14.974
G3 Y-14.741 Z31.935 K0.3
G1 Y-14.501 Z32.231
Y-14.041 Z32.776
Y-13.707 Z33.149
Y-13.365 Z33.518
Y-13.019 Z33.88
Y-12.499 Z34.403
Y-11.988 Z34.898
Y-11.289 Z35.538
Y-10.575 Z36.16
Y-9.824 Z36.781
Y-9.247 Z37.238
Y-8.566 Z37.754
Y-7.895 Z38.24
Y-7.312 Z38.644
Y-6.698 Z39.052
Y-5.897 Z39.553
Y-5.284 Z39.911
Y-4.64 Z40.269
Y-3.777 Z40.717
Y-3.117 Z41.044
Y-2.001 Z41.573
Y-0.693 Z42.173
Y0.089 Z42.502
Y0.746 Z42.768
Y1.434 Z43.031
Y1.905 Z43.2
Y2.354 Z43.352
Y2.918 Z43.528
Y3.614 Z43.722
Y4.229 Z43.869
Y5.205 Z44.078
Y6.531 Z44.344
Y7.398 Z44.496
Y7.659 Z44.534
Y7.893 Z44.563
Y8.155 Z44.589
Y8.457 Z44.612
Y8.793 Z44.62
Y9.189 Z44.617
Y9.712 Z44.574
Y10.203 Z44.489
Y10.329 Z44.463
Y10.831 Z44.317
Y11.063 Z44.235
Y11.411 Z44.082
Y11.643 Z43.972
Y12.073 Z43.721
Y12.287 Z43.583
Y12.776 Z43.2
Y13.248 Z42.75
Y13.507 Z42.467
Y13.867 Z42.04
Y14.055 Z41.781
Y14.267 Z41.477
Y14.588 Z40.964
Y14.936 Z40.339
Y15.211 Z39.784
Y15.551 Z39.013
G3 Y15.826 Z38.834 J0.274 K0.121
G1 Y15.854
X59.255 Y15.875 Z38.835
X59.251 Y15.896 Z38.838
X59.245 Y15.915 Z38.843
X59.237 Y15.933 Z38.851
X59.227 Y15.949 Z38.86
X59.215 Y15.963 Z38.87
X59.202 Y15.974 Z38.882
X59.187 Y15.982 Z38.895
X59.172 Y15.986 Z38.909
X59.156 Y15.988 Z38.923
X59.141 Y15.986 Z38.936
X59.125 Y15.982 Z38.95
X59.111 Y15.974 Z38.963
X59.097 Y15.963 Z38.975
X59.085 Y15.949 Z38.985
X59.075 Y15.933 Z38.994
X59.067 Y15.915 Z39.002
X59.061 Y15.896 Z39.007
X59.057 Y15.875 Z39.01
X59.056 Y15.854 Z39.011
G2 Y15.58 Z39.19 K0.3
G1 Y15.253 Z39.931
Y14.949 Z40.54
Y14.582 Z41.189
Y14.253 Z41.714
Y13.873 Z42.231
Y13.671 Z42.475
Y13.345 Z42.849
Y12.848 Z43.33
Y12.605 Z43.524
Y12.291 Z43.761
Y12.076 Z43.9
Y11.626 Z44.162
Y11.093 Z44.401
Y10.819 Z44.5
Y10.41 Z44.621
Y10.156 Z44.676
Y9.769 Z44.745
Y9.509 Z44.771
Y9.246 Z44.791
Y8.984 Z44.8
Y8.448 Z44.789
Y7.95 Z44.748
Y7.455 Z44.683
Y6.704 Z44.554
Y5.235 Z44.261
Y4.285 Z44.058
Y3.799 Z43.945
Y3.341 Z43.828
Y2.859 Z43.694
Y2.267 Z43.513
Y1.707 Z43.321
Y1.017 Z43.065
Y0.333 Z42.795
Y-0.722 Z42.354
Y-1.719 Z41.913
Y-3.075 Z41.273
Y-4.114 Z40.764
Y-4.651 Z40.484
Y-5.321 Z40.118
Y-5.935 Z39.761
Y-6.541 Z39.392
Y-7.334 Z38.877
Y-8.137 Z38.325
Y-8.924 Z37.754
Y-9.676 Z37.18
Y-10.458 Z36.554
Y-11.113 Z36.005
Y-11.757 Z35.44
Y-12.108 Z35.122
Y-12.816 Z34.448
Y-13.484 Z33.779
Y-13.83 Z33.417
Y-13.992 Z33.245
Y-14.329 Z32.871
Y-14.657 Z32.491
Y-15.174 Z31.86
Y-15.175 Z31.859
G2 Y-15.412 Z31.742 J-0.237 K0.184
G1 Y-15.841
X59.055 Y-15.86
X59.05 Y-15.878 Z31.74
X59.043 Y-15.895 Z31.737
X59.033 Y-15.91 Z31.734
X59.02 Y-15.923 Z31.729
X59.006 Y-15.934 Z31.724
X58.99 Y-15.941 Z31.718
X58.974 Y-15.946 Z31.712
X58.956 Y-15.948 Z31.706
X58.939 Y-15.946 Z31.699
X58.922 Y-15.941 Z31.693
X58.906 Y-15.934 Z31.687
X58.892 Y-15.923 Z31.682
X58.88 Y-15.91 Z31.678
X58.87 Y-15.895 Z31.674
X58.862 Y-15.878 Z31.671
X58.858 Y-15.86 Z31.67
X58.856 Y-15.841 Z31.669
G3 Y-15.607 Z31.782 K0.3
G1 Y-15.326 Z32.133
Y-15.02 Z32.499
Y-14.551 Z33.035
Y-14.047 Z33.578
Y-13.51 Z34.122
Y-13.002 Z34.616
Y-12.291 Z35.279
Y-11.582 Z35.907
Y-10.815 Z36.551
Y-10.355 Z36.922
Y-9.562 Z37.54
Y-8.731 Z38.154
Y-8.131 Z38.579
Y-7.52 Z38.994
Y-6.926 Z39.382
Y-6.174 Z39.847
Y-5.464 Z40.259
Y-4.841 Z40.599
Y-4.021 Z41.019
Y-2.646 Z41.685
Y-1.762 Z42.091
Y-0.739 Z42.538
Y0.098 Z42.889
Y0.56 Z43.077
Y1.222 Z43.332
Y1.943 Z43.584
Y2.418 Z43.738
Y2.871 Z43.874
Y3.353 Z44.008
Y4.041 Z44.18
Y4.961 Z44.382
Y6.484 Z44.689
Y7.415 Z44.851
Y7.911 Z44.915
Y8.173 Z44.939
Y8.476 Z44.961
Y9.076 Z44.97
Y9.73 Z44.922
Y10.361 Z44.809
Y10.726 Z44.705
Y11.034 Z44.605
Y11.455 Z44.422
Y11.685 Z44.31
Y12.241 Z43.976
Y12.555 Z43.742
Y12.856 Z43.504
Y13.236 Z43.151
Y13.414 Z42.97
Y13.672 Z42.672
Y13.905 Z42.386
Y14.28 Z41.875
Y14.592 Z41.39
Y14.932 Z40.787
Y15.05 Z40.565
Y15.274 Z40.119
Y15.584 Z39.423
G3 Y15.858 Z39.245 J0.274 K0.122
G1 Y16.011
X58.855 Y16.032 Z39.244
X58.85 Y16.052 Z39.241
X58.843 Y16.071 Z39.236
X58.833 Y16.088 Z39.229
X58.82 Y16.103 Z39.221
X58.806 Y16.115 Z39.211
X58.79 Y16.124 Z39.201
X58.774 Y16.129 Z39.189
X58.756 Y16.131 Z39.178
X58.739 Y16.129 Z39.166
X58.722 Y16.124 Z39.155
X58.706 Y16.115 Z39.144
X58.692 Y16.103 Z39.135
X58.68 Y16.088 Z39.126
X58.67 Y16.071 Z39.12
X58.662 Y16.052 Z39.115
X58.658 Y16.032 Z39.112
X58.656 Y16.011 Z39.111
G2 Y15.734 Z39.294 K0.3
G1 Y15.517 Z39.811
Y15.265 Z40.356
Y14.966 Z40.943
Y14.662 Z41.483
Y14.245 Z42.124
Y13.82 Z42.695
Y13.367 Z43.204
Y13.184 Z43.381
Y12.82 Z43.717
Y12.619 Z43.874
Y12.305 Z44.112
Y12.09 Z44.251
Y11.64 Z44.512
Y11.044 Z44.769
Y10.799 Z44.85
Y10.42 Z44.959
Y10.166 Z45.013
Y9.778 Z45.079
Y9.518 Z45.105
Y9.256 Z45.124
Y9.02 Z45.134
Y8.469 Z45.124
Y7.895 Z45.076
Y7.426 Z45.016
Y6.558 Z44.869
Y4.941 Z44.554
Y4.049 Z44.359
Y3.476 Z44.217
Y3.222 Z44.15
Y2.742 Z44.013
Y2.264 Z43.866
Y1.816 Z43.718
Y0.925 Z43.401
Y0.212 Z43.126
Y-0.685 Z42.752
Y-1.841 Z42.247
Y-2.99 Z41.727
Y-4.101 Z41.186
Y-4.546 Z40.961
Y-5.407 Z40.507
Y-5.821 Z40.276
Y-6.431 Z39.916
Y-6.859 Z39.654
Y-7.644 Z39.149
Y-8.481 Z38.581
Y-9.251 Z38.03
Y-10.099 Z37.395
Y-10.819 Z36.831
Y-11.572 Z36.213
Y-11.953 Z35.891
Y-12.506 Z35.404
Y-13.071 Z34.889
Y-13.778 Z34.215
Y-14.299 Z33.693
Y-14.627 Z33.349
Y-15.105 Z32.823
Y-15.418 Z32.464
Y-15.722 Z32.1
Y-16.035 Z31.706
G2 Y-16.27 Z31.593 J-0.235 K0.187
G1 Y-16.695
X58.655 Y-16.713 Z31.592
X58.65 Y-16.731 Z31.59
X58.643 Y-16.748 Z31.588
X58.633 Y-16.764 Z31.584
X58.62 Y-16.777 Z31.579
X58.606 Y-16.787 Z31.573
X58.59 Y-16.795 Z31.567
X58.574 Y-16.8 Z31.561
X58.556 Y-16.802 Z31.554
X58.539 Y-16.8 Z31.547
X58.522 Y-16.795 Z31.541
X58.506 Y-16.787 Z31.535
X58.492 Y-16.777 Z31.529
X58.48 Y-16.764 Z31.525
X58.47 Y-16.748 Z31.521
X58.462 Y-16.731 Z31.518
X58.458 Y-16.713 Z31.516
X58.456 Y-16.695
G3 Y-16.459 Z31.63 K0.3
G1 Y-16.251 Z31.895
Y-15.931 Z32.287
Y-15.45 Z32.845
Y-15.13 Z33.196
Y-14.64 Z33.713
Y-14.118 Z34.236
Y-13.756 Z34.58
Y-13.018 Z35.26
Y-12.644 Z35.59
Y-12.086 Z36.073
Y-11.356 Z36.677
Y-10.779 Z37.135
Y-10.028 Z37.709
Y-9.168 Z38.339
Y-8.347 Z38.912
Y-7.484 Z39.483
Y-7.061 Z39.75
Y-6.354 Z40.182
Y-5.611 Z40.603
Y-4.986 Z40.939
Y-4.042 Z41.424
Y-2.98 Z41.923
Y-1.831 Z42.443
Y-0.723 Z42.926
Y0.449 Z43.396
Y0.916 Z43.574
Y1.831 Z43.9
Y2.306 Z44.056
Y2.783 Z44.202
Y3.259 Z44.337
Y4.04 Z44.528
Y5.133 Z44.757
Y6.629 Z45.046
Y6.889 Z45.09
Y7.615 Z45.206
Y7.967 Z45.248
Y8.468 Z45.288
Y9.094 Z45.297
Y9.734 Z45.25
Y10.109 Z45.187
Y10.365 Z45.138
Y10.991 Z44.954
Y11.473 Z44.754
Y11.705 Z44.643
Y12.047 Z44.448
Y12.266 Z44.316
Y12.665 Z44.021
Y12.91 Z43.819
Y13.335 Z43.419
Y13.599 Z43.13
Y13.899 Z42.784
Y14.299 Z42.244
Y14.617 Z41.754
Y14.945 Z41.195
Y15.255 Z40.593
Y15.517 Z40.035
Y15.814 Z39.335
G3 Y16.09 Z39.152 J0.276 K0.117
G1 Y16.093
X58.455 Y16.117 Z39.153
X58.451 Y16.14 Z39.158
X58.445 Y16.161 Z39.164
X58.437 Y16.182 Z39.174
X58.427 Y16.2 Z39.185
X58.415 Y16.215 Z39.199
X58.402 Y16.227 Z39.214
X58.387 Y16.236 Z39.23
X58.372 Y16.242 Z39.247
X58.356 Y16.244 Z39.265
X58.341 Y16.242 Z39.282
X58.325 Y16.236 Z39.3
X58.311 Y16.227 Z39.316
X58.297 Y16.215 Z39.331
X58.285 Y16.2 Z39.344
X58.275 Y16.182 Z39.356
X58.267 Y16.161 Z39.365
X58.261 Y16.14 Z39.372
X58.257 Y16.117 Z39.376
X58.256 Y16.093 Z39.377
G2 Y15.818 Z39.559 K0.3
G1 Y15.531 Z40.223
Y15.269 Z40.784
Y15.041 Z41.223
Y14.668 Z41.872
Y14.26 Z42.495
Y13.865 Z43.009
Y13.348 Z43.587
Y12.876 Z44.028
Y12.676 Z44.185
Y12.274 Z44.477
Y12.055 Z44.609
Y11.713 Z44.805
Y11.481 Z44.916
Y10.999 Z45.117
Y10.374 Z45.3
Y10.118 Z45.35
Y9.743 Z45.413
Y9.102 Z45.461
Y8.477 Z45.452
Y8.093 Z45.424
Y7.596 Z45.367
Y6.87 Z45.25
Y6.61 Z45.205
Y5.114 Z44.916
Y4.136 Z44.713
Y3.65 Z44.6
Y2.964 Z44.422
Y2.358 Z44.247
Y1.782 Z44.06
Y1.311 Z43.895
Y0.622 Z43.638
Y-0.526 Z43.183
Y-1.796 Z42.649
Y-2.841 Z42.178
Y-4.116 Z41.582
Y-4.776 Z41.256
Y-5.507 Z40.867
Y-6.15 Z40.508
Y-6.876 Z40.084
Y-7.59 Z39.638
Y-8.381 Z39.12
Y-8.991 Z38.704
Y-9.592 Z38.28
Y-10.466 Z37.638
Y-11.243 Z37.04
Y-11.89 Z36.523
Y-12.457 Z36.051
Y-13.103 Z35.494
Y-13.74 Z34.924
Y-14.108 Z34.586
Y-14.62 Z34.092
Y-14.954 Z33.758
Y-15.467 Z33.223
Y-15.962 Z32.673
Y-16.29 Z32.291
Y-16.591 Z31.924
Y-16.876 Z31.556
G2 Y-17.113 Z31.44 J-0.237 K0.184
G1 Y-17.522
X58.255 Y-17.541
X58.25 Y-17.559 Z31.438
X58.243 Y-17.576 Z31.435
X58.233 Y-17.591 Z31.432
X58.22 Y-17.604 Z31.427
X58.206 Y-17.615 Z31.422
X58.19 Y-17.622 Z31.416
X58.174 Y-17.627 Z31.41
X58.156 Y-17.629 Z31.404
X58.139 Y-17.627 Z31.397
X58.122 Y-17.622 Z31.391
X58.106 Y-17.615 Z31.385
X58.092 Y-17.604 Z31.38
X58.08 Y-17.591 Z31.376
X58.07 Y-17.576 Z31.372
X58.062 Y-17.559 Z31.369
X58.058 Y-17.541 Z31.368
X58.056 Y-17.522 Z31.367
G3 Y-17.284 Z31.486 K0.3
G1 Y-17.115 Z31.708
Y-16.653 Z32.285
Y-16.187 Z32.824
Y-15.686 Z33.368
Y-15.211 Z33.856
Y-14.565 Z34.487
Y-13.968 Z35.038
Y-13.395 Z35.543
Y-12.834 Z36.022
Y-12.246 Z36.51
Y-11.693 Z36.954
Y-11.038 Z37.46
Y-10.258 Z38.042
Y-9.466 Z38.608
Y-8.591 Z39.208
Y-7.6 Z39.852
Y-6.92 Z40.264
Y-6.08 Z40.755
Y-5.433 Z41.114
Y-4.804 Z41.435
Y-3.93 Z41.862
Y-2.786 Z42.394
Y-1.896 Z42.784
Y-0.708 Z43.285
Y0.439 Z43.745
Y1.297 Z44.063
Y2.023 Z44.305
Y2.501 Z44.452
Y2.955 Z44.582
Y3.641 Z44.761
Y4.127 Z44.874
Y5.105 Z45.078
Y6.601 Z45.367
Y7.444 Z45.508
Y7.913 Z45.567
Y8.472 Z45.612
Y9.029 Z45.621
Y9.404 Z45.602
Y9.795 Z45.567
Y10.312 Z45.478
Y10.665 Z45.383
Y11.037 Z45.268
Y11.635 Z45.011
Y11.978 Z44.82
Y12.296 Z44.628
Y12.706 Z44.33
Y12.906 Z44.169
Y13.198 Z43.906
Y13.382 Z43.733
Y13.815 Z43.252
Y14.289 Z42.638
Y14.649 Z42.103
Y14.959 Z41.571
Y15.331 Z40.867
Y15.545 Z40.411
Y15.851 Z39.696
G3 Y16.127 Z39.515 J0.276 K0.118
G1 Y16.131
X58.055 Y16.154 Z39.516
X58.051 Y16.176 Z39.52
X58.045 Y16.197 Z39.526
X58.037 Y16.216 Z39.535
X58.027 Y16.234 Z39.545
X58.015 Y16.248 Z39.558
X58.002 Y16.26 Z39.572
X57.987 Y16.269 Z39.587
X57.972 Y16.274 Z39.603
X57.956 Y16.276 Z39.619
X57.941 Y16.274 Z39.635
X57.925 Y16.269 Z39.651
X57.911 Y16.26 Z39.666
X57.897 Y16.248 Z39.68
X57.885 Y16.234 Z39.693
X57.875 Y16.216 Z39.704
X57.867 Y16.197 Z39.712
X57.861 Y16.176 Z39.718
X57.857 Y16.154 Z39.722
X57.856 Y16.131 Z39.723
G2 Y15.856 Z39.905 K0.3
G1 Y15.547 Z40.621
Y15.265 Z41.197
Y14.958 Z41.773
Y14.612 Z42.343
Y14.35 Z42.733
Y14.203 Z42.937
Y13.841 Z43.403
Y13.539 Z43.734
Y13.36 Z43.922
Y12.934 Z44.311
Y12.7 Z44.5
Y12.29 Z44.798
Y11.857 Z45.055
Y11.628 Z45.18
Y11.028 Z45.429
Y10.78 Z45.505
Y10.401 Z45.61
Y9.886 Z45.703
Y9.594 Z45.739
Y9.234 Z45.765
Y8.972 Z45.771
Y8.469 Z45.762
Y7.964 Z45.723
Y7.468 Z45.663
Y6.742 Z45.547
Y5.296 Z45.278
Y4.344 Z45.084
Y3.857 Z44.975
Y3.372 Z44.856
Y2.687 Z44.669
Y2.208 Z44.526
Y1.534 Z44.306
Y0.84 Z44.063
Y-0.069 Z43.719
Y-0.727 Z43.453
Y-1.914 Z42.953
Y-3.071 Z42.448
Y-3.929 Z42.053
Y-4.804 Z41.627
Y-5.564 Z41.238
Y-6.188 Z40.9
Y-6.926 Z40.468
Y-7.556 Z40.087
Y-8.38 Z39.568
Y-9.265 Z38.977
Y-10.063 Z38.421
Y-10.946 Z37.78
Y-11.556 Z37.321
Y-12.229 Z36.795
Y-12.914 Z36.238
Y-13.5 Z35.749
Y-14.058 Z35.268
Y-14.586 Z34.792
Y-15.124 Z34.287
Y-15.631 Z33.788
Y-16.125 Z33.277
Y-16.731 Z32.608
Y-17.103 Z32.166
Y-17.469 Z31.7
Y-17.68 Z31.415
G2 Y-17.921 Z31.293 J-0.241 K0.178
G1 Y-18.299
X57.855 Y-18.318
X57.85 Y-18.336 Z31.291
X57.843 Y-18.352 Z31.289
X57.833 Y-18.367 Z31.285
X57.82 Y-18.38 Z31.281
X57.806 Y-18.391 Z31.276
X57.79 Y-18.399 Z31.271
X57.774 Y-18.404 Z31.265
X57.756 Y-18.405 Z31.259
X57.739 Y-18.404 Z31.253
X57.722 Y-18.399 Z31.247
X57.706 Y-18.391 Z31.242
X57.692 Y-18.38 Z31.237
X57.68 Y-18.367 Z31.233
X57.67 Y-18.352 Z31.229
X57.662 Y-18.336 Z31.227
X57.658 Y-18.318 Z31.225
X57.656 Y-18.299
G3 Y-18.056 Z31.35 K0.3
G1 Y-17.731 Z31.801
Y-17.437 Z32.179
Y-17.21 Z32.453
Y-16.821 Z32.9
Y-16.5 Z33.25
Y-15.986 Z33.782
Y-15.563 Z34.198
Y-14.939 Z34.786
Y-14.389 Z35.279
Y-14.032 Z35.588
Y-13.627 Z35.928
Y-12.874 Z36.544
Y-12.112 Z37.148
Y-11.359 Z37.72
Y-10.573 Z38.293
Y-9.799 Z38.837
Y-9.19 Z39.25
Y-8.597 Z39.64
Y-7.598 Z40.268
Y-6.659 Z40.83
Y-5.911 Z41.243
Y-5.284 Z41.574
Y-4.627 Z41.906
Y-4.082 Z42.169
Y-2.81 Z42.74
Y-1.652 Z43.241
Y-0.694 Z43.64
Y0.52 Z44.108
Y1.31 Z44.393
Y1.784 Z44.552
Y2.259 Z44.704
Y2.738 Z44.847
Y3.334 Z45.01
Y4.139 Z45.2
Y5.144 Z45.401
Y6.642 Z45.68
Y7.135 Z45.76
Y7.629 Z45.835
Y7.981 Z45.876
Y8.483 Z45.913
Y9.109 Z45.922
Y9.606 Z45.889
Y9.865 Z45.858
Y10.125 Z45.814
Y10.381 Z45.767
Y10.608 Z45.705
Y10.983 Z45.596
Y11.468 Z45.403
Y11.703 Z45.296
Y12.048 Z45.106
Y12.269 Z44.977
Y12.671 Z44.688
Y12.921 Z44.49
Y13.353 Z44.097
Y13.871 Z43.538
Y14.263 Z43.041
Y14.616 Z42.522
Y14.966 Z41.949
Y15.078 Z41.752
Y15.259 Z41.409
Y15.546 Z40.823
Y15.761 Z40.349
Y15.86 Z40.114
G3 Y16.136 Z39.931 J0.276 K0.117
G1 Y16.247
X57.655 Y16.265 Z39.93
X57.65 Y16.283 Z39.929
X57.643 Y16.299 Z39.927
X57.633 Y16.314 Z39.924
X57.62 Y16.327 Z39.92
X57.606 Y16.337 Z39.916
X57.59 Y16.345 Z39.912
X57.574 Y16.35 Z39.907
X57.556 Y16.351 Z39.902
X57.539 Y16.35 Z39.896
X57.522 Y16.345 Z39.891
X57.506 Y16.337 Z39.887
X57.492 Y16.327 Z39.883
X57.48 Y16.314 Z39.879
X57.47 Y16.299 Z39.876
X57.462 Y16.283 Z39.874
X57.458 Y16.265 Z39.873
X57.456 Y16.247 Z39.872
G2 Y15.971 Z40.055 K0.3
G1 Y15.743 Z40.591
Y15.529 Z41.061
Y15.285 Z41.557
Y14.955 Z42.151
Y14.653 Z42.65
Y14.328 Z43.126
Y13.901 Z43.671
Y13.734 Z43.86
Y13.376 Z44.242
Y12.863 Z44.705
Y12.612 Z44.891
Y12.29 Z45.116
Y11.841 Z45.373
Y11.552 Z45.52
Y11.032 Z45.731
Y10.785 Z45.807
Y10.418 Z45.909
Y9.917 Z46.
Y9.625 Z46.039
Y9.265 Z46.065
Y9.029 Z46.073
Y8.493 Z46.064
Y7.937 Z46.021
Y7.409 Z45.954
Y6.8 Z45.856
Y5.585 Z45.635
Y4.837 Z45.491
Y4.09 Z45.339
Y3.399 Z45.179
Y2.788 Z45.02
Y2.038 Z44.797
Y1.533 Z44.631
Y0.813 Z44.378
Y0.345 Z44.205
Y-0.806 Z43.757
Y-1.84 Z43.337
Y-2.865 Z42.893
Y-4.207 Z42.287
Y-4.871 Z41.972
Y-5.505 Z41.651
Y-6.337 Z41.201
Y-7.002 Z40.826
Y-7.613 Z40.465
Y-8.459 Z39.935
Y-9.276 Z39.41
Y-10.105 Z38.85
Y-10.73 Z38.412
Y-11.497 Z37.859
Y-11.899 Z37.562
Y-12.857 Z36.823
Y-13.433 Z36.365
Y-14.023 Z35.882
Y-14.584 Z35.405
Y-15.292 Z34.776
Y-15.811 Z34.291
Y-16.319 Z33.795
Y-16.835 Z33.261
Y-17.135 Z32.934
Y-17.582 Z32.415
Y-17.897 Z32.016
Y-18.212 Z31.582
Y-18.29 Z31.465
G2 Y-18.539 Z31.333 J-0.249 K0.168
G1 Y-18.772
X57.455 Y-18.792
X57.45 Y-18.81 Z31.336
X57.443 Y-18.828 Z31.339
X57.433 Y-18.844 Z31.344
X57.42 Y-18.857 Z31.35
X57.406 Y-18.868 Z31.356
X57.39 Y-18.876 Z31.364
X57.374 Y-18.881 Z31.372
X57.356 Y-18.883 Z31.38
X57.339 Y-18.881 Z31.388
X57.322 Y-18.876 Z31.396
X57.306 Y-18.868 Z31.404
X57.292 Y-18.857 Z31.411
X57.28 Y-18.844 Z31.416
X57.27 Y-18.828 Z31.421
X57.262 Y-18.81 Z31.425
X57.258 Y-18.792 Z31.427
X57.256 Y-18.772
G3 Y-18.523 Z31.562 K0.3
G1 Y-18.371 Z31.79
Y-18.164 Z32.082
Y-17.871 Z32.46
Y-17.563 Z32.828
Y-17.326 Z33.095
Y-16.922 Z33.527
Y-16.421 Z34.033
Y-15.992 Z34.443
Y-15.36 Z35.022
Y-14.825 Z35.489
Y-14.078 Z36.115
Y-13.132 Z36.866
Y-12.409 Z37.421
Y-11.556 Z38.053
Y-10.741 Z38.633
Y-9.939 Z39.183
Y-8.904 Z39.858
Y-8.083 Z40.379
Y-7.427 Z40.77
Y-6.608 Z41.241
Y-5.964 Z41.597
Y-5.332 Z41.923
Y-4.646 Z42.257
Y-3.954 Z42.581
Y-2.935 Z43.038
Y-1.906 Z43.472
Y-0.492 Z44.045
Y0.44 Z44.404
Y0.94 Z44.587
Y1.805 Z44.877
Y2.282 Z45.024
Y2.964 Z45.217
Y3.448 Z45.341
Y4.139 Z45.499
Y5.118 Z45.696
Y6.589 Z45.97
Y7.432 Z46.107
Y7.901 Z46.167
Y8.489 Z46.214
Y9.144 Z46.222
Y9.784 Z46.173
Y10.043 Z46.13
Y10.428 Z46.058
Y10.808 Z45.952
Y11.054 Z45.875
Y11.655 Z45.625
Y12.112 Z45.375
Y12.332 Z45.242
Y12.653 Z45.015
Y12.858 Z44.863
Y13.254 Z44.52
Y13.436 Z44.348
Y13.865 Z43.881
Y14.103 Z43.586
Y14.338 Z43.283
Y14.669 Z42.807
Y14.974 Z42.303
Y15.087 Z42.106
Y15.273 Z41.764
Y15.554 Z41.211
Y15.757 Z40.761
Y16.093 Z39.962
G3 Y16.37 Z39.778 J0.277 K0.116
G1 Y16.374
X57.255 Y16.396 Z39.779
X57.251 Y16.417 Z39.783
X57.245 Y16.437 Z39.788
X57.237 Y16.456 Z39.796
X57.227 Y16.472 Z39.806
X57.215 Y16.487 Z39.818
X57.202 Y16.498 Z39.83
X57.187 Y16.506 Z39.844
X57.172 Y16.511 Z39.859
X57.156 Y16.513 Z39.874
X57.141 Y16.511 Z39.889
X57.125 Y16.506 Z39.904
X57.111 Y16.498 Z39.918
X57.097 Y16.487 Z39.93
X57.086 Y16.472 Z39.942
X57.075 Y16.456 Z39.952
X57.067 Y16.437 Z39.96
X57.061 Y16.417 Z39.965
X57.057 Y16.396 Z39.969
X57.056 Y16.374 Z39.97
G2 Y16.097 Z40.155 K0.3
G1 Y15.812 Z40.84
Y15.654 Z41.188
Y15.555 Z41.395
Y15.271 Z41.953
Y15. Z42.445
Y14.626 Z43.038
Y14.283 Z43.526
Y13.859 Z44.057
Y13.438 Z44.502
Y13.253 Z44.675
Y12.857 Z45.017
Y12.652 Z45.169
Y12.33 Z45.396
Y12.111 Z45.529
Y11.653 Z45.778
Y11.113 Z46.003
Y10.866 Z46.084
Y10.424 Z46.204
Y10.039 Z46.274
Y9.779 Z46.315
Y9.519 Z46.338
Y9.256 Z46.356
Y8.994 Z46.363
Y8.491 Z46.355
Y8.222 Z46.337
Y7.96 Z46.315
Y7.464 Z46.256
Y6.594 Z46.119
Y5.032 Z45.83
Y4.311 Z45.685
Y3.823 Z45.579
Y3.363 Z45.47
Y2.879 Z45.344
Y2.197 Z45.148
Y1.719 Z44.999
Y1.021 Z44.767
Y0.302 Z44.511
Y-0.605 Z44.163
Y-1.774 Z43.69
Y-2.962 Z43.191
Y-3.852 Z42.802
Y-4.52 Z42.493
Y-5.208 Z42.161
Y-5.865 Z41.828
Y-6.516 Z41.483
Y-7.338 Z41.013
Y-8.173 Z40.516
Y-8.901 Z40.067
Y-10.012 Z39.342
Y-10.647 Z38.917
Y-11.445 Z38.362
Y-12.064 Z37.917
Y-13.033 Z37.193
Y-13.639 Z36.728
Y-14.308 Z36.197
Y-14.947 Z35.669
Y-15.684 Z35.032
Y-16.297 Z34.474
Y-16.725 Z34.064
Y-17.236 Z33.55
Y-17.551 Z33.211
Y-17.865 Z32.852
Y-18.248 Z32.376
Y-18.584 Z31.899
Y-18.766 Z31.604
G2 Y-19.022 Z31.462 J-0.255 K0.157
G1 Y-19.165
X57.055 Y-19.186 Z31.463
X57.051 Y-19.207 Z31.466
X57.045 Y-19.226 Z31.472
X57.037 Y-19.244 Z31.479
X57.027 Y-19.26 Z31.488
X57.015 Y-19.274 Z31.499
X57.002 Y-19.285 Z31.511
X56.987 Y-19.293 Z31.524
X56.972 Y-19.298 Z31.538
X56.956 Y-19.3 Z31.552
X56.941 Y-19.298 Z31.567
X56.925 Y-19.293 Z31.581
X56.911 Y-19.285 Z31.594
X56.897 Y-19.274 Z31.606
X56.886 Y-19.26 Z31.617
X56.875 Y-19.244 Z31.626
X56.867 Y-19.226 Z31.633
X56.861 Y-19.207 Z31.639
X56.857 Y-19.186 Z31.642
X56.856 Y-19.165 Z31.643
G3 Y-18.908 Z31.788 K0.3
G1 Y-18.715 Z32.109
Y-18.622 Z32.25
Y-18.297 Z32.697
Y-17.995 Z33.067
Y-17.618 Z33.49
Y-17.184 Z33.939
Y-16.674 Z34.433
Y-16.15 Z34.914
Y-15.615 Z35.383
Y-15.051 Z35.858
Y-14.203 Z36.544
Y-13.505 Z37.081
Y-12.916 Z37.522
Y-12.014 Z38.182
Y-11.192 Z38.759
Y-10.532 Z39.203
Y-9.326 Z39.998
Y-8.499 Z40.509
Y-7.643 Z41.024
Y-7.062 Z41.361
Y-6.174 Z41.843
Y-5.332 Z42.275
Y-4.646 Z42.609
Y-4.001 Z42.904
Y-3.085 Z43.3
Y-1.703 Z43.881
Y-0.679 Z44.292
Y0.379 Z44.689
Y1.073 Z44.934
Y1.771 Z45.165
Y2.248 Z45.313
Y2.931 Z45.507
Y3.415 Z45.632
Y3.875 Z45.74
Y4.8 Z45.93
Y5.55 Z46.07
Y6.792 Z46.29
Y7.402 Z46.384
Y7.988 Z46.456
Y8.486 Z46.492
Y9.022 Z46.501
Y9.284 Z46.493
Y9.677 Z46.465
Y10.066 Z46.408
Y10.438 Z46.339
Y10.806 Z46.239
Y11.054 Z46.165
Y11.51 Z45.984
Y11.773 Z45.863
Y12.283 Z45.58
Y12.658 Z45.317
Y12.863 Z45.165
Y13.259 Z44.823
Y13.444 Z44.65
Y13.88 Z44.19
Y14.28 Z43.699
Y14.633 Z43.197
Y15.057 Z42.522
Y15.24 Z42.195
Y15.534 Z41.623
Y15.812 Z41.032
Y16.101 Z40.348
G3 Y16.378 Z40.165 J0.276 K0.117
G1 Y16.381
X56.855 Y16.403 Z40.166
X56.851 Y16.424 Z40.17
X56.845 Y16.444 Z40.176
X56.837 Y16.463 Z40.184
X56.827 Y16.48 Z40.193
X56.815 Y16.494 Z40.205
X56.802 Y16.505 Z40.218
X56.787 Y16.514 Z40.232
X56.772 Y16.519 Z40.247
X56.756 Y16.521 Z40.262
X56.741 Y16.519 Z40.278
X56.725 Y16.514 Z40.292
X56.711 Y16.505 Z40.307
X56.697 Y16.494 Z40.32
X56.686 Y16.48 Z40.331
X56.675 Y16.463 Z40.341
X56.667 Y16.444 Z40.349
X56.661 Y16.424 Z40.355
X56.657 Y16.403 Z40.359
X56.656 Y16.381 Z40.36
G2 Y16.105 Z40.542 K0.3
G1 Y15.904 Z41.013
Y15.628 Z41.618
Y15.298 Z42.265
Y15.092 Z42.631
Y14.962 Z42.847
Y14.649 Z43.344
Y14.32 Z43.807
Y13.835 Z44.395
Y13.405 Z44.843
Y13.217 Z45.014
Y12.87 Z45.313
Y12.395 Z45.649
Y12.135 Z45.807
Y11.718 Z46.031
Y11.482 Z46.135
Y11.129 Z46.276
Y10.832 Z46.371
Y10.403 Z46.487
Y9.77 Z46.593
Y9.116 Z46.639
Y8.516 Z46.632
Y8.213 Z46.612
Y7.951 Z46.59
Y7.481 Z46.534
Y6.612 Z46.398
Y4.993 Z46.105
Y4.301 Z45.971
Y3.812 Z45.868
Y3.124 Z45.704
Y2.41 Z45.511
Y1.958 Z45.374
Y1.481 Z45.221
Y0.759 Z44.974
Y0.093 Z44.731
Y-0.621 Z44.464
Y-1.82 Z43.994
Y-2.959 Z43.517
Y-4.116 Z43.014
Y-5.154 Z42.537
Y-5.848 Z42.189
Y-6.499 Z41.845
Y-7.351 Z41.376
Y-8.017 Z40.992
Y-8.998 Z40.393
Y-9.944 Z39.8
Y-11.267 Z38.918
Y-11.875 Z38.502
Y-12.858 Z37.798
Y-13.473 Z37.346
Y-14.083 Z36.888
Y-14.828 Z36.304
Y-15.4 Z35.84
Y-16.122 Z35.229
Y-16.761 Z34.658
Y-17.191 Z34.253
Y-17.611 Z33.832
Y-17.857 Z33.57
Y-18.017 Z33.394
Y-18.174 Z33.212
Y-18.326 Z33.028
Y-18.561 Z32.72
Y-18.813 Z32.348
Y-18.981 Z32.068
G2 Y-19.538 Z32.222 J-0.257 K0.154
G1 Z32.274
X56.651 Y-19.543 Z32.316
X56.637 Y-19.556 Z32.354
X56.615 Y-19.576 Z32.384
X56.587 Y-19.602 Z32.404
X56.556 Y-19.631 Z32.411
X56.525 Y-19.659 Z32.404
X56.497 Y-19.685 Z32.384
X56.475 Y-19.706 Z32.354
X56.461 Y-19.719 Z32.316
X56.456 Y-19.723 Z32.274
G3 Y-19.157 Z32.137 J0.3
G1 Y-19.144 Z32.162
Y-18.902 Z32.585
Y-18.7 Z32.889
Y-18.557 Z33.085
Y-18.215 Z33.507
Y-17.772 Z33.989
Y-17.308 Z34.448
Y-16.741 Z34.971
Y-16.205 Z35.439
Y-15.638 Z35.913
Y-15.25 Z36.226
Y-14.835 Z36.553
Y-13.99 Z37.2
Y-13.258 Z37.737
Y-12.445 Z38.317
Y-11.84 Z38.738
Y-10.62 Z39.559
Y-9.8 Z40.083
Y-8.674 Z40.783
Y-7.756 Z41.322
Y-6.909 Z41.798
Y-6.128 Z42.219
Y-5.44 Z42.562
Y-4.775 Z42.876
Y-3.913 Z43.266
Y-2.888 Z43.709
Y-1.854 Z44.13
Y-0.875 Z44.514
Y-0.187 Z44.776
Y0.725 Z45.111
Y1.38 Z45.337
Y2.325 Z45.627
Y2.807 Z45.76
Y3.29 Z45.884
Y4.097 Z46.066
Y5.166 Z46.275
Y6.666 Z46.545
Y6.926 Z46.586
Y7.653 Z46.694
Y8.006 Z46.733
Y8.509 Z46.769
Y9.136 Z46.777
Y9.777 Z46.731
Y10.153 Z46.671
Y10.409 Z46.624
Y11.037 Z46.449
Y11.523 Z46.258
Y11.758 Z46.151
Y12.105 Z45.964
Y12.326 Z45.835
Y12.858 Z45.465
Y13.232 Z45.152
Y13.478 Z44.924
Y13.889 Z44.489
Y14.283 Z44.01
Y14.665 Z43.485
Y14.995 Z42.964
Y15.286 Z42.457
Y15.56 Z41.937
Y15.659 Z41.736
Y15.979 Z41.026
Y16.255 Z40.357
G3 Y16.532 Z40.171 J0.277 K0.114
G1 Y16.608
X56.454 Y16.627
X56.449 Y16.646
X56.439 Y16.663
X56.427 Y16.678
X56.412 Y16.691
X56.394 Y16.7
X56.376 Y16.706
X56.356 Y16.708
X56.337 Y16.706
X56.318 Y16.7
X56.301 Y16.691
X56.286 Y16.678 Z40.17
X56.273 Y16.663
X56.264 Y16.646
X56.258 Y16.627
X56.256 Y16.608
G2 Y16.33 Z40.357 K0.3
G1 Y16.326 Z40.368
Y16.023 Z41.111
Y15.811 Z41.592
Y15.54 Z42.147
Y15.236 Z42.715
Y15.107 Z42.944
Y14.978 Z43.159
Y14.648 Z43.665
Y14.316 Z44.124
Y13.835 Z44.704
Y13.384 Z45.16
Y12.941 Z45.54
Y12.684 Z45.731
Y12.251 Z46.022
Y11.795 Z46.271
Y11.523 Z46.398
Y11.075 Z46.575
Y10.702 Z46.685
Y10.448 Z46.753
Y10.063 Z46.823
Y9.7 Z46.875
Y9.11 Z46.912
Y8.509 Z46.905
Y7.962 Z46.865
Y7.434 Z46.801
Y6.501 Z46.653
Y5.001 Z46.382
Y4.253 Z46.236
Y3.33 Z46.031
Y2.415 Z45.79
Y1.935 Z45.649
Y1.458 Z45.5
Y0.733 Z45.259
Y-0.155 Z44.937
Y-0.648 Z44.752
Y-1.847 Z44.281
Y-3.016 Z43.806
Y-4.02 Z43.381
Y-4.798 Z43.028
Y-5.463 Z42.713
Y-6.308 Z42.29
Y-6.936 Z41.958
Y-7.76 Z41.495
Y-8.877 Z40.844
Y-9.633 Z40.379
Y-10.897 Z39.575
Y-11.489 Z39.182
Y-12.628 Z38.405
Y-13.636 Z37.691
Y-14.373 Z37.15
Y-15.1 Z36.596
Y-15.678 Z36.14
Y-16.248 Z35.673
Y-16.808 Z35.194
Y-17.182 Z34.861
Y-17.701 Z34.37
Y-18.035 Z34.029
Y-18.198 Z33.852
Y-18.471 Z33.534
Y-18.799 Z33.1
Y-19.058 Z32.692
Y-19.269 Z32.299
G2 Y-19.534 Z32.14 J-0.265 K0.141
G1 Y-19.582
X56.255 Y-19.606 Z32.141
X56.252 Y-19.629 Z32.146
X56.247 Y-19.651 Z32.152
X56.24 Y-19.673 Z32.162
X56.232 Y-19.692 Z32.173
X56.222 Y-19.709 Z32.187
X56.21 Y-19.723 Z32.202
X56.198 Y-19.735 Z32.219
X56.184 Y-19.743 Z32.237
X56.17 Y-19.748 Z32.256
X56.156 Y-19.75 Z32.275
X56.142 Y-19.748 Z32.295
X56.128 Y-19.743 Z32.314
X56.115 Y-19.735 Z32.332
X56.102 Y-19.723 Z32.349
X56.091 Y-19.709 Z32.364
X56.081 Y-19.692 Z32.378
X56.072 Y-19.673 Z32.389
X56.065 Y-19.651 Z32.399
X56.06 Y-19.629 Z32.405
X56.057 Y-19.606 Z32.409
X56.056 Y-19.582 Z32.411
G3 Y-19.317 Z32.57 K0.3
G1 Y-19.117 Z32.944
Y-18.86 Z33.349
Y-18.548 Z33.763
Y-18.295 Z34.056
Y-17.968 Z34.402
Y-17.628 Z34.735
Y-17.28 Z35.056
Y-16.744 Z35.523
Y-16.176 Z35.994
Y-15.599 Z36.453
Y-14.895 Z36.993
Y-14.043 Z37.623
Y-13.422 Z38.064
Y-11.792 Z39.184
Y-10.738 Z39.868
Y-9.694 Z40.529
Y-8.634 Z41.163
Y-7.692 Z41.71
Y-6.966 Z42.107
Y-6.314 Z42.449
Y-5.468 Z42.872
Y-4.803 Z43.187
Y-4.131 Z43.487
Y-2.968 Z43.976
Y-1.799 Z44.45
Y-0.649 Z44.899
Y0.315 Z45.25
Y1.036 Z45.498
Y1.711 Z45.716
Y2.417 Z45.927
Y3.217 Z46.14
Y3.819 Z46.281
Y4.282 Z46.379
Y4.858 Z46.491
Y6.657 Z46.811
Y7.177 Z46.89
Y7.672 Z46.96
Y8.169 Z47.009
Y8.505 Z47.031
Y9.073 Z47.039
Y9.466 Z47.018
Y9.844 Z46.985
Y10.348 Z46.903
Y10.855 Z46.773
Y11.103 Z46.697
Y11.471 Z46.555
Y11.708 Z46.454
Y12.279 Z46.146
Y12.736 Z45.835
Y12.978 Z45.65
Y13.408 Z45.28
Y13.777 Z44.908
Y13.99 Z44.674
Y14.357 Z44.224
Y14.641 Z43.829
Y14.98 Z43.312
Y15.311 Z42.754
Y15.507 Z42.38
Y15.822 Z41.742
Y16.05 Z41.235
Y16.138 Z41.025
Y16.33 Z40.545
G3 Y16.608 Z40.357 J0.279 K0.111
G1 Y16.611
X56.055 Y16.632 Z40.358
X56.051 Y16.653 Z40.361
X56.045 Y16.672 Z40.366
X56.037 Y16.69 Z40.374
X56.027 Y16.706 Z40.383
X56.015 Y16.72 Z40.394
X56.002 Y16.731 Z40.406
X55.987 Y16.739 Z40.419
X55.972 Y16.744 Z40.432
X55.956 Y16.746 Z40.447
X55.941 Y16.744 Z40.461
X55.925 Y16.739 Z40.474
X55.911 Y16.731 Z40.487
X55.897 Y16.72 Z40.499
X55.886 Y16.706 Z40.51
X55.875 Y16.69 Z40.519
X55.867 Y16.672 Z40.527
X55.861 Y16.653 Z40.532
X55.857 Y16.632 Z40.535
X55.856 Y16.611 Z40.537
G2 Y16.334 Z40.722 K0.3
G1 Y16.068 Z41.369
Y15.909 Z41.725
Y15.689 Z42.191
Y15.587 Z42.398
Y15.322 Z42.893
Y14.995 Z43.445
Y14.692 Z43.913
Y14.354 Z44.379
Y13.909 Z44.91
Y13.734 Z45.093
Y13.458 Z45.373
Y13.17 Z45.628
Y12.869 Z45.879
Y12.336 Z46.246
Y12.114 Z46.372
Y11.765 Z46.555
Y11.528 Z46.66
Y11.04 Z46.846
Y10.411 Z47.017
Y9.894 Z47.104
Y9.596 Z47.136
Y9.086 Z47.165
Y8.511 Z47.157
Y8.008 Z47.122
Y7.656 Z47.084
Y6.928 Z46.979
Y6.668 Z46.939
Y5.193 Z46.681
Y4.185 Z46.492
Y3.323 Z46.303
Y2.779 Z46.164
Y2.298 Z46.03
Y1.819 Z45.887
Y1.119 Z45.662
Y0.398 Z45.416
Y-0.677 Z45.026
Y-1.831 Z44.586
Y-2.866 Z44.167
Y-4.029 Z43.68
Y-4.728 Z43.373
Y-5.424 Z43.055
Y-6.034 Z42.754
Y-6.897 Z42.306
Y-7.752 Z41.842
Y-8.421 Z41.464
Y-9.409 Z40.877
Y-10.352 Z40.304
Y-11.678 Z39.452
Y-12.467 Z38.928
Y-13.988 Z37.882
Y-14.729 Z37.347
Y-15.414 Z36.836
Y-16.069 Z36.33
Y-16.713 Z35.809
Y-17.344 Z35.271
Y-17.697 Z34.953
Y-18.04 Z34.622
Y-18.208 Z34.45
Y-18.491 Z34.139
Y-18.795 Z33.76
Y-19.037 Z33.409
Y-19.254 Z33.038
Y-19.376 Z32.799
G2 Y-19.643 Z32.635 J-0.267 K0.137
G1 Y-19.754
X55.855 Y-19.774 Z32.636
X55.85 Y-19.793 Z32.638
X55.843 Y-19.81 Z32.642
X55.833 Y-19.826 Z32.647
X55.821 Y-19.84 Z32.653
X55.806 Y-19.851 Z32.66
X55.79 Y-19.86 Z32.668
X55.774 Y-19.865 Z32.677
X55.756 Y-19.866 Z32.685
X55.739 Y-19.865 Z32.694
X55.722 Y-19.86 Z32.703
X55.706 Y-19.851 Z32.711
X55.692 Y-19.84 Z32.718
X55.68 Y-19.826 Z32.724
X55.67 Y-19.81 Z32.729
X55.662 Y-19.793 Z32.733
X55.658 Y-19.774 Z32.735
X55.656 Y-19.754 Z32.736
G3 Y-19.483 Z32.908 K0.3
G1 Y-19.376 Z33.135
Y-19.152 Z33.542
Y-18.877 Z33.956
Y-18.588 Z34.321
Y-18.22 Z34.722
Y-17.745 Z35.18
Y-17.211 Z35.65
Y-16.642 Z36.119
Y-15.897 Z36.704
Y-15.117 Z37.288
Y-14.306 Z37.871
Y-12.95 Z38.804
Y-12.021 Z39.419
Y-11.006 Z40.076
Y-9.977 Z40.709
Y-8.841 Z41.391
Y-7.866 Z41.941
Y-6.988 Z42.419
Y-6.255 Z42.802
Y-5.296 Z43.264
Y-4.626 Z43.568
Y-3.925 Z43.873
Y-3.005 Z44.258
Y-1.856 Z44.714
Y-0.677 Z45.162
Y0.064 Z45.433
Y0.758 Z45.678
Y1.457 Z45.91
Y2.249 Z46.15
Y2.818 Z46.305
Y3.303 Z46.425
Y4.11 Z46.602
Y5.207 Z46.81
Y6.682 Z47.067
Y6.942 Z47.107
Y7.67 Z47.212
Y8.14 Z47.26
Y8.533 Z47.285
Y9.164 Z47.291
Y9.804 Z47.244
Y10.18 Z47.185
Y10.5 Z47.123
Y11.066 Z46.965
Y11.493 Z46.801
Y11.777 Z46.677
Y12.114 Z46.5
Y12.386 Z46.343
Y12.853 Z46.025
Y13.255 Z45.696
Y13.492 Z45.481
Y13.898 Z45.064
Y14.24 Z44.662
Y14.535 Z44.278
Y14.794 Z43.914
Y15.104 Z43.425
Y15.236 Z43.198
Y15.548 Z42.632
Y15.827 Z42.074
Y16.03 Z41.626
Y16.357 Z40.849
G3 Y16.633 Z40.665 J0.277 K0.116
G1 Y16.794
X55.655 Y16.818 Z40.664
X55.651 Y16.842 Z40.659
X55.645 Y16.865 Z40.652
X55.637 Y16.886 Z40.642
X55.627 Y16.904 Z40.63
X55.615 Y16.92 Z40.616
X55.602 Y16.933 Z40.6
X55.587 Y16.943 Z40.582
X55.572 Y16.948 Z40.564
X55.556 Y16.95 Z40.545
X55.541 Y16.948 Z40.526
X55.525 Y16.943 Z40.508
X55.511 Y16.933 Z40.49
X55.497 Y16.92 Z40.474
X55.486 Y16.904 Z40.46
X55.475 Y16.886 Z40.448
X55.467 Y16.865 Z40.438
X55.461 Y16.842 Z40.43
X55.457 Y16.818 Z40.426
X55.456 Y16.794 Z40.425
G2 Y16.515 Z40.614 K0.3
G1 Y16.23 Z41.332
Y15.901 Z42.085
Y15.705 Z42.485
Y15.589 Z42.714
Y15.289 Z43.264
Y15.008 Z43.734
Y14.74 Z44.139
Y14.276 Z44.762
Y13.941 Z45.158
Y13.572 Z45.539
Y13.305 Z45.786
Y12.918 Z46.105
Y12.711 Z46.253
Y12.395 Z46.466
Y12.128 Z46.621
Y11.734 Z46.826
Y11.388 Z46.97
Y11.02 Z47.108
Y10.516 Z47.246
Y10.261 Z47.299
Y9.742 Z47.378
Y9.219 Z47.415
Y8.539 Z47.411
Y7.963 Z47.369
Y7.493 Z47.315
Y6.622 Z47.182
Y5.148 Z46.925
Y4.166 Z46.74
Y3.678 Z46.636
Y2.988 Z46.473
Y2.505 Z46.347
Y1.797 Z46.144
Y1.048 Z45.91
Y0.398 Z45.69
Y-0.676 Z45.299
Y-1.94 Z44.818
Y-3.113 Z44.354
Y-4.012 Z43.985
Y-4.711 Z43.678
Y-5.356 Z43.385
Y-5.996 Z43.079
Y-6.831 Z42.662
Y-7.515 Z42.296
Y-8.388 Z41.811
Y-9.459 Z41.196
Y-10.492 Z40.569
Y-11.642 Z39.856
Y-13.455 Z38.664
Y-14.45 Z37.978
Y-15.052 Z37.554
Y-15.625 Z37.137
Y-16.424 Z36.533
Y-17.092 Z36.001
Y-17.725 Z35.462
Y-18.203 Z35.014
Y-18.573 Z34.624
Y-18.877 Z34.251
Y-19.157 Z33.841
Y-19.377 Z33.451
Y-19.539 Z33.112
G2 Y-19.81 Z32.941 J-0.271 K0.129
G1 Y-19.848
X55.455 Y-19.871 Z32.942
X55.451 Y-19.895 Z32.947
X55.445 Y-19.917 Z32.954
X55.437 Y-19.937 Z32.963
X55.427 Y-19.955 Z32.975
X55.415 Y-19.971 Z32.988
X55.402 Y-19.983 Z33.004
X55.387 Y-19.993 Z33.021
X55.372 Y-19.998 Z33.038
X55.356 Y-20. Z33.056
X55.341 Y-19.998 Z33.074
X55.325 Y-19.993 Z33.092
X55.311 Y-19.983 Z33.108
X55.297 Y-19.971 Z33.124
X55.286 Y-19.955 Z33.137
X55.275 Y-19.937 Z33.149
X55.267 Y-19.917 Z33.159
X55.261 Y-19.895 Z33.166
X55.257 Y-19.871 Z33.17
X55.256 Y-19.848 Z33.171
G3 Y-19.576 Z33.343 K0.3
G1 Y-19.442 Z33.627
Y-19.245 Z33.989
Y-19.023 Z34.333
Y-18.775 Z34.661
Y-18.436 Z35.044
Y-18.008 Z35.462
Y-17.517 Z35.893
Y-16.965 Z36.344
Y-16.31 Z36.85
Y-15.515 Z37.437
Y-14.081 Z38.441
Y-12.69 Z39.36
Y-11.873 Z39.888
Y-10.295 Z40.866
Y-9.54 Z41.311
Y-8.493 Z41.913
Y-7.666 Z42.373
Y-6.804 Z42.824
Y-6.146 Z43.154
Y-5.483 Z43.474
Y-4.73 Z43.818
Y-3.919 Z44.164
Y-2.994 Z44.539
Y-1.795 Z45.011
Y-0.752 Z45.408
Y0.052 Z45.697
Y0.748 Z45.936
Y1.474 Z46.171
Y1.953 Z46.316
Y2.294 Z46.414
Y3.208 Z46.653
Y4.015 Z46.834
Y4.995 Z47.023
Y6.47 Z47.282
Y7.403 Z47.425
Y7.991 Z47.493
Y8.58 Z47.534
Y9.247
Y9.641 Z47.507
Y9.901 Z47.478
Y10.417 Z47.393
Y11.023 Z47.234
Y11.33 Z47.12
Y11.737 Z46.953
Y12.131 Z46.747
Y12.398 Z46.592
Y12.714 Z46.38
Y12.921 Z46.232
Y13.306 Z45.915
Y13.494 Z45.746
Y13.94 Z45.297
Y14.348 Z44.814
Y14.734 Z44.292
Y15.02 Z43.86
Y15.273 Z43.446
Y15.571 Z42.905
Y15.835 Z42.381
Y15.945 Z42.149
Y16.156 Z41.683
Y16.256 Z41.44
Y16.546 Z40.706
G3 Y16.825 Z40.516 J0.279 K0.11
G1 Y16.829
X55.255 Y16.852 Z40.518
X55.25 Y16.874 Z40.521
X55.243 Y16.894 Z40.527
X55.233 Y16.912 Z40.535
X55.221 Y16.928 Z40.546
X55.206 Y16.941 Z40.557
X55.19 Y16.951 Z40.57
X55.174 Y16.957 Z40.584
X55.156 Y16.958 Z40.598
X55.139 Y16.957 Z40.612
X55.122 Y16.951 Z40.626
X55.106 Y16.941 Z40.639
X55.092 Y16.928 Z40.65
X55.08 Y16.912 Z40.66
X55.07 Y16.894 Z40.668
X55.062 Y16.874 Z40.674
X55.058 Y16.852 Z40.678
X55.056 Y16.829 Z40.679
G2 Y16.551 Z40.869 K0.3
G1 Y16.259 Z41.603
Y16.156 Z41.845
Y15.942 Z42.314
Y15.727 Z42.757
Y15.487 Z43.215
Y15.228 Z43.665
Y14.955 Z44.101
Y14.738 Z44.429
Y14.352 Z44.949
Y13.973 Z45.39
Y13.752 Z45.621
Y13.377 Z45.984
Y12.989 Z46.307
Y12.741 Z46.49
Y12.334 Z46.761
Y11.907 Z46.99
Y11.673 Z47.105
Y11.064 Z47.337
Y10.814 Z47.408
Y10.432 Z47.505
Y9.786 Z47.609
Y9.132 Z47.653
Y8.531 Z47.646
Y7.993 Z47.609
Y7.496 Z47.553
Y6.626 Z47.424
Y5.007 Z47.148
Y4.078 Z46.973
Y3.59 Z46.867
Y2.9 Z46.703
Y2.189 Z46.509
Y1.709 Z46.368
Y1.007 Z46.147
Y0.335 Z45.921
Y-0.632 Z45.58
Y-1.79 Z45.15
Y-2.988 Z44.678
Y-3.913 Z44.303
Y-4.617 Z44.006
Y-5.369 Z43.674
Y-5.957 Z43.396
Y-6.616 Z43.068
Y-7.479 Z42.622
Y-8.595 Z42.017
Y-9.772 Z41.338
Y-10.858 Z40.695
Y-12.106 Z39.917
Y-12.971 Z39.365
Y-14.432 Z38.4
Y-15.261 Z37.823
Y-16.125 Z37.208
Y-16.812 Z36.693
Y-17.415 Z36.218
Y-18.001 Z35.718
Y-18.388 Z35.351
Y-18.673 Z35.046
Y-18.949 Z34.708
Y-19.168 Z34.396
Y-19.386 Z34.029
Y-19.589 Z33.615
Y-19.596 Z33.601
G2 Y-19.871 Z33.421 J-0.275 K0.12
G1 Y-19.899
X55.055 Y-19.923 Z33.423
X55.051 Y-19.945 Z33.427
X55.045 Y-19.967 Z33.433
X55.037 Y-19.987 Z33.443
X55.027 Y-20.005 Z33.454
X55.015 Y-20.021 Z33.467
X55.002 Y-20.033 Z33.482
X54.987 Y-20.042 Z33.499
X54.972 Y-20.047 Z33.516
X54.956 Y-20.049 Z33.533
X54.941 Y-20.047 Z33.551
X54.925 Y-20.042 Z33.568
X54.911 Y-20.033 Z33.584
X54.897 Y-20.021 Z33.599
X54.886 Y-20.005 Z33.612
X54.875 Y-19.987 Z33.624
X54.867 Y-19.967 Z33.633
X54.861 Y-19.945 Z33.64
X54.857 Y-19.923 Z33.644
X54.856 Y-19.899 Z33.645
G3 Y-19.624 Z33.825 K0.3
G1 Y-19.59 Z33.902
Y-19.384 Z34.311
Y-19.161 Z34.677
Y-18.909 Z35.023
Y-18.633 Z35.346
Y-18.294 Z35.69
Y-17.881 Z36.063
Y-17.346 Z36.503
Y-16.856 Z36.881
Y-16.455 Z37.181
Y-15.449 Z37.897
Y-14.843 Z38.316
Y-13.442 Z39.245
Y-11.572 Z40.428
Y-10.652 Z40.981
Y-9.36 Z41.739
Y-8.718 Z42.1
Y-7.864 Z42.565
Y-6.98 Z43.031
Y-6.241 Z43.403
Y-5.468 Z43.766
Y-4.77 Z44.076
Y-3.9 Z44.445
Y-2.95 Z44.83
Y-1.823 Z45.265
Y-0.615 Z45.712
Y0.352 Z46.053
Y1.025 Z46.278
Y1.727 Z46.498
Y2.206 Z46.639
Y3.007 Z46.853
Y3.609 Z46.992
Y4.098 Z47.094
Y5.022 Z47.266
Y6.646 Z47.542
Y7.517 Z47.67
Y8.013 Z47.725
Y8.518 Z47.76
Y9.021 Z47.768
Y9.283 Z47.762
Y9.545 Z47.744
Y9.871 Z47.714
Y10.452 Z47.617
Y10.834 Z47.519
Y11.083 Z47.447
Y11.304 Z47.366
Y11.667 Z47.224
Y12.019 Z47.05
Y12.359 Z46.866
Y12.688 Z46.651
Y12.899 Z46.507
Y13.304 Z46.176
Y13.492 Z46.007
Y13.949 Z45.548
Y14.288 Z45.157
Y14.669 Z44.665
Y15.03 Z44.132
Y15.3 Z43.689
Y15.602 Z43.15
Y15.842 Z42.683
Y15.952 Z42.451
Y16.165 Z41.981
Y16.269 Z41.74
Y16.554 Z41.033
G3 Y16.833 Z40.845 J0.278 K0.112
G1 Y16.856
X54.855 Y16.876 Z40.846
X54.85 Y16.895 Z40.848
X54.843 Y16.913 Z40.852
X54.833 Y16.929 Z40.857
X54.821 Y16.943 Z40.864
X54.806 Y16.954 Z40.872
X54.79 Y16.962 Z40.88
X54.774 Y16.968 Z40.889
X54.756 Y16.969 Z40.899
X54.739 Y16.968 Z40.908
X54.722 Y16.962 Z40.917
X54.706 Y16.954 Z40.925
X54.692 Y16.943 Z40.933
X54.68 Y16.929 Z40.94
X54.67 Y16.913 Z40.945
X54.662 Y16.895 Z40.949
X54.658 Y16.876 Z40.951
X54.656 Y16.856 Z40.952
G2 Y16.578 Z41.139 K0.3
G1 Y16.258 Z41.924
Y16.155 Z42.166
Y15.952 Z42.607
Y15.731 Z43.048
Y15.371 Z43.712
Y15.019 Z44.289
Y14.746 Z44.691
Y14.354 Z45.208
Y13.931 Z45.697
Y13.473 Z46.155
Y13.282 Z46.319
Y12.975 Z46.567
Y12.766 Z46.717
Y12.385 Z46.967
Y12.104 Z47.123
Y11.755 Z47.301
Y11.517 Z47.401
Y11.161 Z47.536
