%
O00004001
(T1  D=6. CR=3. - ZMIN=28.545 - BALL END MILL)
G90 G94 G17
G21
G91
G28 Z0.
G90
(??????3)
T1 M6
S15000 M3
G54
G0 X-14.656 Y-1.653
G43 Z48.87 H1
G0 Z35.869
G1 Z34.469 F1440.
X-14.654 Y-1.66 Z34.375
X-14.651 Y-1.682 Z34.283
X-14.645 Y-1.717 Z34.196
X-14.637 Y-1.766 Z34.116
X-14.627 Y-1.826 Z34.044
X-14.615 Y-1.897 Z33.983
X-14.602 Y-1.976 Z33.934
X-14.588 Y-2.061 Z33.898
X-14.573 Y-2.152 Z33.876
X-14.558 Y-2.244 Z33.869
X-14.513 Y-2.517
X-14.472 Y-2.736
X-14.429 Y-2.955
X-14.383 Y-3.174
X-14.333 Y-3.393
X-14.281 Y-3.611
X-14.224 Y-3.83
X-14.12 Y-4.19
X-14.027 Y-4.487
X-13.901 Y-4.86
X-13.8 Y-5.144
X-13.682 Y-5.457
X-13.632 Y-5.581
X-13.54 Y-5.8
X-13.444 Y-6.019
X-13.345 Y-6.238
X-13.241 Y-6.457
X-13.13 Y-6.676
X-13.016 Y-6.895
X-12.899 Y-7.114
X-12.806 Y-7.281
X-12.648 Y-7.551
X-12.513 Y-7.77
X-12.368 Y-7.999
X-12.23 Y-8.208
X-12.08 Y-8.427
X-11.928 Y-8.646
X-11.768 Y-8.865
X-11.597 Y-9.084
X-11.42 Y-9.303
X-11.236 Y-9.521
X-11.045 Y-9.74
X-10.836 Y-9.972
X-10.617 Y-10.206
X-10.398 Y-10.43
X-10.179 Y-10.645
X-9.96 Y-10.856
X-9.74 Y-11.054
X-9.482 Y-11.273
X-9.214 Y-11.491
X-8.934 Y-11.71
X-8.64 Y-11.929
X-8.335 Y-12.148
X-8.209 Y-12.232
X-7.99 Y-12.373
X-7.647 Y-12.586
X-7.278 Y-12.805
X-7.114 Y-12.898
X-6.882 Y-13.024
X-6.457 Y-13.239
X-6.239 Y-13.343
X-5.977 Y-13.461
X-5.582 Y-13.63
X-5.363 Y-13.72
X-5.144 Y-13.804
X-4.878 Y-13.899
X-4.487 Y-14.028
X-4.194 Y-14.118
X-3.83 Y-14.223
X-3.611 Y-14.281
X-3.382 Y-14.337
X-3.174 Y-14.384
X-2.955 Y-14.431
X-2.736 Y-14.474
X-2.517 Y-14.514
X-2.264 Y-14.556
X-2.079 Y-14.583
X-1.86 Y-14.612
X-1.641 Y-14.638
X-1.422 Y-14.661
X-1.203 Y-14.679
X-0.984 Y-14.696
X-0.765 Y-14.709
X-0.546 Y-14.72
X-0.328 Y-14.726
X-0.109 Y-14.73
X0.329 Y-14.728
X0.548 Y-14.722
X0.767 Y-14.712
X0.986 Y-14.698
X1.424 Y-14.662
X1.643 Y-14.639
X1.862 Y-14.612
X2.081 Y-14.582
X2.3 Y-14.549
X2.518 Y-14.513
X2.737 Y-14.473
X2.956 Y-14.429
X3.175 Y-14.381
X3.613 Y-14.277
X3.832 Y-14.221
X4.051 Y-14.16
X4.27 Y-14.095
X4.489 Y-14.027
X4.708 Y-13.956
X4.927 Y-13.882
X5.146 Y-13.803
X5.463 Y-13.68
X5.583 Y-13.631
X6.021 Y-13.444
X6.24 Y-13.343
X6.459 Y-13.239
X6.678 Y-13.13
X6.897 Y-13.016
X7.116 Y-12.898
X7.335 Y-12.773
X7.554 Y-12.645
X7.773 Y-12.511
X8. Y-12.367
X8.211 Y-12.229
X8.331 Y-12.148
X8.648 Y-11.921
X8.93 Y-11.71
X9.209 Y-11.491
X9.524 Y-11.234
X9.743 Y-11.049
X9.984 Y-10.835
X10.212 Y-10.616
X10.433 Y-10.397
X10.646 Y-10.178
X10.849 Y-9.959
X11.057 Y-9.729
X11.276 Y-9.477
X11.494 Y-9.213
X11.713 Y-8.937
X11.769 Y-8.865
X11.932 Y-8.64
X12.231 Y-8.208
X12.376 Y-7.989
X12.589 Y-7.65
X12.778 Y-7.333
X12.9 Y-7.114
X13.027 Y-6.879
X13.133 Y-6.676
X13.246 Y-6.448
X13.346 Y-6.238
X13.465 Y-5.974
X13.541 Y-5.8
X13.634 Y-5.581
X13.72 Y-5.363
X13.802 Y-5.144
X13.903 Y-4.862
X13.956 Y-4.706
X14.029 Y-4.487
X14.122 Y-4.19
X14.225 Y-3.83
X14.282 Y-3.611
X14.34 Y-3.363
X14.428 Y-2.955
X14.472 Y-2.736
X14.512 Y-2.517
X14.559 Y-2.222
X14.608 Y-1.86
X14.635 Y-1.641
X14.659 Y-1.423
X14.681 Y-1.204
X14.699 Y-0.985
X14.713 Y-0.766
X14.722 Y-0.547
X14.732 Y-0.109
Y0.11
X14.722 Y0.547
X14.712 Y0.766
X14.697 Y0.985
X14.68 Y1.204
X14.659 Y1.423
X14.636 Y1.642
X14.61 Y1.861
X14.559 Y2.232
X14.514 Y2.517
X14.474 Y2.736
X14.43 Y2.955
X14.384 Y3.174
X14.282 Y3.612
X14.224 Y3.831
X14.122 Y4.187
X14.028 Y4.487
X13.903 Y4.86
X13.801 Y5.144
X13.684 Y5.455
X13.632 Y5.582
X13.54 Y5.801
X13.444 Y6.02
X13.344 Y6.238
X13.239 Y6.457
X13.13 Y6.676
X13.017 Y6.895
X12.9 Y7.114
X12.808 Y7.281
X12.649 Y7.552
X12.514 Y7.771
X12.37 Y7.998
X12.231 Y8.208
X12.08 Y8.427
X11.926 Y8.646
X11.765 Y8.865
X11.594 Y9.084
X11.417 Y9.303
X11.235 Y9.522
X11.045 Y9.741
X10.838 Y9.971
X10.619 Y10.205
X10.4 Y10.43
X10.181 Y10.646
X9.962 Y10.854
X9.737 Y11.054
X9.479 Y11.273
X9.21 Y11.492
X8.93 Y11.711
X8.636 Y11.93
X8.328 Y12.148
X8.211 Y12.228
X7.992 Y12.371
X7.773 Y12.509
X7.554 Y12.643
X7.277 Y12.805
X7.116 Y12.896
X6.881 Y13.024
X6.447 Y13.243
X6.24 Y13.342
X5.978 Y13.462
X5.802 Y13.539
X5.462 Y13.681
X5.146 Y13.804
X4.874 Y13.9
X4.489 Y14.026
X4.193 Y14.118
X4.051 Y14.16
X3.832 Y14.222
X3.613 Y14.279
X3.372 Y14.337
X3.175 Y14.382
X2.956 Y14.427
X2.737 Y14.471
X2.518 Y14.512
X2.255 Y14.556
X2.081 Y14.582
X1.862 Y14.611
X1.643 Y14.638
X1.424 Y14.662
X0.986 Y14.698
X0.767 Y14.711
X0.548 Y14.72
X0.329 Y14.727
X-0.109 Y14.729
X-0.328 Y14.728
X-0.546 Y14.721
X-0.984 Y14.699
X-1.203 Y14.683
X-1.422 Y14.662
X-1.641 Y14.638
X-1.86 Y14.609
X-2.236 Y14.556
X-2.517 Y14.511
X-2.736 Y14.471
X-2.955 Y14.429
X-3.174 Y14.382
X-3.393 Y14.332
X-3.611 Y14.28
X-3.83 Y14.223
X-4.049 Y14.161
X-4.268 Y14.095
X-4.487 Y14.027
X-4.706 Y13.956
X-4.925 Y13.882
X-5.144 Y13.802
X-5.456 Y13.681
X-5.801 Y13.537
X-6.02 Y13.442
X-6.239 Y13.342
X-6.457 Y13.238
X-6.676 Y13.128
X-6.895 Y13.016
X-7.114 Y12.897
X-7.333 Y12.773
X-7.649 Y12.586
X-7.99 Y12.373
X-8.209 Y12.231
X-8.332 Y12.148
X-8.647 Y11.925
X-8.933 Y11.711
X-9.211 Y11.492
X-9.522 Y11.236
X-9.741 Y11.049
X-9.98 Y10.835
X-10.211 Y10.616
X-10.433 Y10.397
X-10.645 Y10.178
X-10.848 Y9.96
X-11.055 Y9.731
X-11.274 Y9.478
X-11.493 Y9.214
X-11.712 Y8.937
X-11.767 Y8.865
X-11.931 Y8.641
X-12.23 Y8.208
X-12.376 Y7.99
X-12.514 Y7.771
X-12.648 Y7.552
X-12.806 Y7.28
X-12.898 Y7.114
X-13.025 Y6.876
X-13.238 Y6.457
X-13.343 Y6.238
X-13.463 Y5.973
X-13.63 Y5.582
X-13.718 Y5.363
X-13.8 Y5.144
X-13.901 Y4.863
X-13.955 Y4.706
X-14.028 Y4.487
X-14.12 Y4.191
X-14.224 Y3.831
X-14.282 Y3.612
X-14.339 Y3.373
X-14.384 Y3.174
X-14.431 Y2.955
X-14.474 Y2.736
X-14.515 Y2.517
X-14.558 Y2.246
X-14.61 Y1.861
X-14.637 Y1.642
X-14.661 Y1.423
X-14.682 Y1.204
X-14.699 Y0.985
X-14.713 Y0.766
X-14.723 Y0.547
X-14.731 Y0.11
X-14.732 Y-0.109
X-14.719 Y-0.547
X-14.711 Y-0.766
X-14.697 Y-0.985
X-14.662 Y-1.423
X-14.639 Y-1.641
X-14.612 Y-1.86
X-14.582 Y-2.079
X-14.558 Y-2.244
X-14.529 Y-2.38
X-14.489 Y-2.513 Z33.868
X-14.44 Y-2.643 Z33.867
X-14.383 Y-2.77 Z33.866
X-14.32 Y-2.895 Z33.864
X-14.252 Y-3.017 Z33.861
X-14.18 Y-3.137 Z33.857
X-13.956 Y-3.496 Z33.841
X-13.882 Y-3.616 Z33.835
X-13.811 Y-3.738 Z33.829
X-13.744 Y-3.862 Z33.824
X-13.682 Y-3.989 Z33.819
X-13.627 Y-4.118 Z33.816
X-13.58 Y-4.251 Z33.815
X-13.463 Y-4.605
X-13.351 Y-4.925
X-13.244 Y-5.211
X-13.184 Y-5.363 Z33.816
X-13.092 Y-5.581
X-12.997 Y-5.8
X-12.898 Y-6.019
X-12.794 Y-6.238
X-12.684 Y-6.457
X-12.569 Y-6.676
X-12.452 Y-6.895
X-12.368 Y-7.045
X-12.199 Y-7.333
X-12.064 Y-7.551 Z33.815
X-11.924 Y-7.77
X-11.778 Y-7.989
X-11.627 Y-8.208 Z33.816
X-11.472 Y-8.427
X-11.309 Y-8.646
X-11.135 Y-8.865
X-10.955 Y-9.084 Z33.815
X-10.836 Y-9.224
X-10.573 Y-9.521
X-10.373 Y-9.74
X-10.163 Y-9.959
X-9.946 Y-10.178
X-9.721 Y-10.397 Z33.816
X-9.483 Y-10.616
X-9.23 Y-10.835
X-8.965 Y-11.054
X-8.688 Y-11.273
X-8.396 Y-11.491
X-8.092 Y-11.71
X-7.99 Y-11.78
X-7.761 Y-11.929
X-7.41 Y-12.148 Z33.815
X-7.042 Y-12.367 Z33.816
X-6.895 Y-12.45
X-6.646 Y-12.586
X-6.239 Y-12.793
X-6.02 Y-12.896
X-5.736 Y-13.024 Z33.815
X-5.363 Y-13.183 Z33.816
X-5.144 Y-13.271
X-4.925 Y-13.355
X-4.706 Y-13.433
X-4.268 Y-13.575 Z33.815
X-3.922 Y-13.68 Z33.816
X-3.611 Y-13.766
X-3.393 Y-13.823
X-3.065 Y-13.899
X-2.736 Y-13.967
X-2.517 Y-14.009
X-2.298 Y-14.046
X-2.079 Y-14.081
X-1.805 Y-14.118
X-1.422 Y-14.161
X-1.203 Y-14.18 Z33.815
X-0.984 Y-14.197 Z33.816
X-0.765 Y-14.211
X-0.546 Y-14.222
X-0.328 Y-14.229
X-0.109 Y-14.233
X0.329 Y-14.231
X0.548 Y-14.224
X0.767 Y-14.214
X0.986 Y-14.199
X1.205 Y-14.182
X1.424 Y-14.162
X1.643 Y-14.138
X1.862 Y-14.11
X2.081 Y-14.079
X2.3 Y-14.045
X2.518 Y-14.007
X2.737 Y-13.966
X3.052 Y-13.899 Z33.815
X3.394 Y-13.819
X3.613 Y-13.764
X3.921 Y-13.68
X4.27 Y-13.575 Z33.816
X4.618 Y-13.461
X4.927 Y-13.354
X5.217 Y-13.243
X5.365 Y-13.183
X5.741 Y-13.024
X5.802 Y-12.997
X6.021 Y-12.897
X6.24 Y-12.792
X6.459 Y-12.684
X6.678 Y-12.569
X6.897 Y-12.451
X7.335 Y-12.196 Z33.815
X7.554 Y-12.061 Z33.816
X7.773 Y-11.922 Z33.815
X7.992 Y-11.777 Z33.816
X8.089 Y-11.71
X8.429 Y-11.465 Z33.815
X8.683 Y-11.273
X8.96 Y-11.054
X9.227 Y-10.835 Z33.816
X9.524 Y-10.579
X9.743 Y-10.377
X9.962 Y-10.164
X10.181 Y-9.944 Z33.815
X10.4 Y-9.713
X10.619 Y-9.473
X10.838 Y-9.223
X11.057 Y-8.963 Z33.816
X11.137 Y-8.865
X11.31 Y-8.646
X11.494 Y-8.396
X11.779 Y-7.989
X11.932 Y-7.759
X12.065 Y-7.551
X12.2 Y-7.333
X12.37 Y-7.044
X12.589 Y-6.643
X12.686 Y-6.457
X12.808 Y-6.211
X12.899 Y-6.019
X13.027 Y-5.735
X13.094 Y-5.581
X13.186 Y-5.363
X13.271 Y-5.144
X13.352 Y-4.925
X13.465 Y-4.607 Z33.815
X13.577 Y-4.268 Z33.816
X13.645 Y-4.049
X13.708 Y-3.83
X13.768 Y-3.611
X13.823 Y-3.393
X13.903 Y-3.04 Z33.815
X13.965 Y-2.736
X14.007 Y-2.517
X14.044 Y-2.298 Z33.816
X14.077 Y-2.079 Z33.815
X14.122 Y-1.745
X14.159 Y-1.423
X14.181 Y-1.204 Z33.816
X14.2 Y-0.985
X14.214 Y-0.766
X14.225 Y-0.547
X14.235 Y-0.109
Y0.11
X14.224 Y0.547
X14.213 Y0.766
X14.198 Y0.985
X14.18 Y1.204 Z33.815
X14.159 Y1.423 Z33.816
X14.122 Y1.76 Z33.815
X14.079 Y2.08 Z33.816
X14.046 Y2.298
X14.009 Y2.517
X13.967 Y2.736
X13.903 Y3.047
X13.823 Y3.393
X13.768 Y3.612
X13.684 Y3.914
X13.644 Y4.05 Z33.815
X13.576 Y4.268
X13.465 Y4.605
X13.352 Y4.925
X13.246 Y5.209 Z33.816
X13.185 Y5.363
X13.093 Y5.582
X12.997 Y5.801
X12.897 Y6.02
X12.793 Y6.238
X12.684 Y6.457
X12.57 Y6.676
X12.453 Y6.895
X12.37 Y7.045
X12.2 Y7.333
X12.065 Y7.552
X11.924 Y7.771
X11.778 Y7.99 Z33.815
X11.626 Y8.208
X11.47 Y8.427 Z33.816
X11.276 Y8.685 Z33.815
X11.057 Y8.959
X10.838 Y9.222
X10.573 Y9.522
X10.373 Y9.741
X10.165 Y9.96
X9.948 Y10.178
X9.721 Y10.397 Z33.816
X9.481 Y10.616
X9.227 Y10.835 Z33.815
X8.962 Y11.054
X8.648 Y11.3
X8.392 Y11.492
X8.086 Y11.711
X7.992 Y11.776
X7.759 Y11.93
X7.411 Y12.148
X7.041 Y12.367
X6.897 Y12.449
X6.645 Y12.586
X6.459 Y12.681
X6.21 Y12.805
X6.021 Y12.896 Z33.816
X5.739 Y13.024
X5.583 Y13.091 Z33.815
X5.365 Y13.183 Z33.816
X5.146 Y13.271
X4.927 Y13.354
X4.708 Y13.431
X4.27 Y13.574 Z33.815
X4.051 Y13.642
X3.832 Y13.705
X3.613 Y13.765 Z33.816
X3.394 Y13.821
X3.053 Y13.9 Z33.815
X2.737 Y13.964
X2.518 Y14.006
X2.3 Y14.044 Z33.816
X2.081 Y14.079
X1.799 Y14.118
X1.424 Y14.162
X1.205 Y14.182
X0.986 Y14.199
X0.767 Y14.213
X0.548 Y14.223
X0.329 Y14.229
X-0.109 Y14.232
X-0.328 Y14.231
X-0.546 Y14.223
X-0.984 Y14.201
X-1.203 Y14.184
X-1.422 Y14.162
X-1.781 Y14.118
X-2.079 Y14.077 Z33.815
X-2.298 Y14.043
X-2.517 Y14.006
X-2.736 Y13.965
X-3.055 Y13.9 Z33.816
X-3.393 Y13.821 Z33.815
X-3.611 Y13.766
X-3.921 Y13.681
X-4.268 Y13.574
X-4.616 Y13.462
X-4.706 Y13.431
X-4.925 Y13.353
X-5.211 Y13.243
X-5.363 Y13.182
X-5.735 Y13.024
X-6.02 Y12.896
X-6.239 Y12.791
X-6.457 Y12.682
X-6.676 Y12.569
X-6.895 Y12.449
X-7.114 Y12.325
X-7.412 Y12.148
X-7.552 Y12.062
X-7.771 Y11.922
X-7.99 Y11.779 Z33.816
X-8.09 Y11.711
X-8.428 Y11.468 Z33.815
X-8.686 Y11.273
X-8.962 Y11.054
X-9.226 Y10.835
X-9.522 Y10.578 Z33.816
X-9.741 Y10.376
X-9.96 Y10.166 Z33.815
X-10.179 Y9.945
X-10.398 Y9.714
X-10.617 Y9.474
X-10.836 Y9.225
X-11.055 Y8.963
X-11.135 Y8.865 Z33.816
X-11.308 Y8.646
X-11.493 Y8.397
X-11.712 Y8.086 Z33.815
X-11.931 Y7.762 Z33.816
X-12.15 Y7.415
X-12.368 Y7.044
X-12.451 Y6.895
X-12.587 Y6.64 Z33.815
X-12.682 Y6.457
X-12.806 Y6.209
X-12.897 Y6.02 Z33.816
X-13.025 Y5.734 Z33.815
X-13.183 Y5.363
X-13.269 Y5.144
X-13.35 Y4.925
X-13.463 Y4.608
X-13.575 Y4.268
X-13.643 Y4.05
X-13.707 Y3.831 Z33.816
X-13.768 Y3.612
X-13.823 Y3.393
X-13.901 Y3.056
X-13.967 Y2.736
X-14.009 Y2.517
X-14.046 Y2.298
X-14.079 Y2.08
X-14.12 Y1.778
X-14.161 Y1.423
X-14.182 Y1.204
X-14.2 Y0.985
X-14.215 Y0.766 Z33.817
X-14.225 Y0.547 Z33.816
X-14.234 Y0.11
Y-0.109
X-14.222 Y-0.547
X-14.212 Y-0.766
X-14.198 Y-0.985
X-14.181 Y-1.204
X-14.162 Y-1.423
X-14.12 Y-1.794
X-14.08 Y-2.079
X-14.045 Y-2.298
X-14.007 Y-2.517
X-13.965 Y-2.736
X-13.901 Y-3.048 Z33.815
X-13.822 Y-3.393 Z33.816
X-13.767 Y-3.611
X-13.682 Y-3.918 Z33.815
X-13.643 Y-4.049
X-13.58 Y-4.251
X-13.533 Y-4.381 Z33.814
X-13.475 Y-4.507 Z33.811
X-13.409 Y-4.629 Z33.806
X-13.335 Y-4.747 Z33.8
X-13.256 Y-4.861 Z33.791
X-13.172 Y-4.973 Z33.782
X-13.085 Y-5.082 Z33.771
X-12.722 Y-5.512 Z33.725
X-12.634 Y-5.623 Z33.713
X-12.549 Y-5.735 Z33.703
X-12.468 Y-5.85 Z33.695
X-12.394 Y-5.969 Z33.69
X-12.326 Y-6.093 Z33.688
X-12.253 Y-6.238 Z33.687
X-12.138 Y-6.457
X-12.02 Y-6.676 Z33.688
X-11.931 Y-6.836
X-11.766 Y-7.114 Z33.687
X-11.63 Y-7.333
X-11.489 Y-7.551
X-11.343 Y-7.77
X-11.19 Y-7.989
X-11.032 Y-8.208 Z33.688
X-10.836 Y-8.465
X-10.617 Y-8.735 Z33.687
X-10.508 Y-8.865
X-10.316 Y-9.084 Z33.686
X-10.119 Y-9.303
X-9.914 Y-9.521
X-9.7 Y-9.74
X-9.477 Y-9.959 Z33.688
X-9.246 Y-10.178
X-8.999 Y-10.397
X-8.737 Y-10.616
X-8.647 Y-10.69 Z33.687
X-8.428 Y-10.862 Z33.688
X-8.175 Y-11.054 Z33.687
X-7.874 Y-11.273 Z33.688
X-7.771 Y-11.345
X-7.547 Y-11.491
X-7.333 Y-11.627 Z33.686
X-7.114 Y-11.762 Z33.687
X-6.833 Y-11.929
X-6.676 Y-12.019 Z33.688
X-6.441 Y-12.148
X-6.02 Y-12.362 Z33.687
X-5.801 Y-12.465 Z33.688
X-5.532 Y-12.586 Z33.687
X-5.144 Y-12.75
X-4.925 Y-12.837 Z33.688
X-4.706 Y-12.92
X-4.404 Y-13.024
X-4.049 Y-13.137 Z33.687
X-3.83 Y-13.203
X-3.611 Y-13.265
X-3.393 Y-13.324 Z33.688
X-3.174 Y-13.378 Z33.687
X-2.955 Y-13.429 Z33.688
X-2.736 Y-13.474 Z33.687
X-2.517 Y-13.517 Z33.688
X-2.298 Y-13.556
X-2.079 Y-13.592
X-1.86 Y-13.623
X-1.641 Y-13.651 Z33.687
X-1.373 Y-13.68 Z33.688
X-1.203 Y-13.695 Z33.687
X-0.984 Y-13.712
X-0.765 Y-13.727
X-0.546 Y-13.738 Z33.688
X-0.328 Y-13.745
X-0.109 Y-13.749
X0.329 Y-13.747
X0.548 Y-13.74 Z33.689
X0.767 Y-13.729 Z33.688
X0.986 Y-13.714
X1.386 Y-13.68
X1.643 Y-13.651
X1.862 Y-13.622 Z33.687
X2.081 Y-13.59 Z33.688
X2.3 Y-13.555 Z33.687
X2.518 Y-13.515 Z33.688
X2.789 Y-13.461 Z33.687
X2.956 Y-13.425
X3.175 Y-13.374
X3.394 Y-13.321
X3.691 Y-13.243
X3.832 Y-13.203
X4.051 Y-13.137
X4.404 Y-13.024
X4.708 Y-12.919 Z33.688
X5.01 Y-12.805
X5.146 Y-12.751
X5.365 Y-12.66
X5.583 Y-12.565
X5.802 Y-12.466
X6.021 Y-12.361
X6.24 Y-12.253
X6.459 Y-12.139
X6.678 Y-12.02
X7.116 Y-11.764 Z33.687
X7.335 Y-11.627
X7.554 Y-11.487
X7.773 Y-11.342 Z33.688
X7.992 Y-11.186 Z33.687
X8.211 Y-11.024
X8.458 Y-10.835
X8.732 Y-10.616 Z33.686
X8.996 Y-10.397 Z33.688
X9.086 Y-10.32
X9.246 Y-10.178
X9.524 Y-9.916 Z33.687
X9.743 Y-9.7
X9.962 Y-9.473
X10.181 Y-9.236 Z33.686
X10.4 Y-8.99 Z33.687
X10.508 Y-8.865
X10.691 Y-8.646 Z33.688
X10.867 Y-8.427
X11.057 Y-8.176 Z33.689
X11.19 Y-7.989 Z33.688
X11.343 Y-7.77
X11.494 Y-7.544
X11.632 Y-7.333
X11.767 Y-7.114
X11.932 Y-6.835
X12.022 Y-6.676
X12.151 Y-6.438
X12.255 Y-6.238 Z33.689
X12.37 Y-6.007
X12.468 Y-5.8 Z33.688
X12.589 Y-5.53
X12.662 Y-5.363
X12.753 Y-5.144 Z33.689
X12.808 Y-5.004 Z33.688
X12.917 Y-4.706
X12.995 Y-4.487 Z33.687
X13.068 Y-4.268
X13.139 Y-4.049
X13.205 Y-3.83 Z33.688
X13.267 Y-3.611
X13.325 Y-3.393
X13.377 Y-3.174
X13.427 Y-2.955 Z33.687
X13.472 Y-2.736
X13.515 Y-2.517
X13.554 Y-2.298
X13.589 Y-2.079
X13.619 Y-1.86
X13.647 Y-1.641
X13.684 Y-1.317
X13.715 Y-0.985 Z33.688
X13.73 Y-0.766 Z33.689
X13.741 Y-0.547 Z33.688
X13.747 Y-0.328 Z33.689
X13.751 Y-0.109
Y0.11
X13.746 Y0.328
X13.74 Y0.547 Z33.688
X13.729 Y0.766
X13.713 Y0.985
X13.684 Y1.319 Z33.687
X13.649 Y1.642
X13.621 Y1.861
X13.59 Y2.08 Z33.688
X13.555 Y2.298
X13.517 Y2.517
X13.465 Y2.781 Z33.687
X13.428 Y2.955 Z33.688
X13.377 Y3.174
X13.324 Y3.393 Z33.687
X13.246 Y3.686
X13.204 Y3.831
X13.138 Y4.05
X13.027 Y4.391 Z33.686
X12.917 Y4.706 Z33.687
X12.808 Y5.
X12.752 Y5.144 Z33.688
X12.661 Y5.363
X12.566 Y5.582
X12.466 Y5.801
X12.362 Y6.02
X12.253 Y6.238 Z33.687
X12.139 Y6.457 Z33.688
X12.022 Y6.676
X11.932 Y6.836
X11.713 Y7.202
X11.631 Y7.333
X11.489 Y7.552 Z33.687
X11.342 Y7.771
X11.189 Y7.99
X11.03 Y8.208
X10.838 Y8.459
X10.619 Y8.731
X10.507 Y8.865
X10.316 Y9.084 Z33.686
X10.119 Y9.303
X9.914 Y9.522
X9.701 Y9.741 Z33.687
X9.479 Y9.96
X9.245 Y10.178 Z33.688
X9.086 Y10.32
X8.867 Y10.506 Z33.687
X8.648 Y10.686
X8.429 Y10.858 Z33.686
X8.172 Y11.054
X7.869 Y11.273 Z33.687
X7.773 Y11.34
X7.545 Y11.492
X7.2 Y11.711
X6.897 Y11.892
X6.678 Y12.018
X6.439 Y12.148
X6.24 Y12.251
X6.005 Y12.367
X5.802 Y12.464
X5.533 Y12.586
X5.365 Y12.659
X5.146 Y12.751
X4.927 Y12.837 Z33.688
X4.708 Y12.919
X4.4 Y13.024 Z33.687
X4.051 Y13.136 Z33.686
X3.832 Y13.203 Z33.687
X3.613 Y13.264
X3.394 Y13.322 Z33.688
X3.175 Y13.376 Z33.687
X2.956 Y13.426
X2.518 Y13.514
X2.3 Y13.554
X2.081 Y13.59 Z33.688
X1.862 Y13.622 Z33.687
X1.643 Y13.651 Z33.688
X1.383 Y13.681
X1.205 Y13.697
X0.986 Y13.714
X0.767 Y13.729
X0.548 Y13.739
X0.329 Y13.746
X0.11 Y13.748
X-0.328 Y13.747
X-0.546 Y13.739
X-0.765 Y13.729
X-0.984 Y13.716
X-1.203 Y13.698 Z33.689
X-1.422 Y13.675 Z33.687
X-1.641 Y13.649
X-1.86 Y13.62
X-2.079 Y13.588 Z33.686
X-2.298 Y13.553 Z33.687
X-2.517 Y13.514
X-2.786 Y13.462
X-2.955 Y13.427 Z33.688
X-3.174 Y13.376 Z33.687
X-3.393 Y13.323
X-3.693 Y13.243
X-3.83 Y13.204
X-4.049 Y13.137 Z33.686
X-4.401 Y13.024 Z33.687
X-4.487 Y12.995
X-4.706 Y12.918
X-5.004 Y12.805
X-5.144 Y12.749
X-5.363 Y12.658
X-5.582 Y12.563
X-5.801 Y12.465
X-6.02 Y12.361
X-6.239 Y12.251
X-6.457 Y12.138
X-6.676 Y12.018
X-6.895 Y11.893
X-7.202 Y11.711
X-7.333 Y11.629
X-7.552 Y11.488
X-7.771 Y11.343 Z33.688
X-7.99 Y11.189 Z33.687
X-8.209 Y11.028
X-8.461 Y10.835
X-8.734 Y10.616
X-8.995 Y10.397
X-9.243 Y10.178
X-9.522 Y9.917
X-9.741 Y9.701
X-9.96 Y9.474 Z33.686
X-10.179 Y9.237
X-10.398 Y8.992 Z33.687
X-10.617 Y8.735
X-10.836 Y8.464 Z33.688
X-11.055 Y8.177
X-11.274 Y7.869 Z33.687
X-11.342 Y7.771
X-11.493 Y7.547
X-11.631 Y7.333
X-11.767 Y7.114 Z33.688
X-11.931 Y6.836
X-12.02 Y6.676 Z33.687
X-12.15 Y6.435
X-12.251 Y6.238
X-12.368 Y6.004
X-12.465 Y5.801
X-12.587 Y5.529
X-12.659 Y5.363
X-12.75 Y5.144
X-12.835 Y4.925
X-12.916 Y4.706 Z33.686
X-13.025 Y4.394
X-13.137 Y4.05 Z33.687
X-13.204 Y3.831
X-13.266 Y3.612
X-13.325 Y3.393 Z33.688
X-13.378 Y3.174
X-13.428 Y2.955
X-13.474 Y2.736
X-13.517 Y2.517
X-13.556 Y2.298
X-13.59 Y2.08 Z33.687
X-13.65 Y1.642
X-13.682 Y1.354 Z33.688
X-13.697 Y1.204
X-13.715 Y0.985
X-13.73 Y0.766 Z33.689
X-13.741 Y0.547
X-13.751 Y0.11
Y-0.109 Z33.688
X-13.738 Y-0.547
X-13.728 Y-0.766
X-13.714 Y-0.985
X-13.696 Y-1.204 Z33.687
X-13.676 Y-1.423 Z33.688
X-13.651 Y-1.641
X-13.623 Y-1.86
X-13.589 Y-2.089
X-13.555 Y-2.298 Z33.687
X-13.515 Y-2.517
X-13.463 Y-2.781
X-13.427 Y-2.955
X-13.377 Y-3.174 Z33.688
X-13.324 Y-3.393
X-13.244 Y-3.69 Z33.687
X-13.204 Y-3.83
X-13.12 Y-4.102 Z33.686
X-13.025 Y-4.392
X-12.916 Y-4.706
X-12.806 Y-5.004 Z33.687
X-12.751 Y-5.144
X-12.66 Y-5.363
X-12.566 Y-5.581
X-12.467 Y-5.8 Z33.688
X-12.363 Y-6.019
X-12.326 Y-6.093
X-12.258 Y-6.214 Z33.686
X-12.182 Y-6.329 Z33.68
X-12.097 Y-6.439 Z33.672
X-12.007 Y-6.544 Z33.661
X-11.911 Y-6.645 Z33.647
X-11.812 Y-6.743 Z33.632
X-11.71 Y-6.838 Z33.615
X-11.291 Y-7.209 Z33.54
X-11.189 Y-7.305 Z33.523
X-11.089 Y-7.403 Z33.508
X-10.993 Y-7.506 Z33.496
X-10.902 Y-7.612 Z33.488
X-10.817 Y-7.724 Z33.486
X-10.617 Y-7.999 Z33.487
X-10.456 Y-8.208 Z33.486
X-10.278 Y-8.427 Z33.485
X-10.092 Y-8.646
X-9.898 Y-8.865 Z33.484
X-9.698 Y-9.084
X-9.489 Y-9.303
X-9.27 Y-9.521 Z33.485
X-9.044 Y-9.74 Z33.486
X-8.866 Y-9.904 Z33.487
X-8.647 Y-10.095 Z33.486
X-8.428 Y-10.277
X-8.209 Y-10.453
X-7.99 Y-10.62
X-7.699 Y-10.835 Z33.487
X-7.552 Y-10.939
X-7.333 Y-11.085 Z33.486
X-7.114 Y-11.224 Z33.484
X-6.895 Y-11.36 Z33.485
X-6.675 Y-11.491
X-6.457 Y-11.617 Z33.486
X-6.239 Y-11.737
X-5.801 Y-11.959
X-5.582 Y-12.062
X-5.363 Y-12.16 Z33.485
X-5.144 Y-12.254 Z33.486
X-4.872 Y-12.367
X-4.706 Y-12.431 Z33.487
X-4.487 Y-12.512 Z33.486
X-4.268 Y-12.587
X-4.049 Y-12.658 Z33.485
X-3.83 Y-12.725 Z33.486
X-3.561 Y-12.805 Z33.485
X-3.393 Y-12.85 Z33.486
X-3.174 Y-12.907
X-2.955 Y-12.959
X-2.657 Y-13.024
X-2.298 Y-13.091 Z33.487
X-2.079 Y-13.128 Z33.486
X-1.86 Y-13.161 Z33.487
X-1.641 Y-13.19 Z33.486
X-1.422 Y-13.215 Z33.487
X-1.127 Y-13.243 Z33.485
X-0.765 Y-13.269 Z33.486
X-0.546 Y-13.28
X-0.328 Y-13.287 Z33.487
X-0.109 Y-13.292 Z33.486
X0.329 Y-13.289 Z33.487
X0.548 Y-13.282 Z33.488
X0.767 Y-13.271 Z33.487
X1.145 Y-13.243
X1.424 Y-13.215
X1.643 Y-13.189 Z33.486
X1.862 Y-13.16
X2.081 Y-13.127
X2.3 Y-13.09 Z33.485
X2.647 Y-13.024 Z33.486
X2.737 Y-13.005 Z33.485
X2.956 Y-12.956
X3.175 Y-12.904 Z33.484
X3.558 Y-12.805 Z33.486
X3.832 Y-12.725
X4.051 Y-12.657 Z33.485
X4.271 Y-12.586 Z33.486
X4.489 Y-12.51
X4.708 Y-12.43
X4.927 Y-12.345 Z33.487
X5.146 Y-12.255 Z33.486
X5.396 Y-12.148 Z33.487
X5.583 Y-12.063 Z33.486
X5.863 Y-11.929 Z33.487
X6.021 Y-11.851
X6.289 Y-11.71
X6.459 Y-11.618
X6.678 Y-11.491 Z33.486
X6.897 Y-11.361
X7.116 Y-11.224
X7.379 Y-11.054
X7.554 Y-10.936
X7.773 Y-10.779 Z33.485
X7.993 Y-10.616 Z33.484
X8.275 Y-10.397 Z33.485
X8.429 Y-10.273 Z33.484
X8.648 Y-10.091 Z33.486
X8.803 Y-9.959
X9.045 Y-9.74 Z33.487
X9.305 Y-9.489 Z33.486
X9.524 Y-9.269 Z33.485
X9.743 Y-9.037
X9.962 Y-8.795
X10.181 Y-8.543
X10.278 Y-8.427 Z33.487
X10.456 Y-8.208
X10.624 Y-7.989 Z33.488
X10.784 Y-7.77 Z33.486
X10.937 Y-7.551 Z33.487
X11.086 Y-7.333 Z33.486
X11.229 Y-7.114 Z33.487
X11.365 Y-6.895
X11.495 Y-6.676
X11.62 Y-6.457
X11.739 Y-6.238
X11.853 Y-6.019 Z33.488
X11.961 Y-5.8
X12.064 Y-5.581 Z33.487
X12.163 Y-5.363
X12.257 Y-5.144
X12.37 Y-4.867
X12.43 Y-4.706 Z33.486
X12.51 Y-4.487
X12.589 Y-4.26
X12.658 Y-4.049
X12.727 Y-3.83
X12.808 Y-3.555 Z33.487
X12.852 Y-3.393 Z33.486
X12.907 Y-3.174 Z33.487
X12.958 Y-2.955 Z33.486
X13.027 Y-2.629
X13.089 Y-2.298 Z33.485
X13.126 Y-2.079
X13.158 Y-1.86
X13.186 Y-1.641
X13.212 Y-1.423 Z33.484
X13.246 Y-1.092 Z33.486
X13.256 Y-0.985
X13.271 Y-0.766 Z33.488
X13.282 Y-0.547 Z33.487
X13.289 Y-0.328 Z33.488
X13.294 Y-0.109
X13.293 Y0.11
X13.288 Y0.328
X13.282 Y0.547 Z33.486
X13.27 Y0.766 Z33.487
X13.246 Y1.089 Z33.485
X13.213 Y1.423 Z33.486
X13.188 Y1.642 Z33.485
X13.159 Y1.861 Z33.486
X13.127 Y2.08
X13.091 Y2.298
X13.027 Y2.638
X12.958 Y2.955 Z33.487
X12.907 Y3.174 Z33.486
X12.851 Y3.393
X12.791 Y3.612
X12.726 Y3.831 Z33.485
X12.657 Y4.05 Z33.484
X12.585 Y4.268
X12.509 Y4.487 Z33.485
X12.43 Y4.706
X12.346 Y4.925 Z33.486
X12.256 Y5.144
X12.151 Y5.389
X12.063 Y5.582
X11.932 Y5.857
X11.851 Y6.02
X11.713 Y6.284
X11.62 Y6.457 Z33.487
X11.494 Y6.678
X11.365 Y6.895
X11.228 Y7.114 Z33.486
X11.057 Y7.376
X10.937 Y7.552
X10.783 Y7.771
X10.619 Y7.993
X10.453 Y8.208 Z33.485
X10.276 Y8.427
X10.091 Y8.646 Z33.484
X9.899 Y8.865
X9.698 Y9.084
X9.49 Y9.303
X9.272 Y9.522 Z33.485
X9.044 Y9.741 Z33.486
X8.803 Y9.96
X8.546 Y10.178 Z33.485
X8.276 Y10.397 Z33.484
X7.992 Y10.617
X7.695 Y10.835 Z33.485
X7.554 Y10.935
X7.335 Y11.082
X7.037 Y11.273
X6.897 Y11.36
X6.675 Y11.492
X6.459 Y11.616
X6.24 Y11.736 Z33.486
X6.021 Y11.849 Z33.485
X5.802 Y11.957
X5.583 Y12.061 Z33.486
X5.365 Y12.161
X5.146 Y12.255
X4.872 Y12.367
X4.708 Y12.43
X4.489 Y12.511
X4.268 Y12.586 Z33.485
X4.051 Y12.656 Z33.484
X3.832 Y12.725 Z33.485
X3.558 Y12.805
X3.394 Y12.849
X3.175 Y12.905 Z33.486
X2.956 Y12.957 Z33.485
X2.639 Y13.024 Z33.486
X2.3 Y13.089 Z33.485
X2.081 Y13.126 Z33.486
X1.862 Y13.16 Z33.485
X1.643 Y13.189 Z33.487
X1.424 Y13.215
X1.138 Y13.243
X0.767 Y13.27 Z33.486
X0.548 Y13.281 Z33.487
X0.329 Y13.288
X0.11 Y13.291 Z33.486
X-0.328 Y13.289 Z33.487
X-0.546 Y13.281
X-0.765 Y13.27
X-0.984 Y13.256
X-1.203 Y13.238 Z33.488
X-1.422 Y13.215 Z33.486
X-1.641 Y13.187
X-1.86 Y13.158 Z33.485
X-2.079 Y13.124
X-2.298 Y13.088
X-2.517 Y13.049
X-2.736 Y13.005 Z33.486
X-2.955 Y12.957 Z33.485
X-3.174 Y12.905
X-3.393 Y12.85
X-3.611 Y12.79
X-3.83 Y12.725 Z33.484
X-4.049 Y12.657
X-4.268 Y12.586 Z33.485
X-4.487 Y12.51
X-4.706 Y12.429
X-4.925 Y12.344
X-5.144 Y12.254
X-5.389 Y12.148
X-5.582 Y12.062
X-5.801 Y11.958
X-6.02 Y11.849
X-6.285 Y11.711
X-6.457 Y11.616
X-6.676 Y11.491
X-6.895 Y11.362
X-7.114 Y11.226
X-7.38 Y11.054 Z33.486
X-7.552 Y10.938
X-7.771 Y10.782 Z33.485
X-7.995 Y10.616
X-8.209 Y10.451
X-8.428 Y10.276
X-8.647 Y10.093
X-8.801 Y9.96 Z33.486
X-9.085 Y9.701 Z33.485
X-9.303 Y9.49
X-9.522 Y9.27 Z33.484
X-9.741 Y9.038
X-9.96 Y8.797
X-10.093 Y8.646 Z33.485
X-10.278 Y8.427
X-10.455 Y8.208 Z33.486
X-10.623 Y7.99
X-10.836 Y7.697
X-10.937 Y7.552 Z33.485
X-11.085 Y7.333
X-11.274 Y7.042 Z33.486
X-11.365 Y6.895
X-11.494 Y6.676
X-11.618 Y6.457
X-11.736 Y6.238 Z33.485
X-11.849 Y6.02
X-11.958 Y5.801 Z33.486
X-12.062 Y5.582
X-12.161 Y5.363 Z33.485
X-12.254 Y5.144
X-12.368 Y4.865
X-12.428 Y4.706
X-12.508 Y4.487 Z33.484
X-12.587 Y4.262 Z33.485
X-12.657 Y4.05
X-12.726 Y3.831
X-12.806 Y3.559 Z33.486
X-12.851 Y3.393
X-12.907 Y3.174
X-12.958 Y2.955 Z33.487
X-13.025 Y2.648 Z33.486
X-13.051 Y2.517
X-13.091 Y2.298 Z33.487
X-13.127 Y2.08 Z33.486
X-13.159 Y1.861
X-13.188 Y1.642
X-13.214 Y1.423
X-13.244 Y1.128 Z33.487
X-13.256 Y0.985 Z33.486
X-13.271 Y0.766 Z33.488
X-13.283 Y0.547
X-13.289 Y0.328 Z33.487
X-13.293 Y0.11 Z33.488
Y-0.109 Z33.487
X-13.28 Y-0.547 Z33.486
X-13.269 Y-0.766 Z33.487
X-13.244 Y-1.116 Z33.486
X-13.237 Y-1.204
X-13.215 Y-1.423 Z33.487
X-13.19 Y-1.641
X-13.16 Y-1.86 Z33.486
X-13.127 Y-2.079
X-13.09 Y-2.298 Z33.485
X-13.025 Y-2.638 Z33.486
X-13.005 Y-2.736 Z33.485
X-12.957 Y-2.955 Z33.486
X-12.906 Y-3.174
X-12.851 Y-3.393 Z33.485
X-12.791 Y-3.611
X-12.726 Y-3.83
X-12.657 Y-4.049 Z33.484
X-12.584 Y-4.268
X-12.508 Y-4.487
X-12.368 Y-4.867 Z33.486
X-12.256 Y-5.144
X-12.15 Y-5.391
X-12.064 Y-5.581
X-11.961 Y-5.8 Z33.487
X-11.851 Y-6.019 Z33.486
X-11.712 Y-6.284
X-11.618 Y-6.457
X-11.493 Y-6.678
X-11.364 Y-6.895
X-11.227 Y-7.114 Z33.485
X-11.055 Y-7.378
X-10.938 Y-7.551 Z33.486
X-10.817 Y-7.724
X-10.732 Y-7.834 Z33.483
X-10.639 Y-7.937 Z33.476
X-10.54 Y-8.033 Z33.464
X-10.436 Y-8.124 Z33.449
X-10.328 Y-8.21 Z33.43
X-10.216 Y-8.292 Z33.409
X-10.103 Y-8.37 Z33.386
X-9.871 Y-8.522 Z33.337
X-9.637 Y-8.674 Z33.288
X-9.521 Y-8.753 Z33.265
X-9.408 Y-8.834 Z33.246
X-9.297 Y-8.92 Z33.23
X-9.19 Y-9.011 Z33.22
X-9.088 Y-9.107 Z33.217
X-8.866 Y-9.325 Z33.219
X-8.647 Y-9.531 Z33.22
X-8.412 Y-9.74
X-8.148 Y-9.959 Z33.219
X-7.99 Y-10.087
X-7.771 Y-10.255
X-7.552 Y-10.419
X-7.333 Y-10.576 Z33.22
X-7.275 Y-10.616 Z33.219
X-7.114 Y-10.722 Z33.22
X-6.895 Y-10.863 Z33.217
X-6.676 Y-10.998 Z33.218
X-6.457 Y-11.129
X-6.206 Y-11.273 Z33.22
X-6.02 Y-11.374
X-5.791 Y-11.491
X-5.582 Y-11.595 Z33.219
X-5.333 Y-11.71
X-5.144 Y-11.794 Z33.218
X-4.825 Y-11.929 Z33.219
X-4.706 Y-11.978 Z33.22
X-4.487 Y-12.061
X-4.245 Y-12.148
X-4.049 Y-12.213 Z33.219
X-3.83 Y-12.283 Z33.218
X-3.552 Y-12.367 Z33.219
X-3.393 Y-12.412 Z33.218
X-3.174 Y-12.47 Z33.219
X-2.955 Y-12.525
X-2.681 Y-12.586 Z33.22
X-2.517 Y-12.62 Z33.219
X-2.298 Y-12.661 Z33.22
X-2.079 Y-12.699 Z33.219
X-1.86 Y-12.733 Z33.22
X-1.641 Y-12.763 Z33.219
X-1.422 Y-12.789 Z33.22
X-1.203 Y-12.811 Z33.219
X-0.984 Y-12.829
X-0.765 Y-12.845
X-0.546 Y-12.857
X-0.328 Y-12.864 Z33.22
X-0.109 Y-12.869
X0.329 Y-12.866
X0.548 Y-12.858 Z33.221
X0.767 Y-12.847 Z33.22
X0.986 Y-12.831
X1.286 Y-12.805 Z33.219
X1.643 Y-12.763
X1.862 Y-12.732
X2.081 Y-12.698
X2.3 Y-12.66
X2.518 Y-12.618
X2.737 Y-12.572 Z33.218
X2.956 Y-12.521
X3.175 Y-12.468 Z33.217
X3.394 Y-12.411 Z33.219
X3.613 Y-12.349 Z33.218
X3.832 Y-12.282 Z33.219
X4.051 Y-12.213 Z33.218
X4.27 Y-12.139 Z33.22
X4.489 Y-12.06 Z33.219
X4.708 Y-11.977 Z33.221
X4.927 Y-11.888 Z33.219
X5.146 Y-11.795 Z33.22
X5.365 Y-11.698 Z33.219
X5.583 Y-11.595 Z33.22
X5.802 Y-11.487
X6.021 Y-11.374 Z33.221
X6.24 Y-11.256 Z33.22
X6.588 Y-11.054 Z33.219
X6.678 Y-10.999
X6.94 Y-10.835
X7.116 Y-10.721
X7.335 Y-10.573
X7.578 Y-10.397 Z33.218
X7.773 Y-10.252 Z33.217
X7.992 Y-10.082 Z33.218
X8.211 Y-9.906
X8.429 Y-9.723 Z33.219
X8.657 Y-9.521 Z33.22
X8.891 Y-9.303 Z33.219
X9.113 Y-9.084
X9.325 Y-8.865 Z33.218
X9.528 Y-8.646 Z33.217
X9.743 Y-8.403 Z33.218
X9.962 Y-8.146 Z33.22
X10.089 Y-7.989
X10.259 Y-7.77 Z33.221
X10.421 Y-7.551 Z33.219
X10.619 Y-7.268 Z33.22
X10.723 Y-7.114 Z33.219
X10.867 Y-6.895 Z33.221
X11.003 Y-6.676 Z33.22
X11.133 Y-6.457 Z33.221
X11.276 Y-6.204
X11.376 Y-6.019
X11.494 Y-5.79
X11.597 Y-5.581
X11.713 Y-5.331
X11.797 Y-5.144 Z33.22
X11.932 Y-4.821 Z33.221
X11.979 Y-4.706
X12.06 Y-4.487 Z33.219
X12.151 Y-4.232 Z33.218
X12.213 Y-4.049 Z33.219
X12.284 Y-3.83
X12.37 Y-3.546 Z33.22
X12.414 Y-3.393
X12.471 Y-3.174
X12.524 Y-2.955 Z33.219
X12.589 Y-2.659
X12.618 Y-2.517
X12.66 Y-2.298 Z33.218
X12.697 Y-2.079 Z33.219
X12.731 Y-1.86 Z33.217
X12.76 Y-1.641 Z33.218
X12.787 Y-1.423 Z33.217
X12.81 Y-1.204 Z33.219
X12.831 Y-0.985
X12.847 Y-0.766 Z33.221
X12.859 Y-0.547
X12.867 Y-0.328
X12.872 Y-0.109 Z33.22
X12.871 Y0.11
X12.866 Y0.328 Z33.221
X12.858 Y0.547 Z33.22
X12.846 Y0.766 Z33.221
X12.83 Y0.985 Z33.219
X12.808 Y1.226
X12.787 Y1.423
X12.761 Y1.642 Z33.218
X12.731 Y1.861 Z33.219
X12.699 Y2.08 Z33.218
X12.661 Y2.298 Z33.22
X12.619 Y2.517
X12.574 Y2.736
X12.524 Y2.955
X12.471 Y3.174 Z33.219
X12.414 Y3.393
X12.351 Y3.612 Z33.218
X12.283 Y3.831 Z33.217
X12.213 Y4.05
X12.138 Y4.268
X12.059 Y4.487 Z33.218
X11.978 Y4.706 Z33.219
X11.889 Y4.925
X11.796 Y5.144
X11.699 Y5.363
X11.596 Y5.582
X11.488 Y5.801
X11.375 Y6.02 Z33.22
X11.257 Y6.238
X11.133 Y6.457
X11.003 Y6.676
X10.867 Y6.895
X10.723 Y7.114 Z33.219
X10.574 Y7.333
X10.4 Y7.578 Z33.218
X10.257 Y7.771
X10.086 Y7.99
X9.908 Y8.208 Z33.217
X9.722 Y8.427
X9.524 Y8.649 Z33.216
X9.305 Y8.885 Z33.217
X9.086 Y9.11 Z33.218
X8.867 Y9.325
X8.648 Y9.529 Z33.219
X8.409 Y9.741 Z33.218
X8.146 Y9.96
X7.992 Y10.083 Z33.217
X7.773 Y10.253
X7.554 Y10.415
X7.335 Y10.572 Z33.218
X7.116 Y10.72
X6.897 Y10.862 Z33.217
X6.678 Y10.998 Z33.218
X6.459 Y11.128
X6.206 Y11.273
X6.021 Y11.373 Z33.219
X5.79 Y11.492 Z33.218
X5.583 Y11.593
X5.334 Y11.711
X5.146 Y11.795 Z33.219
X4.927 Y11.888
X4.708 Y11.978 Z33.22
X4.489 Y12.06 Z33.219
X4.241 Y12.148 Z33.218
X4.051 Y12.212 Z33.217
X3.832 Y12.282
X3.552 Y12.367 Z33.218
X3.394 Y12.412
X3.175 Y12.468 Z33.219
X2.956 Y12.522
X2.67 Y12.586
X2.3 Y12.659 Z33.217
X2.081 Y12.697 Z33.219
X1.862 Y12.732
X1.643 Y12.763 Z33.22
X1.283 Y12.805 Z33.219
X0.986 Y12.83 Z33.22
X0.767 Y12.846
X0.548 Y12.857 Z33.221
X0.329 Y12.865 Z33.22
X0.11 Y12.868
X-0.328 Y12.866
X-0.546 Y12.857 Z33.221
X-0.765 Y12.847 Z33.22
X-0.984 Y12.832 Z33.221
X-1.276 Y12.805 Z33.22
X-1.422 Y12.789 Z33.219
X-1.641 Y12.761
X-1.86 Y12.731 Z33.217
X-2.079 Y12.696 Z33.218
X-2.298 Y12.659
X-2.517 Y12.618
X-2.736 Y12.572 Z33.219
X-2.955 Y12.523 Z33.218
X-3.174 Y12.47
X-3.393 Y12.413
X-3.611 Y12.35
X-3.83 Y12.283 Z33.217
X-4.049 Y12.213 Z33.218
X-4.268 Y12.139
X-4.487 Y12.06
X-4.706 Y11.976
X-4.925 Y11.887 Z33.217
X-5.144 Y11.794 Z33.218
X-5.363 Y11.697
X-5.582 Y11.594
X-5.801 Y11.486
X-6.02 Y11.374 Z33.219
X-6.239 Y11.254 Z33.218
X-6.457 Y11.13
X-6.676 Y11.
X-6.941 Y10.835
X-7.114 Y10.723 Z33.219
X-7.333 Y10.575
X-7.581 Y10.397 Z33.218
X-7.771 Y10.255
X-7.99 Y10.085
X-8.209 Y9.909
X-8.428 Y9.724
X-8.655 Y9.522
X-8.89 Y9.303
X-9.112 Y9.084 Z33.217
X-9.324 Y8.865
X-9.527 Y8.646
X-9.741 Y8.406
X-9.96 Y8.148 Z33.218
X-10.088 Y7.99 Z33.219
X-10.259 Y7.771
X-10.42 Y7.552
X-10.617 Y7.271 Z33.218
X-10.723 Y7.114 Z33.219
X-10.866 Y6.895
X-11.003 Y6.676
X-11.132 Y6.457
X-11.274 Y6.205
X-11.373 Y6.02 Z33.218
X-11.493 Y5.788
X-11.594 Y5.582 Z33.219
X-11.712 Y5.332
X-11.795 Y5.144 Z33.218
X-11.931 Y4.82
X-11.976 Y4.706
X-12.059 Y4.487 Z33.217
X-12.15 Y4.234
X-12.213 Y4.05
X-12.283 Y3.831
X-12.368 Y3.55 Z33.218
X-12.413 Y3.393 Z33.219
X-12.471 Y3.174
X-12.524 Y2.955
X-12.587 Y2.673 Z33.22
X-12.62 Y2.517 Z33.219
X-12.661 Y2.298 Z33.22
X-12.699 Y2.08 Z33.219
X-12.732 Y1.861
X-12.762 Y1.642
X-12.789 Y1.423
X-12.812 Y1.204 Z33.22
X-12.832 Y0.985
X-12.847 Y0.766 Z33.222
X-12.859 Y0.547
X-12.866 Y0.328 Z33.221
X-12.87 Y0.11 Z33.222
Y-0.109 Z33.22
X-12.857 Y-0.547
X-12.846 Y-0.766
X-12.83 Y-0.985
X-12.806 Y-1.264
X-12.79 Y-1.423 Z33.221
X-12.763 Y-1.641 Z33.219
X-12.733 Y-1.86 Z33.22
X-12.698 Y-2.079 Z33.219
X-12.66 Y-2.298
X-12.618 Y-2.517
X-12.573 Y-2.736 Z33.218
X-12.523 Y-2.955 Z33.22
X-12.47 Y-3.174 Z33.219
X-12.413 Y-3.393
X-12.35 Y-3.611 Z33.218
X-12.283 Y-3.83 Z33.217
X-12.212 Y-4.049
X-12.137 Y-4.268 Z33.216
X-12.059 Y-4.487 Z33.217
X-11.977 Y-4.706 Z33.219
X-11.889 Y-4.925
X-11.796 Y-5.144
X-11.699 Y-5.363
X-11.597 Y-5.581 Z33.22
X-11.488 Y-5.8 Z33.219
X-11.374 Y-6.019
X-11.256 Y-6.238
X-11.132 Y-6.457
X-11.002 Y-6.676
X-10.836 Y-6.94 Z33.218
X-10.723 Y-7.114
X-10.575 Y-7.333 Z33.219
X-10.398 Y-7.582
X-10.26 Y-7.77 Z33.22
X-10.089 Y-7.989 Z33.219
X-9.91 Y-8.208 Z33.218
X-9.722 Y-8.427 Z33.217
X-9.522 Y-8.65 Z33.216
X-9.303 Y-8.886
X-9.088 Y-9.107 Z33.217
X-8.986 Y-9.201 Z33.215
X-8.877 Y-9.287 Z33.207
X-8.763 Y-9.365 Z33.194
X-8.645 Y-9.437 Z33.178
X-8.523 Y-9.503 Z33.158
X-8.399 Y-9.565 Z33.137
X-8.274 Y-9.623 Z33.114
X-7.891 Y-9.789 Z33.042
X-7.763 Y-9.845 Z33.02
X-7.635 Y-9.904 Z33.001
X-7.51 Y-9.965 Z32.984
X-7.386 Y-10.032 Z32.971
X-7.265 Y-10.104 Z32.963
X-7.149 Y-10.182 Z32.96
X-7.114 Y-10.207
X-6.895 Y-10.355
X-6.676 Y-10.495 Z32.959
X-6.457 Y-10.631
X-6.239 Y-10.761
X-6.02 Y-10.888 Z32.96
X-5.801 Y-11.007
X-5.582 Y-11.118
X-5.363 Y-11.226
X-5.144 Y-11.327 Z32.959
X-4.764 Y-11.491 Z32.96
X-4.487 Y-11.604
X-4.202 Y-11.71 Z32.959
X-4.049 Y-11.763 Z32.96
X-3.83 Y-11.835 Z32.959
X-3.524 Y-11.929
X-3.393 Y-11.968
X-3.174 Y-12.028
X-2.955 Y-12.084
X-2.682 Y-12.148 Z32.96
X-2.517 Y-12.184
X-2.298 Y-12.226
X-2.079 Y-12.266
X-1.86 Y-12.301
X-1.641 Y-12.332
X-1.351 Y-12.367
X-1.203 Y-12.382
X-0.984 Y-12.401 Z32.959
X-0.765 Y-12.416 Z32.96
X-0.546 Y-12.429
X-0.328 Y-12.437
X-0.109 Y-12.442
X0.329 Y-12.439
X0.548 Y-12.431
X0.767 Y-12.419
X0.986 Y-12.403
X1.205 Y-12.383
X1.424 Y-12.359
X1.643 Y-12.332 Z32.959
X1.862 Y-12.3 Z32.96
X2.081 Y-12.264 Z32.959
X2.3 Y-12.225
X2.518 Y-12.181
X2.737 Y-12.133
X2.956 Y-12.081
X3.175 Y-12.026
X3.394 Y-11.967
X3.613 Y-11.902
X3.832 Y-11.834
X4.051 Y-11.762 Z32.96
X4.27 Y-11.685 Z32.959
X4.489 Y-11.604 Z32.96
X4.769 Y-11.491
X5.146 Y-11.328
X5.365 Y-11.226
X5.583 Y-11.119
X5.802 Y-11.006
X6.021 Y-10.889
X6.24 Y-10.762
X6.485 Y-10.616 Z32.959
X6.678 Y-10.495
X6.897 Y-10.354 Z32.96
X7.153 Y-10.178 Z32.959
X7.45 Y-9.959
X7.554 Y-9.881
X7.773 Y-9.71
X8.004 Y-9.521
X8.261 Y-9.303
X8.5 Y-9.084 Z32.96
X8.726 Y-8.865 Z32.959
X8.942 Y-8.646
X9.148 Y-8.427
X9.345 Y-8.208
X9.535 Y-7.989
X9.743 Y-7.739 Z32.96
X9.889 Y-7.551
X10.051 Y-7.333
X10.207 Y-7.114
X10.4 Y-6.828
X10.5 Y-6.676
X10.637 Y-6.457
X10.767 Y-6.238
X10.89 Y-6.019
X11.009 Y-5.8
X11.121 Y-5.581
X11.228 Y-5.363
X11.329 Y-5.144
X11.426 Y-4.925
X11.518 Y-4.706
X11.605 Y-4.487
X11.762 Y-4.049 Z32.959
X11.835 Y-3.83
X11.932 Y-3.52 Z32.96
X11.97 Y-3.393
X12.03 Y-3.174 Z32.959
X12.084 Y-2.955 Z32.96
X12.151 Y-2.662 Z32.959
X12.182 Y-2.517
X12.224 Y-2.298
X12.263 Y-2.079
X12.298 Y-1.86
X12.328 Y-1.641
X12.356 Y-1.423
X12.38 Y-1.204
X12.402 Y-0.985 Z32.96
X12.419 Y-0.766
X12.432 Y-0.547
X12.439 Y-0.328 Z32.961
X12.444 Y-0.109
X12.443 Y0.11
X12.439 Y0.328
X12.43 Y0.547 Z32.96
X12.418 Y0.766
X12.401 Y0.985 Z32.959
X12.381 Y1.204 Z32.96
X12.357 Y1.423 Z32.959
X12.33 Y1.642
X12.3 Y1.861 Z32.96
X12.265 Y2.08 Z32.959
X12.226 Y2.298 Z32.96
X12.184 Y2.517 Z32.959
X12.136 Y2.736 Z32.96
X12.084 Y2.955 Z32.959
X12.029 Y3.174
X11.969 Y3.393
X11.903 Y3.612
X11.834 Y3.831
X11.713 Y4.186
X11.604 Y4.487
X11.517 Y4.706 Z32.96
X11.425 Y4.925 Z32.959
X11.329 Y5.144 Z32.96
X11.226 Y5.363
X11.119 Y5.582
X11.007 Y5.801
X10.89 Y6.02
X10.766 Y6.238
X10.619 Y6.486
X10.499 Y6.676
X10.355 Y6.895 Z32.959
X10.181 Y7.149
X10.049 Y7.333
X9.886 Y7.552
X9.714 Y7.771
X9.524 Y8.
X9.305 Y8.252 Z32.958
X9.086 Y8.492
X8.867 Y8.722
X8.648 Y8.941 Z32.959
X8.5 Y9.084
X8.26 Y9.303
X7.992 Y9.533
X7.735 Y9.741
X7.554 Y9.881 Z32.958
X7.335 Y10.045
X7.116 Y10.203 Z32.959
X6.897 Y10.353
X6.678 Y10.494
X6.459 Y10.631
X6.24 Y10.761
X6.021 Y10.886
X5.802 Y11.005
X5.583 Y11.117
X5.262 Y11.273
X5.146 Y11.327
X4.927 Y11.424
X4.708 Y11.516 Z32.96
X4.489 Y11.604
X4.197 Y11.711 Z32.959
X4.051 Y11.761
X3.832 Y11.833
X3.522 Y11.93
X3.394 Y11.967
X3.175 Y12.027
X2.956 Y12.082
X2.671 Y12.148
X2.518 Y12.181
X2.3 Y12.224
X2.081 Y12.264
X1.862 Y12.299
X1.643 Y12.331
X1.358 Y12.367 Z32.96
X1.205 Y12.383
X0.986 Y12.402
X0.767 Y12.418
X0.548 Y12.43
X0.329 Y12.438
X0.11 Y12.441
X-0.109
X-0.328 Y12.439
X-0.546 Y12.43
X-0.765 Y12.419
X-0.984 Y12.404
X-1.203 Y12.383
X-1.422 Y12.358 Z32.959
X-1.641 Y12.329
X-1.86 Y12.298
X-2.079 Y12.262
X-2.298 Y12.224
X-2.517 Y12.182
X-2.736 Y12.134
X-2.955 Y12.083
X-3.174 Y12.028
X-3.393 Y11.968
X-3.611 Y11.902
X-3.83 Y11.834
X-4.049 Y11.762
X-4.268 Y11.684
X-4.487 Y11.602
X-4.761 Y11.492
X-4.925 Y11.423
X-5.144 Y11.326
X-5.363 Y11.225
X-5.582 Y11.117
X-5.801 Y11.006
X-6.02 Y10.887
X-6.239 Y10.762
X-6.484 Y10.616
X-6.676 Y10.497
X-6.895 Y10.355
X-7.114 Y10.207 Z32.96
X-7.333 Y10.049 Z32.959
X-7.552 Y9.884
X-7.771 Y9.713
X-8.005 Y9.522
X-8.258 Y9.303
X-8.428 Y9.15
X-8.647 Y8.942
X-8.866 Y8.724
X-9.085 Y8.494 Z32.958
X-9.344 Y8.208 Z32.959
X-9.534 Y7.99
X-9.741 Y7.739
X-9.888 Y7.552 Z32.96
X-10.051 Y7.333 Z32.959
X-10.206 Y7.114
X-10.398 Y6.83
X-10.498 Y6.676
X-10.636 Y6.457 Z32.96
X-10.765 Y6.238
X-10.888 Y6.02 Z32.959
X-11.005 Y5.801
X-11.118 Y5.582
X-11.225 Y5.363
X-11.327 Y5.144
X-11.423 Y4.925
X-11.515 Y4.706
X-11.602 Y4.487
X-11.712 Y4.188
X-11.76 Y4.05
X-11.834 Y3.831
X-11.931 Y3.522
X-11.969 Y3.393
X-12.029 Y3.174
X-12.085 Y2.955
X-12.15 Y2.676 Z32.96
X-12.184 Y2.517
X-12.227 Y2.298
X-12.266 Y2.08
X-12.3 Y1.861 Z32.959
X-12.33 Y1.642 Z32.96
X-12.358 Y1.423 Z32.959
X-12.382 Y1.204 Z32.96
X-12.403 Y0.985
X-12.42 Y0.766
X-12.432 Y0.547 Z32.961
X-12.439 Y0.328 Z32.96
X-12.443 Y0.11 Z32.961
Y-0.109 Z32.96
X-12.429 Y-0.547
X-12.418 Y-0.766
X-12.402 Y-0.985
X-12.383 Y-1.204
X-12.36 Y-1.423
X-12.332 Y-1.641 Z32.959
X-12.296 Y-1.884 Z32.96
X-12.264 Y-2.079 Z32.959
X-12.225 Y-2.298
X-12.182 Y-2.517
X-12.135 Y-2.736
X-12.084 Y-2.955 Z32.96
X-12.028 Y-3.174 Z32.959
X-11.969 Y-3.393
X-11.902 Y-3.611
X-11.833 Y-3.83 Z32.958
X-11.76 Y-4.049
X-11.683 Y-4.268 Z32.959
X-11.602 Y-4.487
X-11.493 Y-4.764
X-11.329 Y-5.144 Z32.96
X-11.228 Y-5.363
X-11.12 Y-5.581
X-11.006 Y-5.8 Z32.959
X-10.889 Y-6.019 Z32.96
X-10.765 Y-6.238
X-10.617 Y-6.486
X-10.498 Y-6.676 Z32.959
X-10.355 Y-6.895
X-10.179 Y-7.152
X-10.051 Y-7.333 Z32.96
X-9.889 Y-7.551
X-9.716 Y-7.77
X-9.522 Y-8.003 Z32.959
X-9.303 Y-8.253 Z32.958
X-9.085 Y-8.492
X-8.866 Y-8.722
X-8.647 Y-8.941 Z32.959
X-8.428 Y-9.151
X-8.209 Y-9.349 Z32.96
X-7.99 Y-9.536
X-7.739 Y-9.74 Z32.959
X-7.454 Y-9.959
X-7.149 Y-10.182 Z32.96
X-7.033 Y-10.258 Z32.959
X-6.972 Y-10.292 Z32.957
X-6.911 Y-10.323 Z32.955
X-6.784 Y-10.379 Z32.95
X-6.654 Y-10.427 Z32.943
X-6.52 Y-10.468 Z32.934
X-6.385 Y-10.503 Z32.925
X-6.249 Y-10.535 Z32.915
X-5.973 Y-10.59 Z32.894
X-5.695 Y-10.644 Z32.874
X-5.556 Y-10.674 Z32.866
X-5.419 Y-10.708 Z32.858
X-5.284 Y-10.748 Z32.853
X-5.15 Y-10.794 Z32.849
X-5.02 Y-10.848 Z32.847
X-4.925 Y-10.891
X-4.549 Y-11.054
X-4.268 Y-11.166 Z32.848
X-4.049 Y-11.247 Z32.847
X-3.83 Y-11.322
X-3.611 Y-11.393
X-3.286 Y-11.491
X-2.955 Y-11.581
X-2.736 Y-11.635
X-2.517 Y-11.685 Z32.848
X-2.4 Y-11.71 Z32.847
X-2.079 Y-11.771
X-1.86 Y-11.808
X-1.641 Y-11.84
X-1.422 Y-11.868
X-1.203 Y-11.892
X-0.984 Y-11.912
X-0.752 Y-11.929
X-0.546 Y-11.941
X-0.328 Y-11.949 Z32.848
X-0.109 Y-11.955
X0.329 Y-11.951
X0.548 Y-11.943
X0.783 Y-11.929
X0.986 Y-11.913
X1.205 Y-11.893 Z32.847
X1.424 Y-11.868 Z32.848
X1.643 Y-11.84 Z32.847
X1.862 Y-11.806
X2.081 Y-11.769
X2.39 Y-11.71
X2.518 Y-11.683
X2.737 Y-11.632
X2.956 Y-11.579
X3.286 Y-11.491
X3.613 Y-11.392
X3.832 Y-11.321
X4.051 Y-11.246
X4.27 Y-11.165 Z32.848
X4.553 Y-11.054 Z32.847
X4.708 Y-10.988 Z32.848
X4.927 Y-10.892
X5.146 Y-10.791
X5.365 Y-10.684
X5.583 Y-10.571
X5.802 Y-10.453
X6.021 Y-10.326 Z32.847
X6.266 Y-10.178
X6.459 Y-10.057
X6.678 Y-9.914
X6.927 Y-9.74
X7.221 Y-9.521
X7.501 Y-9.303
X7.773 Y-9.079
X8.018 Y-8.865
X8.253 Y-8.646
X8.474 Y-8.427
X8.685 Y-8.208
X8.887 Y-7.989
X9.086 Y-7.763
X9.305 Y-7.504 Z32.848
X9.442 Y-7.333
X9.524 Y-7.226
X9.608 Y-7.114
X9.765 Y-6.895
X9.962 Y-6.607 Z32.847
X10.061 Y-6.457 Z32.848
X10.199 Y-6.238
X10.33 Y-6.019
X10.454 Y-5.8
X10.573 Y-5.581
X10.686 Y-5.363
X10.793 Y-5.144
X10.893 Y-4.925
X10.99 Y-4.706
X11.081 Y-4.487
X11.166 Y-4.268 Z32.847
X11.276 Y-3.964
X11.321 Y-3.83
X11.393 Y-3.611
X11.494 Y-3.283 Z32.848
X11.582 Y-2.955 Z32.847
X11.635 Y-2.736
X11.684 Y-2.517
X11.728 Y-2.298
X11.768 Y-2.079
X11.805 Y-1.86
X11.837 Y-1.641
X11.865 Y-1.423
X11.89 Y-1.204
X11.912 Y-0.985
X11.932 Y-0.743 Z32.848
X11.944 Y-0.547
X11.952 Y-0.328
X11.957 Y-0.109
X11.956 Y0.11 Z32.847
X11.951 Y0.328 Z32.848
X11.942 Y0.547
X11.929 Y0.766
X11.912 Y0.985 Z32.847
X11.891 Y1.204
X11.866 Y1.423
X11.838 Y1.642
X11.806 Y1.861
X11.77 Y2.08
X11.713 Y2.386
X11.686 Y2.517
X11.635 Y2.736
X11.582 Y2.955
X11.494 Y3.281
X11.461 Y3.393
X11.392 Y3.612
X11.32 Y3.831
X11.245 Y4.05
X11.165 Y4.268
X11.057 Y4.545
X10.988 Y4.706
X10.893 Y4.925
X10.791 Y5.144
X10.684 Y5.363
X10.572 Y5.582 Z32.848
X10.454 Y5.801
X10.33 Y6.02
X10.181 Y6.267
X10.06 Y6.457 Z32.847
X9.915 Y6.676
X9.743 Y6.924
X9.605 Y7.114
X9.524 Y7.222
X9.438 Y7.333
X9.263 Y7.552
X9.078 Y7.771 Z32.846
X8.867 Y8.009
X8.648 Y8.245
X8.429 Y8.471 Z32.847
X8.211 Y8.686
X7.992 Y8.888
X7.767 Y9.084
X7.502 Y9.303
X7.221 Y9.522
X6.924 Y9.741
X6.678 Y9.912
X6.608 Y9.96
X6.459 Y10.056
X6.24 Y10.193
X6.021 Y10.324
X5.802 Y10.45
X5.583 Y10.57
X5.365 Y10.681
X5.048 Y10.835
X4.708 Y10.988
X4.489 Y11.079
X4.27 Y11.165
X4.051 Y11.245
X3.832 Y11.32
X3.613 Y11.391
X3.285 Y11.492
X2.956 Y11.58
X2.737 Y11.633
X2.518 Y11.683
X2.387 Y11.711
X2.081 Y11.768
X1.862 Y11.806
X1.643 Y11.839
X1.424 Y11.868 Z32.848
X1.205 Y11.894 Z32.847
X0.986 Y11.913 Z32.848
X0.767 Y11.93
X0.548 Y11.942
X0.329 Y11.95
X0.11 Y11.953
X-0.109 Y11.954
X-0.328 Y11.951
X-0.546 Y11.942
X-0.781 Y11.93 Z32.847
X-0.984 Y11.915 Z32.848
X-1.203 Y11.893 Z32.847
X-1.422 Y11.867
X-1.641 Y11.837
X-1.86 Y11.804
X-2.079 Y11.768
X-2.386 Y11.711
X-2.517 Y11.684
X-2.736 Y11.634
X-2.955 Y11.58
X-3.284 Y11.492
X-3.611 Y11.392
X-3.83 Y11.321
X-4.049 Y11.245
X-4.268 Y11.164
X-4.545 Y11.054
X-4.706 Y10.986
X-4.925 Y10.89
X-5.144 Y10.789
X-5.363 Y10.682
X-5.582 Y10.57
X-5.801 Y10.451
X-6.02 Y10.325
X-6.266 Y10.178
X-6.457 Y10.058
X-6.676 Y9.915
X-6.927 Y9.741
X-7.114 Y9.604
X-7.333 Y9.437
X-7.552 Y9.263
X-7.771 Y9.08
X-8.016 Y8.865
X-8.209 Y8.687
X-8.473 Y8.427
X-8.684 Y8.208 Z32.846
X-8.885 Y7.99
X-9.085 Y7.764 Z32.847
X-9.303 Y7.504
X-9.441 Y7.333
X-9.522 Y7.227
X-9.607 Y7.114
X-9.764 Y6.895
X-9.96 Y6.609
X-10.059 Y6.457
X-10.198 Y6.238
X-10.329 Y6.02
X-10.452 Y5.801
X-10.57 Y5.582
X-10.682 Y5.363
X-10.79 Y5.144
X-10.891 Y4.925
X-10.987 Y4.706
X-11.078 Y4.487
X-11.163 Y4.268
X-11.274 Y3.965
X-11.392 Y3.612
X-11.493 Y3.285
X-11.582 Y2.955
X-11.635 Y2.736
X-11.685 Y2.517 Z32.848
X-11.73 Y2.298 Z32.847
X-11.771 Y2.08 Z32.848
X-11.807 Y1.861 Z32.847
X-11.839 Y1.642
X-11.867 Y1.423
X-11.893 Y1.204 Z32.848
X-11.914 Y0.985
X-11.931 Y0.766
X-11.944 Y0.547
X-11.951 Y0.328
X-11.956 Y0.11
Y-0.109
X-11.941 Y-0.547 Z32.847
X-11.929 Y-0.766 Z32.848
X-11.913 Y-0.985 Z32.847
X-11.893 Y-1.204 Z32.848
X-11.869 Y-1.423
X-11.84 Y-1.641 Z32.847
X-11.807 Y-1.86
X-11.769 Y-2.079
X-11.712 Y-2.385
X-11.684 Y-2.517
X-11.635 Y-2.736
X-11.581 Y-2.955
X-11.493 Y-3.284
X-11.391 Y-3.611 Z32.846
X-11.274 Y-3.963
X-11.164 Y-4.268 Z32.847
X-11.055 Y-4.547
X-10.988 Y-4.706
X-10.893 Y-4.925
X-10.792 Y-5.144 Z32.848
X-10.684 Y-5.363 Z32.847
X-10.571 Y-5.581
X-10.453 Y-5.8
X-10.328 Y-6.019
X-10.179 Y-6.267
X-10.059 Y-6.457
X-9.915 Y-6.676
X-9.741 Y-6.927
X-9.608 Y-7.114
X-9.522 Y-7.228 Z32.848
X-9.442 Y-7.333 Z32.847
X-9.265 Y-7.551
X-9.079 Y-7.77
X-8.866 Y-8.01 Z32.846
X-8.647 Y-8.246
X-8.428 Y-8.472 Z32.847
X-8.209 Y-8.687
X-7.99 Y-8.891 Z32.848
X-7.77 Y-9.084 Z32.847
X-7.506 Y-9.303
X-7.225 Y-9.521
X-7.114 Y-9.604
X-6.873 Y-9.78 Z32.848
X-6.61 Y-9.959
X-6.239 Y-10.193 Z32.847
X-6.02 Y-10.325
X-5.801 Y-10.451
X-5.582 Y-10.571
X-5.363 Y-10.683
X-5.144 Y-10.79
X-5.02 Y-10.848
X-4.891 Y-10.899 Z32.846
X-4.758 Y-10.939 Z32.843
X-4.623 Y-10.97 Z32.838
X-4.486 Y-10.992 Z32.832
X-4.347 Y-11.008 Z32.824
X-4.208 Y-11.018 Z32.816
X-4.068 Y-11.023 Z32.808
X-3.786 Y-11.027 Z32.79
X-3.503 Y-11.03 Z32.773
X-3.362 Y-11.035 Z32.766
X-3.221 Y-11.045 Z32.76
X-3.081 Y-11.06 Z32.756
X-2.941 Y-11.082 Z32.753
X-2.804 Y-11.112 Z32.751
X-2.517 Y-11.182 Z32.752
X-2.298 Y-11.23
X-2.075 Y-11.273
X-1.86 Y-11.31
X-1.641 Y-11.344
X-1.422 Y-11.374
X-1.203 Y-11.399
X-0.984 Y-11.419 Z32.751
X-0.765 Y-11.436 Z32.752
X-0.546 Y-11.449
X-0.328 Y-11.458
X-0.109 Y-11.464
X0.329 Y-11.46
X0.548 Y-11.451
X0.767 Y-11.438
X0.986 Y-11.421
X1.205 Y-11.399
X1.424 Y-11.374
X1.643 Y-11.343
X1.862 Y-11.308 Z32.751
X2.081 Y-11.27
X2.3 Y-11.228
X2.518 Y-11.179
X2.737 Y-11.127
X3.025 Y-11.054
X3.175 Y-11.012
X3.394 Y-10.946
X3.613 Y-10.876
X3.832 Y-10.803 Z32.752
X4.051 Y-10.723
X4.326 Y-10.616
X4.489 Y-10.548
X4.708 Y-10.452
X4.927 Y-10.352
X5.146 Y-10.245
X5.365 Y-10.132
X5.583 Y-10.012
X5.802 Y-9.885
X6.04 Y-9.74
X6.24 Y-9.614 Z32.751
X6.382 Y-9.521 Z32.752
X6.459 Y-9.469
X6.693 Y-9.303 Z32.751
X6.897 Y-9.151
X7.116 Y-8.981
X7.335 Y-8.804
X7.554 Y-8.619
X7.773 Y-8.424 Z32.752
X7.999 Y-8.208
X8.216 Y-7.989 Z32.751
X8.429 Y-7.762
X8.648 Y-7.518
X8.867 Y-7.262 Z32.752
X8.989 Y-7.114
X9.086 Y-6.99
X9.159 Y-6.895
X9.318 Y-6.676
X9.524 Y-6.379
X9.617 Y-6.238
X9.757 Y-6.019
X9.889 Y-5.8
X10.014 Y-5.581
X10.134 Y-5.363
X10.247 Y-5.144
X10.353 Y-4.925
X10.454 Y-4.706
X10.55 Y-4.487
X10.64 Y-4.268
X10.724 Y-4.049
X10.802 Y-3.83
X10.877 Y-3.611 Z32.751
X10.948 Y-3.393
X11.015 Y-3.174 Z32.752
X11.075 Y-2.955
X11.13 Y-2.736
X11.181 Y-2.517 Z32.751
X11.228 Y-2.298 Z32.752
X11.276 Y-2.047 Z32.751
X11.307 Y-1.86
X11.341 Y-1.641
X11.371 Y-1.423
X11.397 Y-1.204
X11.419 Y-0.985 Z32.752
X11.438 Y-0.766
X11.452 Y-0.547
X11.461 Y-0.328
X11.466 Y-0.109 Z32.753
X11.465 Y0.11
X11.46 Y0.328 Z32.752
X11.451 Y0.547
X11.437 Y0.766
X11.419 Y0.985 Z32.751
X11.397 Y1.204 Z32.752
X11.371 Y1.423 Z32.751
X11.342 Y1.642 Z32.752
X11.309 Y1.861 Z32.751
X11.271 Y2.08 Z32.752
X11.23 Y2.298
X11.182 Y2.517
X11.13 Y2.736
X11.057 Y3.023 Z32.751
X11.014 Y3.174 Z32.752
X10.947 Y3.393 Z32.751
X10.838 Y3.726
X10.723 Y4.05
X10.619 Y4.319 Z32.752
X10.549 Y4.487
X10.453 Y4.706
X10.352 Y4.925
X10.245 Y5.144
X10.132 Y5.363
X10.014 Y5.582
X9.889 Y5.801
X9.743 Y6.041
X9.617 Y6.238
X9.469 Y6.457 Z32.751
X9.305 Y6.691
X9.156 Y6.895
X8.985 Y7.114
X8.867 Y7.26
X8.617 Y7.552
X8.42 Y7.771
X8.211 Y7.993
X7.992 Y8.214
X7.768 Y8.427
X7.523 Y8.646
X7.263 Y8.865
X6.985 Y9.084
X6.897 Y9.151
X6.678 Y9.313
X6.379 Y9.522
X6.24 Y9.613
X6.021 Y9.751
X5.802 Y9.883
X5.583 Y10.01 Z32.752
X5.365 Y10.13
X5.146 Y10.242 Z32.751
X4.826 Y10.397 Z32.752
X4.489 Y10.547
X4.27 Y10.638
X4.051 Y10.723
X3.832 Y10.802 Z32.751
X3.613 Y10.875
X3.394 Y10.945
X3.175 Y11.012
X2.956 Y11.072
X2.737 Y11.128
X2.518 Y11.18
X2.3 Y11.227 Z32.752
X2.062 Y11.273 Z32.751
X1.862 Y11.308 Z32.752
X1.643 Y11.343 Z32.751
X1.424 Y11.373 Z32.752
X1.205 Y11.4
X0.986 Y11.42
X0.767 Y11.437
X0.548 Y11.451
X0.329 Y11.459
X0.11 Y11.463
X-0.109
X-0.328 Y11.46
X-0.546 Y11.451
X-0.765 Y11.439
X-0.984 Y11.422
X-1.203 Y11.399
X-1.422 Y11.371 Z32.751
X-1.641 Y11.341
X-1.86 Y11.307
X-2.079 Y11.269
X-2.298 Y11.228 Z32.752
X-2.517 Y11.18 Z32.751
X-2.736 Y11.129
X-3.026 Y11.054
X-3.174 Y11.013
X-3.393 Y10.946
X-3.735 Y10.835
X-3.83 Y10.802
X-4.049 Y10.722
X-4.319 Y10.616
X-4.487 Y10.546
X-4.824 Y10.397
X-4.925 Y10.35
X-5.144 Y10.243
X-5.363 Y10.13 Z32.752
X-5.582 Y10.011 Z32.751
X-5.801 Y9.885
X-6.04 Y9.741
X-6.239 Y9.615
X-6.381 Y9.522 Z32.752
X-6.695 Y9.303 Z32.751
X-6.895 Y9.155
X-7.114 Y8.984
X-7.263 Y8.865
X-7.552 Y8.62
X-7.771 Y8.423
X-7.997 Y8.208
X-8.214 Y7.99
X-8.428 Y7.763
X-8.647 Y7.519
X-8.866 Y7.263
X-8.987 Y7.114
X-9.085 Y6.991 Z32.752
X-9.158 Y6.895
X-9.317 Y6.676
X-9.522 Y6.381
X-9.616 Y6.238
X-9.756 Y6.02
X-9.888 Y5.801
X-10.012 Y5.582
X-10.13 Y5.363
X-10.243 Y5.144
X-10.35 Y4.925
X-10.451 Y4.706 Z32.751
X-10.546 Y4.487
X-10.636 Y4.268
X-10.721 Y4.05
X-10.801 Y3.831
X-10.875 Y3.612
X-10.946 Y3.393
X-11.014 Y3.174
X-11.074 Y2.955
X-11.13 Y2.736
X-11.182 Y2.517 Z32.752
X-11.23 Y2.298
X-11.274 Y2.07
X-11.31 Y1.861
X-11.343 Y1.642
X-11.372 Y1.423
X-11.399 Y1.204
X-11.421 Y0.985
X-11.439 Y0.766
X-11.452 Y0.547
X-11.46 Y0.328
X-11.465 Y0.11 Z32.753
Y-0.109 Z32.752
X-11.45 Y-0.547
X-11.437 Y-0.766
X-11.42 Y-0.985
X-11.4 Y-1.204
X-11.374 Y-1.423
X-11.343 Y-1.641
X-11.309 Y-1.86
X-11.27 Y-2.079 Z32.751
X-11.229 Y-2.298 Z32.752
X-11.181 Y-2.517 Z32.751
X-11.13 Y-2.736 Z32.752
X-11.055 Y-3.026 Z32.751
X-11.013 Y-3.174
X-10.945 Y-3.393
X-10.836 Y-3.727
X-10.721 Y-4.049
X-10.617 Y-4.321 Z32.752
X-10.548 Y-4.487
X-10.453 Y-4.706
X-10.353 Y-4.925
X-10.245 Y-5.144
X-10.131 Y-5.363
X-10.013 Y-5.581
X-9.887 Y-5.8
X-9.741 Y-6.041
X-9.616 Y-6.238
X-9.47 Y-6.457 Z32.751
X-9.303 Y-6.696 Z32.752
X-9.159 Y-6.895
X-9.085 Y-6.992
X-8.988 Y-7.114
X-8.866 Y-7.264 Z32.751
X-8.617 Y-7.551
X-8.419 Y-7.77 Z32.75
X-8.209 Y-7.993 Z32.751
X-7.99 Y-8.214
X-7.768 Y-8.427
X-7.525 Y-8.646 Z32.752
X-7.266 Y-8.865
X-7.114 Y-8.986 Z32.751
X-6.895 Y-9.156 Z32.752
X-6.676 Y-9.317
X-6.382 Y-9.521
X-6.239 Y-9.614
X-6.02 Y-9.752 Z32.751
X-5.801 Y-9.884
X-5.582 Y-10.011 Z32.752
X-5.363 Y-10.132
X-5.144 Y-10.244
X-4.925 Y-10.351
X-4.706 Y-10.451
X-4.487 Y-10.546
X-4.268 Y-10.638
X-4.049 Y-10.724
X-3.83 Y-10.804
X-3.611 Y-10.877
X-3.393 Y-10.946 Z32.751
X-3.174 Y-11.013 Z32.752
X-2.955 Y-11.073 Z32.751
X-2.804 Y-11.112
X-2.668 Y-11.14 Z32.75
X-2.599 Y-11.15 Z32.749
X-2.53 Y-11.156 Z32.748
X-2.392 Y-11.162 Z32.743
X-2.253 Y-11.158 Z32.737
X-2.114 Y-11.148 Z32.73
X-1.975 Y-11.131 Z32.723
X-1.836 Y-11.11 Z32.715
X-1.559 Y-11.06 Z32.698
X-1.28 Y-11.008 Z32.682
X-1.14 Y-10.986 Z32.675
X-1. Y-10.968 Z32.669
X-0.859 Y-10.956 Z32.664
X-0.718 Y-10.951 Z32.661
X-0.577 Y-10.955 Z32.66
X-0.328 Y-10.966 Z32.661
X-0.109 Y-10.972
X0.11 Y-10.971
X0.329 Y-10.968
X0.548 Y-10.959
X0.767 Y-10.945
X0.986 Y-10.927
X1.205 Y-10.904
X1.424 Y-10.877 Z32.66
X1.712 Y-10.835
X1.862 Y-10.81
X2.081 Y-10.769
X2.3 Y-10.724
X2.518 Y-10.674
X2.753 Y-10.616
X2.956 Y-10.563
X3.175 Y-10.499
X3.497 Y-10.397
X3.613 Y-10.358
X3.832 Y-10.28
X4.098 Y-10.178 Z32.661
X4.27 Y-10.106
X4.489 Y-10.011
X4.708 Y-9.911
X4.927 Y-9.805
X5.146 Y-9.691
X5.365 Y-9.571
X5.583 Y-9.443 Z32.66
X5.813 Y-9.303
X6.021 Y-9.17
X6.151 Y-9.084 Z32.661
X6.459 Y-8.864 Z32.66
X6.678 Y-8.7
X6.897 Y-8.527
X7.116 Y-8.346
X7.276 Y-8.208
X7.554 Y-7.953
X7.773 Y-7.738
X7.992 Y-7.51
X8.211 Y-7.27
X8.429 Y-7.019
X8.533 Y-6.895 Z32.661
X8.708 Y-6.676
X8.87 Y-6.457 Z32.66
X9.086 Y-6.148
X9.173 Y-6.019 Z32.661
X9.314 Y-5.8
X9.447 Y-5.581
X9.574 Y-5.363
X9.694 Y-5.144
X9.807 Y-4.925
X9.913 Y-4.706
X10.013 Y-4.487
X10.108 Y-4.268
X10.181 Y-4.092
X10.28 Y-3.83
X10.358 Y-3.611 Z32.66
X10.431 Y-3.393
X10.501 Y-3.174
X10.566 Y-2.955 Z32.661
X10.623 Y-2.736 Z32.66
X10.676 Y-2.517
X10.725 Y-2.298
X10.769 Y-2.079
X10.809 Y-1.86
X10.844 Y-1.641
X10.875 Y-1.423
X10.902 Y-1.204
X10.925 Y-0.985
X10.945 Y-0.766 Z32.661
X10.96 Y-0.547
X10.969 Y-0.328
X10.975 Y-0.109
X10.974 Y0.11 Z32.66
X10.968 Y0.328 Z32.661
X10.958 Y0.547
X10.944 Y0.766
X10.925 Y0.985 Z32.66
X10.902 Y1.204
X10.875 Y1.423
X10.838 Y1.691
X10.81 Y1.861
X10.771 Y2.08 Z32.661
X10.727 Y2.298 Z32.66
X10.677 Y2.517
X10.619 Y2.752
X10.565 Y2.955
X10.5 Y3.174
X10.4 Y3.485
X10.357 Y3.612
X10.279 Y3.831
X10.181 Y4.089
X10.107 Y4.268 Z32.661
X10.012 Y4.487
X9.912 Y4.706
X9.805 Y4.925
X9.743 Y5.047
X9.574 Y5.363
X9.447 Y5.582
X9.305 Y5.814
X9.172 Y6.02 Z32.66
X9.086 Y6.147
X8.867 Y6.457
X8.705 Y6.676
X8.53 Y6.895
X8.429 Y7.016
X8.211 Y7.269 Z32.659
X7.95 Y7.552
X7.739 Y7.771 Z32.66
X7.515 Y7.99
X7.276 Y8.208
X7.02 Y8.427
X6.897 Y8.528
X6.678 Y8.7
X6.457 Y8.865
X6.148 Y9.084
X6.021 Y9.169
X5.802 Y9.308
X5.583 Y9.441
X5.365 Y9.569
X5.146 Y9.69
X5.049 Y9.741
X4.708 Y9.909
X4.601 Y9.96
X4.27 Y10.106
X4.051 Y10.196
X3.832 Y10.279
X3.613 Y10.357
X3.394 Y10.429
X3.175 Y10.498
X2.956 Y10.563
X2.737 Y10.621
X2.518 Y10.675
X2.3 Y10.724
X2.081 Y10.769
X1.862 Y10.809
X1.643 Y10.845
X1.424 Y10.877
X1.205 Y10.904 Z32.661
X0.986 Y10.927
X0.767 Y10.944
X0.548 Y10.958
X0.329 Y10.967
X0.11 Y10.971
X-0.109
X-0.328 Y10.968
X-0.546 Y10.959
X-0.765 Y10.946
X-0.984 Y10.927
X-1.203 Y10.904 Z32.66
X-1.422 Y10.875
X-1.695 Y10.835
X-1.86 Y10.808
X-2.079 Y10.769
X-2.298 Y10.725
X-2.517 Y10.675
X-2.758 Y10.616
X-2.955 Y10.563
X-3.174 Y10.499
X-3.493 Y10.397
X-3.611 Y10.358
X-3.83 Y10.278
X-4.09 Y10.178
X-4.268 Y10.105
X-4.599 Y9.96
X-4.706 Y9.91
X-4.925 Y9.803
X-5.144 Y9.69
X-5.363 Y9.57
X-5.582 Y9.443
X-5.813 Y9.303
X-6.02 Y9.171
X-6.15 Y9.084
X-6.46 Y8.865
X-6.676 Y8.703
X-6.895 Y8.53
X-7.02 Y8.427
X-7.275 Y8.208
X-7.552 Y7.953
X-7.771 Y7.739
X-7.99 Y7.511 Z32.659
X-8.209 Y7.271
X-8.428 Y7.019 Z32.66
X-8.532 Y6.895
X-8.706 Y6.676 Z32.661
X-8.869 Y6.457 Z32.66
X-9.085 Y6.15
X-9.172 Y6.02
X-9.313 Y5.801 Z32.661
X-9.446 Y5.582
X-9.571 Y5.363
X-9.69 Y5.144 Z32.66
X-9.803 Y4.925
X-9.91 Y4.706
X-10.01 Y4.487
X-10.105 Y4.268
X-10.194 Y4.05
X-10.278 Y3.831
X-10.356 Y3.612
X-10.429 Y3.393
X-10.499 Y3.174
X-10.564 Y2.955
X-10.623 Y2.736
X-10.677 Y2.517
X-10.727 Y2.298 Z32.661
X-10.771 Y2.08 Z32.66
X-10.811 Y1.861 Z32.661
X-10.846 Y1.642 Z32.66
X-10.876 Y1.423
X-10.904 Y1.204
X-10.927 Y0.985 Z32.661
X-10.946 Y0.766
X-10.96 Y0.547
X-10.968 Y0.328
X-10.973 Y0.11
Y-0.109
X-10.957 Y-0.547 Z32.66
X-10.944 Y-0.766 Z32.661
X-10.927 Y-0.985 Z32.66
X-10.905 Y-1.204 Z32.661
X-10.878 Y-1.423 Z32.66
X-10.836 Y-1.704
X-10.81 Y-1.86
X-10.77 Y-2.079
X-10.725 Y-2.298
X-10.676 Y-2.517
X-10.617 Y-2.757
X-10.564 Y-2.955
X-10.499 Y-3.174
X-10.398 Y-3.486
X-10.356 Y-3.611
X-10.278 Y-3.83
X-10.179 Y-4.091
X-10.106 Y-4.268
X-10.012 Y-4.487
X-9.913 Y-4.706 Z32.661
X-9.805 Y-4.925
X-9.691 Y-5.144
X-9.572 Y-5.363
X-9.445 Y-5.581 Z32.66
X-9.303 Y-5.814
X-9.172 Y-6.019
X-9.023 Y-6.238
X-8.866 Y-6.462
X-8.707 Y-6.676 Z32.661
X-8.532 Y-6.895 Z32.66
X-8.428 Y-7.02
X-8.209 Y-7.27 Z32.659
X-7.95 Y-7.551
X-7.738 Y-7.77
X-7.515 Y-7.989 Z32.66
X-7.277 Y-8.208
X-7.114 Y-8.35
X-7.023 Y-8.427 Z32.661
X-6.895 Y-8.532 Z32.66
X-6.676 Y-8.704
X-6.457 Y-8.868
X-6.152 Y-9.084
X-6.02 Y-9.17
X-5.801 Y-9.309
X-5.582 Y-9.442
X-5.363 Y-9.57 Z32.661
X-5.144 Y-9.691
X-4.925 Y-9.804
X-4.706 Y-9.911
X-4.487 Y-10.01 Z32.66
X-4.268 Y-10.105
X-4.049 Y-10.196
X-3.83 Y-10.281 Z32.661
X-3.611 Y-10.359
X-3.393 Y-10.431 Z32.66
X-3.174 Y-10.499
X-2.955 Y-10.564
X-2.685 Y-10.635
X-2.517 Y-10.677
X-2.298 Y-10.727 Z32.661
X-2.079 Y-10.771 Z32.66
X-1.72 Y-10.835
X-1.422 Y-10.878
X-1.203 Y-10.904 Z32.661
X-0.984 Y-10.926 Z32.66
X-0.765 Y-10.943
X-0.577 Y-10.955
X-0.438 Y-10.957
X-0.369 Y-10.953 Z32.659
X-0.3 Y-10.947 Z32.657
X-0.163 Y-10.926 Z32.652
X-0.027 Y-10.896 Z32.647
X0.107 Y-10.858 Z32.64
X0.24 Y-10.815 Z32.632
X0.372 Y-10.767 Z32.624
X0.634 Y-10.663 Z32.607
X0.897 Y-10.556 Z32.59
X1.03 Y-10.506 Z32.583
X1.164 Y-10.459 Z32.576
X1.299 Y-10.418 Z32.571
X1.437 Y-10.384 Z32.568
X1.576 Y-10.358 Z32.567
X1.643 Y-10.348
X1.862 Y-10.31
X2.081 Y-10.268
X2.3 Y-10.22
X2.518 Y-10.168
X2.737 Y-10.113
X2.956 Y-10.051
X3.254 Y-9.959
X3.394 Y-9.913
X3.613 Y-9.836
X3.868 Y-9.74 Z32.568
X4.051 Y-9.665
X4.381 Y-9.521
X4.489 Y-9.471
X4.708 Y-9.365
X4.927 Y-9.251
X5.146 Y-9.13
X5.365 Y-9.001 Z32.567
X5.586 Y-8.865
X5.802 Y-8.725
X5.92 Y-8.646
X6.223 Y-8.427
X6.509 Y-8.208
X6.678 Y-8.072
X6.897 Y-7.886
X7.028 Y-7.77
X7.116 Y-7.69
X7.262 Y-7.551
X7.481 Y-7.333
X7.688 Y-7.114
X7.886 Y-6.895
X8.076 Y-6.676
X8.255 Y-6.457 Z32.568
X8.429 Y-6.226
X8.648 Y-5.917
X8.728 Y-5.8 Z32.567
X8.87 Y-5.581 Z32.568
X9.005 Y-5.363
X9.086 Y-5.226
X9.253 Y-4.925
X9.305 Y-4.827
X9.367 Y-4.706
X9.473 Y-4.487
X9.524 Y-4.378
X9.667 Y-4.049
X9.755 Y-3.83
X9.837 Y-3.611
X9.914 Y-3.393 Z32.567
X9.985 Y-3.174
X10.053 Y-2.955
X10.115 Y-2.736
X10.181 Y-2.476
X10.222 Y-2.298
X10.268 Y-2.079
X10.309 Y-1.86
X10.347 Y-1.641
X10.378 Y-1.423
X10.407 Y-1.204
X10.431 Y-0.985
X10.451 Y-0.766
X10.467 Y-0.547 Z32.568
X10.478 Y-0.328
X10.483 Y-0.109 Z32.566
X10.482 Y0.11
X10.476 Y0.328 Z32.567
X10.466 Y0.547 Z32.568
X10.451 Y0.766 Z32.567
X10.431 Y0.985
X10.4 Y1.267
X10.379 Y1.423
X10.348 Y1.642
X10.311 Y1.861
X10.27 Y2.08
X10.223 Y2.298
X10.171 Y2.517
X10.115 Y2.736
X10.053 Y2.955
X9.962 Y3.244
X9.912 Y3.393
X9.836 Y3.612
X9.743 Y3.859
X9.666 Y4.05 Z32.568
X9.524 Y4.374
X9.472 Y4.487
X9.365 Y4.706
X9.305 Y4.824
X9.133 Y5.144
X9.086 Y5.226
X9.005 Y5.363
X8.867 Y5.586
X8.727 Y5.801 Z32.567
X8.576 Y6.02
X8.418 Y6.238
X8.251 Y6.457
X8.074 Y6.676
X7.885 Y6.895 Z32.566
X7.773 Y7.021
X7.554 Y7.256
X7.335 Y7.479 Z32.567
X7.261 Y7.552
X7.027 Y7.771
X6.897 Y7.886
X6.678 Y8.073
X6.459 Y8.248
X6.222 Y8.427
X5.917 Y8.646
X5.802 Y8.724
X5.583 Y8.865
X5.365 Y9.
X5.146 Y9.129
X4.927 Y9.249
X4.826 Y9.303 Z32.568
X4.489 Y9.47 Z32.567
X4.378 Y9.522
X4.051 Y9.665
X3.832 Y9.753
X3.613 Y9.836
X3.394 Y9.912
X3.175 Y9.983
X2.956 Y10.051
X2.737 Y10.113
X2.48 Y10.178
X2.3 Y10.221
X2.081 Y10.267
X1.862 Y10.309
X1.643 Y10.348
X1.424 Y10.381
X1.205 Y10.409 Z32.568
X0.986 Y10.433 Z32.567
X0.767 Y10.451 Z32.568
X0.548 Y10.466
X0.329 Y10.475
X0.11 Y10.48
X-0.109
X-0.328 Y10.476
X-0.546 Y10.466
X-0.765 Y10.453
X-0.984 Y10.433
X-1.288 Y10.397 Z32.567
X-1.641 Y10.346
X-1.86 Y10.309
X-2.079 Y10.268
X-2.298 Y10.221
X-2.517 Y10.17
X-2.736 Y10.114
X-2.955 Y10.051
X-3.25 Y9.96
X-3.393 Y9.913
X-3.611 Y9.835
X-3.861 Y9.741
X-4.049 Y9.664
X-4.375 Y9.522
X-4.487 Y9.47
X-4.706 Y9.363
X-4.925 Y9.25
X-5.144 Y9.129
X-5.363 Y9.001
X-5.586 Y8.865
X-5.801 Y8.727
X-5.919 Y8.646
X-6.239 Y8.417
X-6.457 Y8.25
X-6.676 Y8.074
X-6.895 Y7.887
X-7.027 Y7.771
X-7.114 Y7.69
X-7.333 Y7.481
X-7.552 Y7.258 Z32.566
X-7.771 Y7.023
X-7.99 Y6.775 Z32.567
X-8.074 Y6.676
X-8.254 Y6.457
X-8.428 Y6.228
X-8.647 Y5.919
X-8.727 Y5.801
X-8.87 Y5.582
X-9.004 Y5.363 Z32.568
X-9.131 Y5.144
X-9.25 Y4.925 Z32.567
X-9.363 Y4.706
X-9.47 Y4.487
X-9.57 Y4.268
X-9.664 Y4.05
X-9.752 Y3.831
X-9.834 Y3.612
X-9.912 Y3.393
X-9.984 Y3.174
X-10.052 Y2.955
X-10.114 Y2.736
X-10.179 Y2.484
X-10.223 Y2.298
X-10.27 Y2.08
X-10.312 Y1.861 Z32.568
X-10.349 Y1.642 Z32.567
X-10.398 Y1.289
X-10.433 Y0.985 Z32.568
X-10.453 Y0.766
X-10.467 Y0.547
X-10.477 Y0.328
X-10.482 Y0.11
Y-0.109
X-10.475 Y-0.328
X-10.465 Y-0.547
X-10.451 Y-0.766
X-10.433 Y-0.985 Z32.567
X-10.41 Y-1.204 Z32.568
X-10.381 Y-1.423 Z32.567
X-10.348 Y-1.641
X-10.31 Y-1.86
X-10.268 Y-2.079
X-10.222 Y-2.298
X-10.17 Y-2.517
X-10.114 Y-2.736
X-10.052 Y-2.955
X-9.96 Y-3.245
X-9.911 Y-3.393
X-9.834 Y-3.611
X-9.741 Y-3.861
X-9.665 Y-4.049
X-9.522 Y-4.378 Z32.568
X-9.473 Y-4.487
X-9.365 Y-4.706
X-9.251 Y-4.925
X-9.131 Y-5.144
X-9.085 Y-5.226
X-9.003 Y-5.363 Z32.567
X-8.866 Y-5.587
X-8.727 Y-5.8
X-8.577 Y-6.019
X-8.42 Y-6.238
X-8.255 Y-6.457
X-8.075 Y-6.676
X-7.885 Y-6.895 Z32.566
X-7.686 Y-7.114
X-7.479 Y-7.333
X-7.26 Y-7.551 Z32.567
X-7.114 Y-7.691
X-7.028 Y-7.77
X-6.895 Y-7.889
X-6.78 Y-7.989
X-6.676 Y-8.077 Z32.568
X-6.457 Y-8.252 Z32.567
X-6.227 Y-8.427
X-5.921 Y-8.646
X-5.801 Y-8.727 Z32.568
X-5.582 Y-8.866 Z32.567
X-5.223 Y-9.084
X-5.144 Y-9.129 Z32.568
X-4.925 Y-9.251
X-4.827 Y-9.303
X-4.706 Y-9.364
X-4.487 Y-9.471
X-4.378 Y-9.521
X-4.049 Y-9.664 Z32.567
X-3.83 Y-9.754
X-3.611 Y-9.838 Z32.568
X-3.393 Y-9.915
X-3.174 Y-9.984 Z32.567
X-2.955 Y-10.052
X-2.736 Y-10.114
X-2.486 Y-10.178
X-2.298 Y-10.223
X-2.079 Y-10.27
X-1.86 Y-10.312
X-1.641 Y-10.35
X-1.307 Y-10.397
X-0.984 Y-10.432
X-0.765 Y-10.45
X-0.546 Y-10.465
X-0.328 Y-10.475 Z32.568
X-0.109 Y-10.481
X0.11 Y-10.48
X0.329 Y-10.477
X0.548 Y-10.467
X0.767 Y-10.452
X0.986 Y-10.433 Z32.567
X1.205 Y-10.409 Z32.568
X1.424 Y-10.381 Z32.567
X1.576 Y-10.358
X1.712 Y-10.331 Z32.566
X1.779 Y-10.313 Z32.565
X1.845 Y-10.292 Z32.563
X1.974 Y-10.243 Z32.558
X2.101 Y-10.185 Z32.552
X2.225 Y-10.121 Z32.545
X2.346 Y-10.051 Z32.537
X2.465 Y-9.977 Z32.528
X2.7 Y-9.822 Z32.511
X2.936 Y-9.664 Z32.494
X3.055 Y-9.587 Z32.487
X3.177 Y-9.515 Z32.481
X3.301 Y-9.447 Z32.476
X3.428 Y-9.385 Z32.473
X3.559 Y-9.332 Z32.472
X3.637 Y-9.303
X3.832 Y-9.225
X4.158 Y-9.084
X4.27 Y-9.032 Z32.473
X4.489 Y-8.925 Z32.472
X4.608 Y-8.865 Z32.473
X4.927 Y-8.69 Z32.472
X5.146 Y-8.56
X5.365 Y-8.424
X5.583 Y-8.281
X5.689 Y-8.208
X5.988 Y-7.989 Z32.471
X6.27 Y-7.77
X6.459 Y-7.615 Z32.472
X6.678 Y-7.425
X6.78 Y-7.333
X6.897 Y-7.221 Z32.471
X7.007 Y-7.114 Z32.472
X7.116 Y-7.004 Z32.471
X7.335 Y-6.773
X7.424 Y-6.676
X7.617 Y-6.457 Z32.472
X7.8 Y-6.238
X7.992 Y-5.992
X8.13 Y-5.8
X8.283 Y-5.581
X8.429 Y-5.359
X8.563 Y-5.144
X8.648 Y-5.002 Z32.473
X8.693 Y-4.925 Z32.472
X8.867 Y-4.606 Z32.473
X8.927 Y-4.487
X9.034 Y-4.268
X9.132 Y-4.049 Z32.472
X9.226 Y-3.83
X9.313 Y-3.611
X9.394 Y-3.393
X9.469 Y-3.174
X9.539 Y-2.955
X9.605 Y-2.736
X9.665 Y-2.517
X9.743 Y-2.191
X9.81 Y-1.86 Z32.471
X9.849 Y-1.641 Z32.472
X9.883 Y-1.423 Z32.471
X9.912 Y-1.204
X9.937 Y-0.985 Z32.472
X9.962 Y-0.733
X9.975 Y-0.547 Z32.473
X9.987 Y-0.328 Z32.472
X9.992 Y-0.109
X9.991 Y0.11 Z32.471
X9.985 Y0.328 Z32.472
X9.974 Y0.547
X9.958 Y0.766
X9.937 Y0.985
X9.913 Y1.204
X9.884 Y1.423
X9.85 Y1.642
X9.812 Y1.861
X9.768 Y2.08
X9.719 Y2.298
X9.665 Y2.517
X9.605 Y2.736
X9.524 Y3.001 Z32.471
X9.468 Y3.174
X9.392 Y3.393 Z32.472
X9.305 Y3.629
X9.225 Y3.831
X9.086 Y4.151
X9.033 Y4.268
X8.867 Y4.603
X8.693 Y4.925
X8.648 Y5.002 Z32.473
X8.563 Y5.144 Z32.472
X8.427 Y5.363
X8.283 Y5.582
X8.211 Y5.686
X7.992 Y5.988
X7.773 Y6.269 Z32.471
X7.615 Y6.457
X7.422 Y6.676
X7.219 Y6.895
X7.005 Y7.114
X6.897 Y7.22
X6.778 Y7.333
X6.678 Y7.424
X6.459 Y7.616 Z32.472
X6.24 Y7.795 Z32.471
X5.988 Y7.99
X5.686 Y8.208
X5.583 Y8.28 Z32.472
X5.357 Y8.427 Z32.471
X5.146 Y8.558 Z32.472
X4.927 Y8.688
X4.708 Y8.81
X4.604 Y8.865
X4.27 Y9.03
X4.155 Y9.084
X3.832 Y9.224
X3.613 Y9.311
X3.394 Y9.392
X3.175 Y9.468 Z32.471
X2.956 Y9.537
X2.737 Y9.603
X2.518 Y9.662 Z32.472
X2.198 Y9.741 Z32.471
X1.862 Y9.81 Z32.472
X1.643 Y9.849
X1.424 Y9.884
X1.205 Y9.915
X0.986 Y9.939
X0.761 Y9.96
X0.548 Y9.974
X0.329 Y9.984 Z32.473
X0.11 Y9.989 Z32.472
X-0.109 Z32.473
X-0.328 Y9.985
X-0.546 Y9.975 Z32.472
X-0.77 Y9.96
X-0.984 Y9.939
X-1.203 Y9.914
X-1.422 Y9.882 Z32.471
X-1.641 Y9.848
X-1.86 Y9.81
X-2.197 Y9.741 Z32.472
X-2.517 Y9.663 Z32.471
X-2.736 Y9.603
X-3.006 Y9.522
X-3.174 Y9.468 Z32.472
X-3.393 Y9.392
X-3.631 Y9.303
X-3.83 Y9.223
X-4.151 Y9.084
X-4.268 Y9.031
X-4.603 Y8.865
X-4.706 Y8.81
X-4.925 Y8.689
X-5.144 Y8.56
X-5.363 Y8.425
X-5.582 Y8.282
X-5.689 Y8.208
X-5.801 Y8.129
X-6.02 Y7.967 Z32.471
X-6.271 Y7.771
X-6.457 Y7.617
X-6.676 Y7.425
X-6.778 Y7.333
X-6.895 Y7.221
X-7.005 Y7.114
X-7.114 Y7.004
X-7.333 Y6.774
X-7.423 Y6.676
X-7.616 Y6.457
X-7.799 Y6.238 Z32.472
X-7.99 Y5.994
X-8.209 Y5.689
X-8.283 Y5.582
X-8.428 Y5.362
X-8.562 Y5.144
X-8.691 Y4.925
X-8.811 Y4.706
X-8.924 Y4.487
X-9.031 Y4.268
X-9.13 Y4.05
X-9.223 Y3.831
X-9.31 Y3.612
X-9.391 Y3.393 Z32.471
X-9.467 Y3.174
X-9.538 Y2.955
X-9.604 Y2.736 Z32.472
X-9.664 Y2.517
X-9.741 Y2.204
X-9.812 Y1.861
X-9.851 Y1.642
X-9.885 Y1.423
X-9.914 Y1.204
X-9.939 Y0.985
X-9.96 Y0.76
X-9.975 Y0.547 Z32.473
X-9.985 Y0.328 Z32.472
X-9.991 Y0.11 Z32.473
Y-0.109
X-9.984 Y-0.328 Z32.472
X-9.974 Y-0.547
X-9.959 Y-0.766
X-9.939 Y-0.985
X-9.915 Y-1.204
X-9.885 Y-1.423
X-9.851 Y-1.641
X-9.811 Y-1.86
X-9.741 Y-2.197
X-9.664 Y-2.517 Z32.471
X-9.604 Y-2.736
X-9.522 Y-3.003
X-9.467 Y-3.174
X-9.391 Y-3.393
X-9.303 Y-3.631 Z32.472
X-9.224 Y-3.83
X-9.085 Y-4.156
X-9.033 Y-4.268
X-8.926 Y-4.487
X-8.866 Y-4.604
X-8.691 Y-4.925
X-8.647 Y-5.002
X-8.562 Y-5.144
X-8.426 Y-5.363
X-8.283 Y-5.581
X-8.13 Y-5.8
X-7.97 Y-6.019
X-7.771 Y-6.274
X-7.616 Y-6.457 Z32.471
X-7.422 Y-6.676
X-7.219 Y-6.895
X-7.114 Y-7.003
X-6.895 Y-7.221
X-6.779 Y-7.333
X-6.676 Y-7.427 Z32.472
X-6.536 Y-7.551
X-6.457 Y-7.619
X-6.239 Y-7.799
X-5.992 Y-7.989
X-5.69 Y-8.208
X-5.582 Y-8.282
X-5.358 Y-8.427
X-4.999 Y-8.646
X-4.925 Y-8.689
X-4.706 Y-8.811
X-4.606 Y-8.865
X-4.487 Y-8.924
X-4.268 Y-9.031
X-4.049 Y-9.13
X-3.83 Y-9.224
X-3.611 Y-9.312
X-3.393 Y-9.394
X-3.174 Y-9.469
X-2.955 Y-9.538
X-2.736 Y-9.604
X-2.517 Y-9.663
X-2.298 Y-9.719
X-2.079 Y-9.768
X-1.86 Y-9.812
X-1.641 Y-9.852
X-1.422 Y-9.886
X-1.203 Y-9.915
X-0.984 Y-9.939
X-0.748 Y-9.959
X-0.546 Y-9.973
X-0.328 Y-9.984
X-0.109 Y-9.99
X0.11 Y-9.989 Z32.473
X0.329 Y-9.985
X0.548 Y-9.975 Z32.472
X0.773 Y-9.959
X0.986 Y-9.939
X1.205 Y-9.915
X1.424 Y-9.885
X1.643 Y-9.85
X1.862 Y-9.81
X2.196 Y-9.74
X2.518 Y-9.662 Z32.471
X2.737 Y-9.603
X3.009 Y-9.521 Z32.472
X3.175 Y-9.469
X3.394 Y-9.393
X3.559 Y-9.332
X3.686 Y-9.277 Z32.471
X3.748 Y-9.245 Z32.47
X3.808 Y-9.211 Z32.468
X3.925 Y-9.136 Z32.464
X4.036 Y-9.053 Z32.457
X4.144 Y-8.964 Z32.45
X4.247 Y-8.87 Z32.442
X4.347 Y-8.772 Z32.433
X4.543 Y-8.569 Z32.414
X4.739 Y-8.362 Z32.396
X4.839 Y-8.261 Z32.388
X4.941 Y-8.163 Z32.381
X5.047 Y-8.069 Z32.376
X5.157 Y-7.98 Z32.373
X5.273 Y-7.898 Z32.372
X5.365 Y-7.837
X5.583 Y-7.679
X5.802 Y-7.514 Z32.371
X6.031 Y-7.333
X6.29 Y-7.114 Z32.372
X6.459 Y-6.962
X6.678 Y-6.75
X6.752 Y-6.676
X6.96 Y-6.457 Z32.371
X7.158 Y-6.238 Z32.372
X7.346 Y-6.019
X7.554 Y-5.758
X7.684 Y-5.581
X7.839 Y-5.363
X7.992 Y-5.134
X8.123 Y-4.925
X8.211 Y-4.78 Z32.373
X8.254 Y-4.706
X8.429 Y-4.386
X8.489 Y-4.268
X8.595 Y-4.049
X8.693 Y-3.83
X8.786 Y-3.611
X8.872 Y-3.393 Z32.372
X8.951 Y-3.174
X9.025 Y-2.955
X9.094 Y-2.736
X9.157 Y-2.517
X9.214 Y-2.298
X9.266 Y-2.079
X9.311 Y-1.86
X9.351 Y-1.641 Z32.371
X9.387 Y-1.423
X9.418 Y-1.204 Z32.372
X9.444 Y-0.985
X9.467 Y-0.766
X9.484 Y-0.547 Z32.373
X9.496 Y-0.328
X9.502 Y-0.109 Z32.374
X9.501 Y0.11
X9.495 Y0.328 Z32.373
X9.483 Y0.547
X9.466 Y0.766 Z32.372
X9.444 Y0.985
X9.419 Y1.204
X9.388 Y1.423
X9.353 Y1.642
X9.305 Y1.896
X9.267 Y2.08
X9.214 Y2.298
X9.157 Y2.517
X9.086 Y2.758
X9.024 Y2.955
X8.95 Y3.174
X8.867 Y3.401
X8.785 Y3.612
X8.648 Y3.931
X8.594 Y4.05 Z32.373
X8.487 Y4.268 Z32.372
X8.429 Y4.383 Z32.373
X8.254 Y4.706
X8.211 Y4.78
X8.122 Y4.925 Z32.372
X7.985 Y5.144
X7.839 Y5.363
X7.773 Y5.457
X7.682 Y5.582
X7.517 Y5.801 Z32.371
X7.335 Y6.029
X7.116 Y6.283
X6.958 Y6.457
X6.749 Y6.676
X6.678 Y6.749
X6.459 Y6.961 Z32.372
X6.24 Y7.157
X6.021 Y7.342 Z32.371
X5.754 Y7.552
X5.583 Y7.678
X5.365 Y7.836 Z32.372
X5.132 Y7.99 Z32.371
X4.927 Y8.117
X4.708 Y8.249 Z32.372
X4.489 Y8.371
X4.384 Y8.427
X4.051 Y8.592
X3.934 Y8.646
X3.613 Y8.784
X3.394 Y8.87
X3.175 Y8.95
X2.956 Y9.023 Z32.371
X2.737 Y9.091
X2.518 Y9.155
X2.3 Y9.212 Z32.372
X2.081 Y9.265 Z32.371
X1.862 Y9.31 Z32.372
X1.643 Y9.352
X1.424 Y9.388
X1.205 Y9.42
X0.986 Y9.447
X0.767 Y9.467
X0.548 Y9.484
X0.329 Y9.494 Z32.373
X0.11 Y9.499 Z32.372
X-0.109 Z32.373
X-0.328 Y9.494
X-0.546 Y9.484
X-0.765 Y9.468
X-0.984 Y9.446 Z32.372
X-1.203 Y9.419
X-1.422 Y9.387 Z32.371
X-1.641 Y9.351
X-1.896 Y9.303 Z32.372
X-2.079 Y9.265
X-2.298 Y9.213 Z32.371
X-2.517 Y9.155
X-2.763 Y9.084
X-2.955 Y9.024
X-3.174 Y8.95 Z32.372
X-3.404 Y8.865
X-3.611 Y8.783
X-3.93 Y8.646
X-4.049 Y8.592
X-4.268 Y8.485
X-4.383 Y8.427
X-4.487 Y8.372
X-4.706 Y8.25
X-4.925 Y8.119
X-5.144 Y7.983
X-5.363 Y7.838
X-5.459 Y7.771
X-5.582 Y7.682
X-5.801 Y7.517 Z32.371
X-6.032 Y7.333
X-6.289 Y7.114
X-6.457 Y6.962
X-6.676 Y6.75
X-6.75 Y6.676
X-6.958 Y6.457
X-7.156 Y6.238
X-7.344 Y6.02 Z32.372
X-7.552 Y5.759
X-7.684 Y5.582
X-7.771 Y5.46
X-7.839 Y5.363
X-7.99 Y5.136
X-8.122 Y4.925
X-8.252 Y4.706
X-8.372 Y4.487
X-8.486 Y4.268
X-8.592 Y4.05
X-8.69 Y3.831
X-8.783 Y3.612
X-8.869 Y3.393 Z32.371
X-8.949 Y3.174
X-9.023 Y2.955
X-9.093 Y2.736
X-9.156 Y2.517 Z32.372
X-9.214 Y2.298
X-9.267 Y2.08
X-9.313 Y1.861
X-9.354 Y1.642
X-9.389 Y1.423
X-9.42 Y1.204
X-9.446 Y0.985
X-9.468 Y0.766
X-9.484 Y0.547 Z32.373
X-9.495 Y0.328
X-9.501 Y0.11
Y-0.109
X-9.493 Y-0.328
X-9.483 Y-0.547 Z32.372
X-9.467 Y-0.766
X-9.447 Y-0.985
X-9.421 Y-1.204
X-9.388 Y-1.43
X-9.353 Y-1.641
X-9.303 Y-1.898
X-9.266 Y-2.079
X-9.213 Y-2.298
X-9.156 Y-2.517
X-9.085 Y-2.76 Z32.371
X-9.023 Y-2.955
X-8.948 Y-3.174
X-8.866 Y-3.402 Z32.372
X-8.784 Y-3.611
X-8.647 Y-3.935
X-8.595 Y-4.049 Z32.373
X-8.487 Y-4.268 Z32.372
X-8.428 Y-4.384
X-8.252 Y-4.706
X-8.121 Y-4.925
X-7.984 Y-5.144
X-7.839 Y-5.363
X-7.771 Y-5.46
X-7.684 Y-5.581
X-7.52 Y-5.8
X-7.333 Y-6.033
X-7.114 Y-6.285 Z32.371
X-6.895 Y-6.523
X-6.749 Y-6.676
X-6.528 Y-6.895 Z32.372
X-6.457 Y-6.962 Z32.371
X-6.239 Y-7.161 Z32.372
X-6.02 Y-7.345
X-5.758 Y-7.551
X-5.461 Y-7.77
X-5.363 Y-7.839
X-5.134 Y-7.989
X-4.777 Y-8.208
X-4.706 Y-8.25
X-4.487 Y-8.372
X-4.386 Y-8.427 Z32.373
X-4.268 Y-8.486 Z32.372
X-4.049 Y-8.593
X-3.83 Y-8.691
X-3.611 Y-8.784
X-3.393 Y-8.872
X-3.174 Y-8.952
X-2.955 Y-9.025
X-2.736 Y-9.092
X-2.517 Y-9.156 Z32.371
X-2.298 Y-9.214 Z32.372
X-2.079 Y-9.267
X-1.86 Y-9.312
X-1.641 Y-9.354
X-1.422 Y-9.39
X-1.203 Y-9.421
X-0.984 Y-9.446
X-0.765 Y-9.466
X-0.546 Y-9.482
X-0.328 Y-9.493
X-0.109 Y-9.5 Z32.373
X0.11 Y-9.499
X0.329 Y-9.495
X0.548 Y-9.484 Z32.372
X0.767 Y-9.468
X0.986 Y-9.447
X1.205 Y-9.42
X1.424 Y-9.389
X1.643 Y-9.352
X1.9 Y-9.303 Z32.371
X2.081 Y-9.264 Z32.372
X2.3 Y-9.211 Z32.371
X2.518 Y-9.154 Z32.372
X2.765 Y-9.084
X2.956 Y-9.024
X3.175 Y-8.95
X3.41 Y-8.865
X3.613 Y-8.785
X3.937 Y-8.646
X4.051 Y-8.593 Z32.373
X4.27 Y-8.487
X4.388 Y-8.427
X4.708 Y-8.25 Z32.372
X4.927 Y-8.119
X5.146 Y-7.982
X5.273 Y-7.898
X5.384 Y-7.815 Z32.371
X5.437 Y-7.771 Z32.369
X5.488 Y-7.724 Z32.368
X5.584 Y-7.624 Z32.363
X5.674 Y-7.518 Z32.356
X5.758 Y-7.407 Z32.348
X5.838 Y-7.291 Z32.34
X5.913 Y-7.174 Z32.331
X6.057 Y-6.931 Z32.312
X6.201 Y-6.685 Z32.294
X6.275 Y-6.564 Z32.286
X6.352 Y-6.445 Z32.279
X6.433 Y-6.329 Z32.274
X6.52 Y-6.216 Z32.271
X6.613 Y-6.109 Z32.269
X6.696 Y-6.019
X6.897 Y-5.79 Z32.27
X7.116 Y-5.523
X7.237 Y-5.363
X7.335 Y-5.229
X7.395 Y-5.144 Z32.271
X7.554 Y-4.908
X7.682 Y-4.706 Z32.27
X7.815 Y-4.487 Z32.271
X7.937 Y-4.268
X7.992 Y-4.166
X8.051 Y-4.049
X8.157 Y-3.83
X8.255 Y-3.611
X8.346 Y-3.393
X8.43 Y-3.174 Z32.27
X8.508 Y-2.955
X8.581 Y-2.736
X8.648 Y-2.515
X8.709 Y-2.298
X8.763 Y-2.079
X8.811 Y-1.86
X8.867 Y-1.567
X8.891 Y-1.423
X8.923 Y-1.204
X8.951 Y-0.985
X8.975 Y-0.766
X8.993 Y-0.547 Z32.271
X9.006 Y-0.328
X9.012 Y-0.109
X9.011 Y0.11
X9.005 Y0.328
X8.992 Y0.547
X8.974 Y0.766 Z32.27
X8.951 Y0.985
X8.925 Y1.204
X8.892 Y1.423
X8.855 Y1.642
X8.813 Y1.861
X8.763 Y2.08
X8.709 Y2.298
X8.647 Y2.517
X8.58 Y2.736
X8.507 Y2.955
X8.429 Y3.174
X8.345 Y3.393
X8.253 Y3.612
X8.156 Y3.831 Z32.271
X8.049 Y4.05
X7.992 Y4.165
X7.815 Y4.487
X7.682 Y4.706 Z32.27
X7.542 Y4.925
X7.394 Y5.144
X7.235 Y5.363
X7.116 Y5.519
X6.886 Y5.801 Z32.269
X6.678 Y6.038
X6.459 Y6.272
X6.24 Y6.492 Z32.27
X6.021 Y6.697
X5.792 Y6.895
X5.52 Y7.114
X5.226 Y7.333
X5.146 Y7.391
X4.906 Y7.552
X4.708 Y7.677
X4.489 Y7.81
X4.27 Y7.933
X4.165 Y7.99 Z32.271
X4.051 Y8.047 Z32.27
X3.832 Y8.154 Z32.271
X3.714 Y8.208
X3.394 Y8.344 Z32.27
X3.175 Y8.429
X2.956 Y8.507
X2.737 Y8.579
X2.515 Y8.646 Z32.269
X2.3 Y8.706 Z32.27
X2.081 Y8.761
X1.862 Y8.81
X1.582 Y8.865
X1.424 Y8.892
X1.205 Y8.925
X0.986 Y8.953
X0.767 Y8.975 Z32.271
X0.548 Y8.993
X0.329 Y9.004
X0.11 Y9.009
X-0.109 Y9.01
X-0.328 Y9.004
X-0.546 Y8.993
X-0.765 Y8.976
X-0.984 Y8.953 Z32.27
X-1.203 Y8.924
X-1.422 Y8.891
X-1.641 Y8.853
X-1.86 Y8.81
X-2.079 Y8.762
X-2.298 Y8.707
X-2.517 Y8.646
X-2.736 Y8.58
X-2.955 Y8.507
X-3.177 Y8.427
X-3.393 Y8.343
X-3.611 Y8.251
X-3.83 Y8.154
X-4.049 Y8.047
X-4.164 Y7.99 Z32.271
X-4.268 Y7.933 Z32.27
X-4.487 Y7.811
X-4.706 Y7.679
X-4.925 Y7.541
X-5.144 Y7.394
X-5.363 Y7.234
X-5.521 Y7.114
X-5.801 Y6.888
X-6.043 Y6.676
X-6.275 Y6.457
X-6.492 Y6.238 Z32.269
X-6.695 Y6.02
X-6.895 Y5.791 Z32.27
X-7.114 Y5.523
X-7.236 Y5.363
X-7.395 Y5.144
X-7.552 Y4.911
X-7.681 Y4.706
X-7.813 Y4.487 Z32.271
X-7.934 Y4.268
X-7.99 Y4.163
X-8.048 Y4.05 Z32.27
X-8.154 Y3.831
X-8.209 Y3.711
X-8.343 Y3.393
X-8.428 Y3.174
X-8.506 Y2.955
X-8.579 Y2.736
X-8.647 Y2.517
X-8.708 Y2.298
X-8.763 Y2.08
X-8.813 Y1.861
X-8.866 Y1.588
X-8.893 Y1.423
X-8.926 Y1.204
X-8.953 Y0.985
X-8.976 Y0.766 Z32.271
X-8.994 Y0.547
X-9.005 Y0.328
X-9.011 Y0.11
Y-0.109
X-9.003 Y-0.328
X-8.992 Y-0.547
X-8.975 Y-0.766 Z32.27
X-8.954 Y-0.985 Z32.271
X-8.926 Y-1.204 Z32.27
X-8.893 Y-1.423
X-8.855 Y-1.641
X-8.811 Y-1.86
X-8.762 Y-2.079
X-8.707 Y-2.298
X-8.646 Y-2.517
X-8.579 Y-2.736
X-8.506 Y-2.955 Z32.269
X-8.428 Y-3.174 Z32.27
X-8.344 Y-3.393
X-8.209 Y-3.714 Z32.271
X-8.157 Y-3.83
X-8.049 Y-4.049
X-7.99 Y-4.166
X-7.813 Y-4.487
X-7.681 Y-4.706 Z32.27
X-7.542 Y-4.925
X-7.395 Y-5.144
X-7.237 Y-5.363
X-7.114 Y-5.524
X-6.888 Y-5.8
X-6.676 Y-6.039 Z32.269
X-6.457 Y-6.273
X-6.239 Y-6.493 Z32.27
X-6.02 Y-6.699
X-5.795 Y-6.895
X-5.523 Y-7.114
X-5.363 Y-7.235
X-5.144 Y-7.395
X-4.908 Y-7.551
X-4.555 Y-7.77
X-4.487 Y-7.811
X-4.268 Y-7.934
X-4.166 Y-7.989 Z32.271
X-4.049 Y-8.048
X-3.83 Y-8.154
X-3.611 Y-8.252 Z32.27
X-3.393 Y-8.344
X-3.174 Y-8.43 Z32.271
X-2.955 Y-8.509 Z32.27
X-2.736 Y-8.581
X-2.517 Y-8.646
X-2.298 Y-8.707
X-2.079 Y-8.763
X-1.86 Y-8.813
X-1.593 Y-8.865
X-1.422 Y-8.894
X-1.203 Y-8.926
X-0.984 Y-8.954
X-0.765 Y-8.974
X-0.546 Y-8.991
X-0.328 Y-9.003 Z32.271
X-0.109 Y-9.01
X0.11
X0.329 Y-9.005
X0.548 Y-8.993
X0.767 Y-8.976
X0.986 Y-8.954 Z32.27
X1.205 Y-8.926
X1.424 Y-8.893
X1.643 Y-8.854
X1.862 Y-8.81
X2.081 Y-8.76
X2.3 Y-8.706
X2.518 Y-8.645
X2.737 Y-8.58
X2.956 Y-8.508
X3.182 Y-8.427
X3.394 Y-8.345 Z32.271
X3.717 Y-8.208
X3.832 Y-8.155
X4.051 Y-8.049
X4.168 Y-7.989
X4.489 Y-7.811
X4.708 Y-7.678 Z32.27
X4.927 Y-7.54
X5.146 Y-7.392
X5.365 Y-7.231
X5.519 Y-7.114
X5.802 Y-6.886
X6.045 Y-6.676
X6.277 Y-6.457
X6.493 Y-6.238
X6.613 Y-6.109 Z32.269
X6.702 Y-6.003 Z32.268
X6.743 Y-5.947 Z32.267
X6.781 Y-5.89 Z32.265
X6.852 Y-5.77 Z32.26
X6.914 Y-5.646 Z32.253
X6.97 Y-5.518 Z32.245
X7.02 Y-5.387 Z32.236
X7.065 Y-5.255 Z32.227
X7.148 Y-4.985 Z32.208
X7.23 Y-4.712 Z32.191
X7.273 Y-4.577 Z32.183
X7.32 Y-4.443 Z32.176
X7.372 Y-4.311 Z32.171
X7.43 Y-4.181 Z32.168
X7.495 Y-4.056 Z32.167
X7.554 Y-3.948
X7.614 Y-3.83
X7.72 Y-3.611
X7.773 Y-3.493
X7.816 Y-3.393
X7.906 Y-3.174
X7.992 Y-2.948 Z32.166
X8.066 Y-2.736
X8.136 Y-2.517
X8.211 Y-2.264
X8.259 Y-2.079
X8.31 Y-1.86
X8.356 Y-1.641
X8.395 Y-1.423
X8.429 Y-1.201 Z32.165
X8.458 Y-0.985 Z32.166
X8.483 Y-0.766
X8.502 Y-0.547 Z32.167
X8.516 Y-0.328
X8.523 Y-0.109 Z32.168
X8.522 Y0.11
X8.515 Y0.328 Z32.167
X8.501 Y0.547
X8.483 Y0.766 Z32.166
X8.459 Y0.985
X8.429 Y1.212
X8.397 Y1.423
X8.357 Y1.642
X8.312 Y1.861
X8.259 Y2.08
X8.201 Y2.298
X8.136 Y2.517
X8.065 Y2.736
X7.988 Y2.955
X7.905 Y3.174
X7.815 Y3.393
X7.773 Y3.491 Z32.167
X7.718 Y3.612
X7.612 Y3.831
X7.554 Y3.947
X7.376 Y4.268
X7.242 Y4.487 Z32.166
X7.1 Y4.706
X6.949 Y4.925
X6.787 Y5.144
X6.678 Y5.283
X6.459 Y5.546 Z32.165
X6.231 Y5.801
X6.021 Y6.02
X5.796 Y6.238
X5.551 Y6.457
X5.285 Y6.676
X5.146 Y6.784
X4.927 Y6.946 Z32.166
X4.681 Y7.114
X4.489 Y7.237
X4.27 Y7.371
X4.051 Y7.495
X3.946 Y7.552 Z32.167
X3.832 Y7.61 Z32.166
X3.613 Y7.716 Z32.167
X3.495 Y7.771
X3.175 Y7.905 Z32.166
X2.952 Y7.99
X2.737 Y8.064
X2.518 Y8.134 Z32.165
X2.264 Y8.208
X2.081 Y8.257 Z32.166
X1.862 Y8.309 Z32.165
X1.643 Y8.355 Z32.166
X1.424 Y8.396
X1.205 Y8.431
X0.986 Y8.46
X0.767 Y8.484
X0.548 Y8.502 Z32.167
X0.329 Y8.514
X0.11 Y8.52
X-0.109
X-0.328 Y8.515
X-0.546 Y8.503
X-0.765 Y8.484
X-0.984 Y8.46 Z32.166
X-1.219 Y8.427
X-1.422 Y8.395
X-1.641 Y8.355 Z32.165
X-1.86 Y8.31 Z32.166
X-2.079 Y8.258 Z32.165
X-2.298 Y8.199
X-2.517 Y8.135 Z32.166
X-2.736 Y8.065
X-2.955 Y7.988
X-3.174 Y7.904
X-3.49 Y7.771
X-3.611 Y7.716
X-3.83 Y7.61
X-3.946 Y7.552 Z32.167
X-4.268 Y7.372 Z32.166
X-4.487 Y7.239
X-4.706 Y7.099
X-4.925 Y6.949
X-5.144 Y6.786
X-5.285 Y6.676 Z32.165
X-5.363 Y6.614
X-5.582 Y6.43
X-5.801 Y6.234
X-6.021 Y6.02
X-6.239 Y5.793
X-6.457 Y5.549
X-6.676 Y5.288 Z32.166
X-6.788 Y5.144
X-6.951 Y4.925
X-7.114 Y4.685
X-7.241 Y4.487
X-7.374 Y4.268 Z32.167
X-7.552 Y3.945
X-7.61 Y3.831 Z32.166
X-7.717 Y3.612
X-7.771 Y3.492
X-7.903 Y3.174
X-7.99 Y2.947
X-8.064 Y2.736
X-8.135 Y2.517
X-8.209 Y2.267
X-8.259 Y2.08
X-8.311 Y1.861
X-8.357 Y1.642
X-8.397 Y1.423
X-8.431 Y1.204
X-8.46 Y0.985
X-8.484 Y0.766 Z32.167
X-8.503 Y0.547
X-8.515 Y0.328
X-8.522 Y0.11
Y-0.109
X-8.514 Y-0.328
X-8.501 Y-0.547
X-8.484 Y-0.766 Z32.166
X-8.461 Y-0.985
X-8.428 Y-1.228
X-8.397 Y-1.423
X-8.356 Y-1.641
X-8.31 Y-1.86
X-8.258 Y-2.079
X-8.2 Y-2.298 Z32.165
X-8.134 Y-2.517
X-8.063 Y-2.736
X-7.987 Y-2.955 Z32.166
X-7.904 Y-3.174
X-7.771 Y-3.495 Z32.167
X-7.719 Y-3.611
X-7.612 Y-3.83
X-7.552 Y-3.948
X-7.374 Y-4.268
X-7.241 Y-4.487 Z32.166
X-7.1 Y-4.706
X-6.951 Y-4.925
X-6.789 Y-5.144
X-6.676 Y-5.288
X-6.429 Y-5.581 Z32.165
X-6.231 Y-5.8
X-6.02 Y-6.02
X-5.796 Y-6.238
X-5.554 Y-6.457 Z32.166
X-5.288 Y-6.676
X-5.144 Y-6.787
X-4.925 Y-6.95
X-4.684 Y-7.114
X-4.487 Y-7.238
X-4.268 Y-7.372
X-4.049 Y-7.496 Z32.167
X-3.948 Y-7.551
X-3.83 Y-7.611
X-3.611 Y-7.717
X-3.493 Y-7.77 Z32.166
X-3.174 Y-7.905
X-2.955 Y-7.989
X-2.736 Y-8.066
X-2.517 Y-8.136
X-2.267 Y-8.208 Z32.165
X-2.079 Y-8.258 Z32.166
X-1.86 Y-8.311
X-1.641 Y-8.357
X-1.422 Y-8.398
X-1.203 Y-8.432
X-0.984 Y-8.461
X-0.765 Y-8.483
X-0.546 Y-8.501
X-0.328 Y-8.513 Z32.167
X-0.109 Y-8.521
X0.11
X0.329 Y-8.515
X0.548 Y-8.503
X0.767 Y-8.484 Z32.166
X0.986 Y-8.461
X1.234 Y-8.427
X1.424 Y-8.396
X1.643 Y-8.355
X1.862 Y-8.309
X2.081 Y-8.257 Z32.165
X2.3 Y-8.199 Z32.166
X2.518 Y-8.135
X2.737 Y-8.065
X2.956 Y-7.988
X3.175 Y-7.905
X3.497 Y-7.77 Z32.167
X3.613 Y-7.718
X3.832 Y-7.612
X3.95 Y-7.551
X4.051 Y-7.496
X4.27 Y-7.372
X4.489 Y-7.238 Z32.166
X4.708 Y-7.097
X4.927 Y-6.947
X5.146 Y-6.784 Z32.165
X5.284 Y-6.676 Z32.166
X5.551 Y-6.457
X5.802 Y-6.233
X6.023 Y-6.019
X6.249 Y-5.782 Z32.165
X6.459 Y-5.548 Z32.166
X6.678 Y-5.287
X6.79 Y-5.144
X6.951 Y-4.925
X7.116 Y-4.683
X7.242 Y-4.487
X7.376 Y-4.268 Z32.167
X7.495 Y-4.056
X7.557 Y-3.932 Z32.166
X7.583 Y-3.868 Z32.165
X7.607 Y-3.803 Z32.163
X7.646 Y-3.67 Z32.158
X7.676 Y-3.534 Z32.152
X7.698 Y-3.396 Z32.144
X7.714 Y-3.257 Z32.136
X7.724 Y-3.118 Z32.127
X7.731 Y-2.978 Z32.117
X7.741 Y-2.55 Z32.089
X7.746 Y-2.408 Z32.081
X7.754 Y-2.265 Z32.074
X7.767 Y-2.124 Z32.069
X7.785 Y-1.982 Z32.065
X7.812 Y-1.843 Z32.064
X7.856 Y-1.641 Z32.063
X7.898 Y-1.423
X7.934 Y-1.204
X7.964 Y-0.985
X7.992 Y-0.755 Z32.064
X8.011 Y-0.547
X8.026 Y-0.328 Z32.065
X8.033 Y-0.109
X8.032 Y0.11
X8.025 Y0.328 Z32.064
X8.01 Y0.547
X7.99 Y0.766
X7.965 Y0.985 Z32.063
X7.936 Y1.204 Z32.064
X7.899 Y1.423
X7.857 Y1.642 Z32.063
X7.809 Y1.861 Z32.064
X7.753 Y2.08 Z32.063
X7.69 Y2.298
X7.621 Y2.517
X7.547 Y2.736
X7.465 Y2.955 Z32.064
X7.335 Y3.271
X7.28 Y3.393
X7.174 Y3.612 Z32.065
X7.116 Y3.728
X6.937 Y4.05
X6.801 Y4.268 Z32.064
X6.678 Y4.457
X6.503 Y4.706
X6.337 Y4.925 Z32.063
X6.24 Y5.046
X6.158 Y5.144
X6.021 Y5.302
X5.802 Y5.541
X5.545 Y5.801
X5.307 Y6.02
X5.146 Y6.158
X5.048 Y6.238
X4.927 Y6.335
X4.708 Y6.5
X4.455 Y6.676
X4.27 Y6.796
X4.051 Y6.931 Z32.064
X3.832 Y7.056
X3.727 Y7.114
X3.613 Y7.172
X3.394 Y7.278
X3.274 Y7.333
X3.175 Y7.375
X2.956 Y7.465
X2.721 Y7.552 Z32.063
X2.518 Y7.62
X2.3 Y7.688
X2.081 Y7.751
X1.862 Y7.806
X1.643 Y7.855
X1.424 Y7.898
X1.205 Y7.935 Z32.064
X0.986 Y7.967
X0.767 Y7.992
X0.548 Y8.011
X0.329 Y8.024
X0.11 Y8.031
X-0.109 Z32.065
X-0.328 Y8.025
X-0.546 Y8.011 Z32.064
X-0.787 Y7.99
X-0.984 Y7.966
X-1.203 Y7.934 Z32.063
X-1.422 Y7.898
X-1.641 Y7.855
X-1.86 Y7.807
X-2.079 Y7.751
X-2.298 Y7.689
X-2.517 Y7.621
X-2.736 Y7.546
X-2.955 Y7.464 Z32.064
X-3.27 Y7.333
X-3.393 Y7.278
X-3.611 Y7.172
X-3.727 Y7.114
X-4.049 Y6.933
X-4.268 Y6.798 Z32.063
X-4.458 Y6.676 Z32.064
X-4.706 Y6.503 Z32.063
X-4.925 Y6.337
X-5.049 Y6.238
X-5.144 Y6.159
X-5.307 Y6.02
X-5.545 Y5.801
X-5.801 Y5.543
X-5.968 Y5.363
X-6.159 Y5.144
X-6.239 Y5.05
X-6.339 Y4.925
X-6.505 Y4.706 Z32.064
X-6.676 Y4.459
X-6.8 Y4.268
X-6.935 Y4.05
X-7.058 Y3.831
X-7.114 Y3.726
X-7.173 Y3.612
X-7.278 Y3.393
X-7.333 Y3.271
X-7.463 Y2.955 Z32.063
X-7.552 Y2.717
X-7.62 Y2.517
X-7.689 Y2.298
X-7.771 Y2.01
X-7.808 Y1.861
X-7.858 Y1.642 Z32.064
X-7.9 Y1.423
X-7.936 Y1.204
X-7.967 Y0.985
X-7.992 Y0.766
X-8.012 Y0.547
X-8.025 Y0.328 Z32.065
X-8.033 Y0.11
X-8.032 Y-0.109
X-8.023 Y-0.328 Z32.064
X-8.011 Y-0.547
X-7.99 Y-0.787
X-7.968 Y-0.985
X-7.936 Y-1.204
X-7.899 Y-1.423 Z32.063
X-7.856 Y-1.641
X-7.807 Y-1.86
X-7.771 Y-2.008
X-7.689 Y-2.298
X-7.62 Y-2.517
X-7.545 Y-2.736
X-7.464 Y-2.955
X-7.376 Y-3.174 Z32.064
X-7.281 Y-3.393 Z32.065
X-7.174 Y-3.611
X-7.114 Y-3.729 Z32.064
X-6.935 Y-4.049
X-6.8 Y-4.268
X-6.657 Y-4.487
X-6.505 Y-4.706
X-6.339 Y-4.925
X-6.239 Y-5.05 Z32.063
X-6.16 Y-5.144
X-5.967 Y-5.363
X-5.763 Y-5.581
X-5.545 Y-5.8
X-5.309 Y-6.019
X-5.144 Y-6.161
X-5.051 Y-6.238
X-4.925 Y-6.339 Z32.064
X-4.706 Y-6.504
X-4.458 Y-6.676
X-4.268 Y-6.798 Z32.063
X-4.049 Y-6.933 Z32.064
X-3.83 Y-7.057
X-3.728 Y-7.114 Z32.065
X-3.611 Y-7.173
X-3.393 Y-7.279 Z32.064
X-3.174 Y-7.375
X-2.955 Y-7.465
X-2.724 Y-7.551
X-2.517 Y-7.622
X-2.298 Y-7.69 Z32.063
X-2.01 Y-7.77
X-1.86 Y-7.808
X-1.641 Y-7.858 Z32.064
X-1.422 Y-7.9
X-1.203 Y-7.937
X-0.984 Y-7.967
X-0.765 Y-7.991
X-0.546 Y-8.01
X-0.328 Y-8.023
X-0.109 Y-8.031
X0.11 Z32.065
X0.329 Y-8.025
X0.548 Y-8.012 Z32.064
X0.797 Y-7.989
X0.986 Y-7.967
X1.205 Y-7.936
X1.424 Y-7.899 Z32.063
X1.643 Y-7.855
X1.862 Y-7.806
X2.081 Y-7.751
X2.3 Y-7.689
X2.518 Y-7.621
X2.737 Y-7.547 Z32.064
X2.956 Y-7.465
X3.175 Y-7.376
X3.394 Y-7.28 Z32.065
X3.613 Y-7.174
X3.731 Y-7.114
X4.051 Y-6.933 Z32.064
X4.27 Y-6.797
X4.489 Y-6.654
X4.708 Y-6.501 Z32.063
X4.927 Y-6.334
X5.048 Y-6.238
X5.146 Y-6.157
X5.308 Y-6.019
X5.546 Y-5.8
X5.802 Y-5.542
X6.021 Y-5.304
X6.24 Y-5.049 Z32.064
X6.34 Y-4.925
X6.505 Y-4.706
X6.678 Y-4.457
X6.801 Y-4.268
X6.937 Y-4.049 Z32.065
X7.065 Y-3.822
X7.116 Y-3.729
X7.176 Y-3.611
X7.281 Y-3.393
X7.335 Y-3.274
X7.377 Y-3.174 Z32.064
X7.466 Y-2.955
X7.554 Y-2.717
X7.622 Y-2.517
X7.691 Y-2.298 Z32.063
X7.773 Y-2.006 Z32.064
X7.812 Y-1.843
X7.835 Y-1.706 Z32.062
X7.847 Y-1.568 Z32.059
X7.849 Y-1.429 Z32.054
X7.841 Y-1.29 Z32.048
X7.827 Y-1.151 Z32.041
X7.806 Y-1.013 Z32.033
X7.78 Y-0.875 Z32.024
X7.75 Y-0.739 Z32.016
X7.651 Y-0.323 Z31.991
X7.619 Y-0.184 Z31.983
X7.589 Y-0.045 Z31.978
X7.564 Y0.095 Z31.973
X7.543 Y0.235 Z31.969
X7.53 Y0.377 Z31.967
X7.518 Y0.547
X7.497 Y0.766 Z31.966
X7.47 Y0.985
X7.439 Y1.204
X7.4 Y1.423
X7.355 Y1.642 Z31.967
X7.303 Y1.861 Z31.966
X7.243 Y2.08
X7.176 Y2.298
X7.103 Y2.517
X7.023 Y2.736
X6.897 Y3.048 Z31.967
X6.841 Y3.174
X6.735 Y3.393
X6.678 Y3.507 Z31.968
X6.496 Y3.831 Z31.967
X6.358 Y4.05
X6.211 Y4.268 Z31.966
X6.054 Y4.487
X5.884 Y4.706
X5.802 Y4.805
X5.699 Y4.925 Z31.965
X5.583 Y5.055
X5.501 Y5.144
X5.365 Y5.287
X5.289 Y5.363 Z31.966
X5.146 Y5.502
X5.06 Y5.582
X4.927 Y5.7
X4.808 Y5.801
X4.708 Y5.882
X4.489 Y6.051
X4.226 Y6.238
X4.051 Y6.354
X3.832 Y6.49
X3.613 Y6.616 Z31.967
X3.505 Y6.676
X3.394 Y6.733
X3.175 Y6.839
X3.051 Y6.895
X2.956 Y6.935
X2.737 Y7.023
X2.486 Y7.114 Z31.966
X2.3 Y7.175
X2.081 Y7.241
X1.862 Y7.301
X1.733 Y7.333
X1.424 Y7.398
X1.205 Y7.438
X0.986 Y7.471
X0.767 Y7.498 Z31.967
X0.548 Y7.519
X0.329 Y7.533
X0.11 Y7.54
X-0.109 Y7.541
X-0.328 Y7.534
X-0.546 Y7.519
X-0.765 Y7.498
X-0.984 Y7.47 Z31.966
X-1.203 Y7.437
X-1.422 Y7.398
X-1.641 Y7.353
X-1.86 Y7.302
X-2.079 Y7.242
X-2.298 Y7.175
X-2.517 Y7.103
X-2.736 Y7.022
X-3.046 Y6.895 Z31.967
X-3.174 Y6.839
X-3.393 Y6.733
X-3.505 Y6.676
X-3.83 Y6.492
X-4.049 Y6.356 Z31.966
X-4.228 Y6.238
X-4.487 Y6.054
X-4.706 Y5.884
X-4.808 Y5.801
X-4.925 Y5.701
X-5.059 Y5.582
X-5.144 Y5.503
X-5.289 Y5.363
X-5.363 Y5.289 Z31.965
X-5.502 Y5.144
X-5.582 Y5.058 Z31.966
X-5.7 Y4.925
X-5.801 Y4.808
X-5.886 Y4.706
X-6.056 Y4.487 Z31.967
X-6.239 Y4.23
X-6.358 Y4.05
X-6.494 Y3.831
X-6.618 Y3.612
X-6.676 Y3.505
X-6.734 Y3.393
X-6.839 Y3.174
X-6.895 Y3.048
X-7.021 Y2.736 Z31.966
X-7.114 Y2.482
X-7.175 Y2.298
X-7.242 Y2.08
X-7.303 Y1.861
X-7.333 Y1.738
X-7.401 Y1.423
X-7.439 Y1.204
X-7.471 Y0.985 Z31.967
X-7.498 Y0.766
X-7.519 Y0.547
X-7.534 Y0.328
X-7.542 Y0.11 Z31.968
X-7.541 Y-0.109
X-7.532 Y-0.328 Z31.967
X-7.519 Y-0.547
X-7.499 Y-0.766
X-7.472 Y-0.985 Z31.966
X-7.439 Y-1.204
X-7.399 Y-1.423
X-7.333 Y-1.734
X-7.302 Y-1.86
X-7.242 Y-2.079
X-7.175 Y-2.298
X-7.102 Y-2.517
X-7.022 Y-2.736
X-6.935 Y-2.955 Z31.967
X-6.842 Y-3.174
X-6.736 Y-3.393
X-6.676 Y-3.507
X-6.619 Y-3.611
X-6.494 Y-3.83
X-6.357 Y-4.049 Z31.966
X-6.212 Y-4.268
X-6.056 Y-4.487
X-5.886 Y-4.706
X-5.801 Y-4.809
X-5.7 Y-4.925
X-5.582 Y-5.057 Z31.965
X-5.501 Y-5.144
X-5.363 Y-5.288
X-5.289 Y-5.363 Z31.966
X-5.144 Y-5.504
X-5.061 Y-5.581
X-4.925 Y-5.702
X-4.811 Y-5.8
X-4.706 Y-5.886
X-4.487 Y-6.055
X-4.229 Y-6.238
X-4.049 Y-6.355
X-3.83 Y-6.492 Z31.967
X-3.611 Y-6.618
X-3.507 Y-6.676
X-3.393 Y-6.735
X-3.174 Y-6.839
X-3.049 Y-6.895
X-2.736 Y-7.024
X-2.489 Y-7.114 Z31.966
X-2.298 Y-7.177
X-2.079 Y-7.242
X-1.86 Y-7.303
X-1.74 Y-7.333
X-1.422 Y-7.401
X-1.203 Y-7.44
X-0.984 Y-7.473 Z31.967
X-0.765 Y-7.498
X-0.546 Y-7.518
X-0.328 Y-7.532
X-0.109 Y-7.541
X0.11
X0.329 Y-7.534
X0.548 Y-7.519
X0.767 Y-7.499
X0.986 Y-7.472 Z31.966
X1.205 Y-7.438
X1.424 Y-7.399
X1.731 Y-7.333
X1.862 Y-7.301
X2.081 Y-7.241
X2.3 Y-7.175
X2.518 Y-7.103 Z31.967
X2.737 Y-7.023
X2.956 Y-6.935
X3.175 Y-6.841
X3.394 Y-6.736
X3.509 Y-6.676 Z31.968
X3.613 Y-6.618 Z31.967
X3.832 Y-6.493
X4.051 Y-6.355 Z31.966
X4.228 Y-6.238
X4.489 Y-6.051
X4.708 Y-5.882
X4.808 Y-5.8
X4.927 Y-5.699
X5.061 Y-5.581
X5.146 Y-5.503
X5.291 Y-5.363
X5.365 Y-5.288
X5.503 Y-5.144
X5.583 Y-5.057
X5.701 Y-4.925
X5.802 Y-4.807
X5.887 Y-4.706 Z31.967
X6.057 Y-4.487
X6.24 Y-4.228
X6.358 Y-4.049
X6.496 Y-3.83
X6.622 Y-3.611 Z31.968
X6.678 Y-3.508
X6.738 Y-3.393
X6.842 Y-3.174
X6.897 Y-3.05 Z31.967
X6.937 Y-2.955
X7.024 Y-2.736
X7.116 Y-2.482 Z31.966
X7.177 Y-2.298
X7.243 Y-2.079
X7.303 Y-1.86
X7.335 Y-1.729
X7.399 Y-1.423
X7.437 Y-1.204
X7.469 Y-0.985
X7.496 Y-0.766
X7.518 Y-0.547 Z31.967
X7.534 Y-0.328
X7.543 Y-0.109 Z31.968
X7.541 Y0.11
X7.533 Y0.328 Z31.967
X7.53 Y0.377
X7.513 Y0.515 Z31.966
X7.5 Y0.583 Z31.964
X7.485 Y0.65 Z31.963
X7.446 Y0.784 Z31.958
X7.398 Y0.914 Z31.952
X7.342 Y1.043 Z31.945
X7.281 Y1.168 Z31.938
X7.216 Y1.292 Z31.93
X7.147 Y1.414 Z31.922
X6.929 Y1.782 Z31.898
X6.857 Y1.906 Z31.892
X6.789 Y2.031 Z31.886
X6.725 Y2.158 Z31.882
X6.666 Y2.287 Z31.879
X6.614 Y2.419 Z31.878
X6.579 Y2.517
X6.459 Y2.819 Z31.879
X6.4 Y2.955
X6.295 Y3.174
X6.24 Y3.282 Z31.88
X6.178 Y3.393 Z31.879
X6.052 Y3.612
X5.913 Y3.831
X5.802 Y3.995
X5.583 Y4.291 Z31.878
X5.426 Y4.487
X5.235 Y4.706
X5.146 Y4.804
X5.03 Y4.925
X4.927 Y5.029
X4.808 Y5.144
X4.708 Y5.236
X4.489 Y5.426
X4.27 Y5.599
X3.993 Y5.801
X3.832 Y5.908
X3.613 Y6.047
X3.394 Y6.175 Z31.879
X3.28 Y6.238
X3.175 Y6.293
X2.956 Y6.398
X2.823 Y6.457
X2.518 Y6.579 Z31.878
X2.3 Y6.657
X2.081 Y6.727
X1.862 Y6.791
X1.643 Y6.848
X1.424 Y6.896
X1.205 Y6.938
X0.986 Y6.974
X0.767 Y7.003 Z31.879
X0.548 Y7.024
X0.329 Y7.039
X0.11 Y7.047
X-0.109 Y7.048
X-0.328 Y7.041
X-0.546 Y7.025
X-0.765 Y7.002 Z31.878
X-0.984 Y6.972
X-1.203 Y6.937
X-1.425 Y6.895
X-1.641 Y6.848
X-1.86 Y6.791
X-2.079 Y6.727
X-2.298 Y6.657
X-2.517 Y6.578
X-2.817 Y6.457 Z31.879
X-2.955 Y6.397
X-3.174 Y6.293
X-3.28 Y6.238
X-3.393 Y6.175
X-3.611 Y6.049
X-3.83 Y5.911 Z31.878
X-3.995 Y5.801
X-4.293 Y5.582
X-4.487 Y5.427
X-4.706 Y5.237
X-4.808 Y5.144
X-4.925 Y5.031
X-5.03 Y4.925
X-5.144 Y4.806
X-5.236 Y4.706
X-5.427 Y4.487
X-5.603 Y4.268
X-5.801 Y3.998 Z31.879
X-5.912 Y3.831
X-6.051 Y3.612
X-6.177 Y3.393
X-6.239 Y3.28
X-6.293 Y3.174
X-6.398 Y2.955
X-6.457 Y2.819
X-6.578 Y2.517 Z31.878
X-6.657 Y2.298
X-6.727 Y2.08
X-6.792 Y1.861
X-6.85 Y1.642
X-6.898 Y1.423
X-6.939 Y1.204
X-6.974 Y0.985
X-7.003 Y0.766 Z31.879
X-7.025 Y0.547
X-7.041 Y0.328
X-7.05 Y0.11 Z31.88
X-7.049 Y-0.109 Z31.879
X-7.039 Y-0.328
X-7.024 Y-0.547
X-7.003 Y-0.766
X-6.975 Y-0.985 Z31.878
X-6.939 Y-1.204
X-6.895 Y-1.429
X-6.849 Y-1.641
X-6.792 Y-1.86
X-6.727 Y-2.079
X-6.656 Y-2.298
X-6.578 Y-2.517
X-6.492 Y-2.736 Z31.879
X-6.4 Y-2.955
X-6.295 Y-3.174
X-6.239 Y-3.282
X-6.177 Y-3.393
X-6.051 Y-3.611
X-5.912 Y-3.83 Z31.878
X-5.801 Y-3.997
X-5.582 Y-4.296
X-5.428 Y-4.487
X-5.236 Y-4.706
X-5.144 Y-4.805
X-5.029 Y-4.925
X-4.925 Y-5.03
X-4.808 Y-5.144
X-4.706 Y-5.238
X-4.566 Y-5.363
X-4.487 Y-5.429
X-4.268 Y-5.603
X-3.996 Y-5.8
X-3.83 Y-5.911
X-3.611 Y-6.049 Z31.879
X-3.393 Y-6.176
X-3.281 Y-6.238
X-3.174 Y-6.294
X-2.955 Y-6.398
X-2.821 Y-6.457
X-2.517 Y-6.58
X-2.246 Y-6.676 Z31.878
X-2.079 Y-6.729
X-1.86 Y-6.792
X-1.641 Y-6.85
X-1.422 Y-6.898
X-1.203 Y-6.94
X-0.984 Y-6.975 Z31.879
X-0.765 Y-7.003
X-0.546 Y-7.024
X-0.328 Y-7.039
X-0.109 Y-7.048
X0.11
X0.329 Y-7.041
X0.548 Y-7.025
X0.767 Y-7.003
X0.986 Y-6.974 Z31.878
X1.205 Y-6.938
X1.429 Y-6.895
X1.643 Y-6.848
X1.862 Y-6.791
X2.081 Y-6.727
X2.3 Y-6.658
X2.518 Y-6.579 Z31.879
X2.737 Y-6.493
X2.956 Y-6.4
X3.175 Y-6.295
X3.284 Y-6.238 Z31.88
X3.394 Y-6.176 Z31.879
X3.613 Y-6.049
X3.832 Y-5.91 Z31.878
X3.995 Y-5.8
X4.27 Y-5.599
X4.489 Y-5.425
X4.708 Y-5.237
X4.809 Y-5.144
X4.927 Y-5.03
X5.031 Y-4.925
X5.146 Y-4.805
X5.237 Y-4.706
X5.429 Y-4.487
X5.604 Y-4.268 Z31.879
X5.802 Y-3.995
X5.913 Y-3.83
X6.053 Y-3.611
X6.18 Y-3.393 Z31.88
X6.24 Y-3.284
X6.297 Y-3.174
X6.401 Y-2.955
X6.459 Y-2.821 Z31.879
X6.58 Y-2.517
X6.658 Y-2.298 Z31.878
X6.729 Y-2.079
X6.793 Y-1.86
X6.85 Y-1.641 Z31.879
X6.897 Y-1.419 Z31.878
X6.937 Y-1.204
X6.972 Y-0.985
X7.001 Y-0.766
X7.024 Y-0.547 Z31.879
X7.041 Y-0.328
X7.05 Y-0.109 Z31.881
X7.049 Y0.11
X7.039 Y0.34 Z31.879
X7.023 Y0.547
X7.001 Y0.766 Z31.878
X6.973 Y0.985
X6.939 Y1.204
X6.897 Y1.427
X6.85 Y1.642 Z31.879
X6.793 Y1.861 Z31.878
X6.728 Y2.08
X6.658 Y2.298
X6.614 Y2.419
X6.561 Y2.547
X6.529 Y2.609 Z31.876
X6.495 Y2.67 Z31.875
X6.42 Y2.786 Z31.871
X6.337 Y2.897 Z31.867
X6.247 Y3.004 Z31.861
X6.151 Y3.107 Z31.854
X6.051 Y3.205 Z31.848
X5.949 Y3.3 Z31.841
X5.733 Y3.49 Z31.827
X5.517 Y3.678 Z31.815
X5.411 Y3.775 Z31.81
X5.308 Y3.874 Z31.806
X5.209 Y3.977 Z31.804
X5.115 Y4.085 Z31.803
X4.962 Y4.268
X4.764 Y4.487
X4.708 Y4.547
X4.549 Y4.706
X4.489 Y4.765
X4.27 Y4.963
X4.049 Y5.144
X3.755 Y5.363
X3.613 Y5.46
X3.394 Y5.602
X3.175 Y5.73
X3.05 Y5.801 Z31.804
X2.956 Y5.849
X2.737 Y5.955
X2.587 Y6.02 Z31.803
X2.3 Y6.132
X2.081 Y6.209
X1.862 Y6.276
X1.643 Y6.337
X1.424 Y6.39
X1.205 Y6.435
X1.082 Y6.457
X0.986 Y6.473
X0.767 Y6.504
X0.548 Y6.528
X0.329 Y6.544 Z31.804
X0.11 Y6.553
X-0.109 Y6.554
X-0.328 Y6.545
X-0.546 Y6.528 Z31.803
X-0.765 Y6.503
X-0.984 Y6.472
X-1.203 Y6.434
X-1.422 Y6.39
X-1.641 Y6.338
X-1.86 Y6.276
X-1.987 Y6.238
X-2.079 Y6.209
X-2.298 Y6.132
X-2.582 Y6.02
X-2.736 Y5.953
X-2.955 Y5.85 Z31.804
X-3.05 Y5.801
X-3.174 Y5.731 Z31.803
X-3.393 Y5.603
X-3.611 Y5.463
X-3.758 Y5.363
X-4.049 Y5.144
X-4.268 Y4.964
X-4.313 Y4.925
X-4.487 Y4.767
X-4.549 Y4.706
X-4.706 Y4.548
X-4.764 Y4.487
X-4.963 Y4.268
X-5.145 Y4.05
X-5.311 Y3.831
X-5.363 Y3.76
X-5.464 Y3.612
X-5.605 Y3.393
X-5.732 Y3.174
X-5.801 Y3.051 Z31.804
X-5.85 Y2.955
X-5.954 Y2.736
X-6.02 Y2.584 Z31.803
X-6.131 Y2.298
X-6.209 Y2.08
X-6.277 Y1.861
X-6.339 Y1.642
X-6.392 Y1.423
X-6.436 Y1.204
X-6.457 Y1.089
X-6.474 Y0.985
X-6.504 Y0.766
X-6.528 Y0.547
X-6.545 Y0.328 Z31.804
X-6.555 Y0.11
X-6.554 Y-0.109
X-6.544 Y-0.328 Z31.803
X-6.528 Y-0.547
X-6.505 Y-0.766
X-6.474 Y-0.985
X-6.457 Y-1.086
X-6.435 Y-1.204
X-6.391 Y-1.423
X-6.338 Y-1.641
X-6.276 Y-1.86
X-6.208 Y-2.079
X-6.131 Y-2.298
X-6.02 Y-2.587
X-5.956 Y-2.736 Z31.804
X-5.852 Y-2.955
X-5.801 Y-3.052
X-5.733 Y-3.174
X-5.605 Y-3.393 Z31.803
X-5.464 Y-3.611
X-5.363 Y-3.76
X-5.311 Y-3.83
X-5.144 Y-4.052
X-4.963 Y-4.268
X-4.764 Y-4.487
X-4.706 Y-4.548 Z31.802
X-4.549 Y-4.706 Z31.803
X-4.487 Y-4.766
X-4.268 Y-4.966
X-4.049 Y-5.146
X-3.83 Y-5.311
X-3.759 Y-5.363
X-3.611 Y-5.463
X-3.393 Y-5.603
X-3.174 Y-5.732
X-3.052 Y-5.8 Z31.804
X-2.955 Y-5.851
X-2.736 Y-5.955
X-2.517 Y-6.048 Z31.803
X-2.298 Y-6.133
X-2.079 Y-6.21
X-1.86 Y-6.277
X-1.641 Y-6.339
X-1.422 Y-6.392
X-1.096 Y-6.457
X-0.984 Y-6.475
X-0.765 Y-6.505
X-0.546 Y-6.527
X-0.328 Y-6.543
X-0.109 Y-6.553 Z31.804
X0.11 Y-6.554
X0.329 Y-6.545
X0.548 Y-6.528 Z31.803
X0.767 Y-6.505
X0.986 Y-6.473
X1.087 Y-6.457
X1.205 Y-6.435
X1.424 Y-6.39
X1.643 Y-6.337
X1.862 Y-6.276
X2.081 Y-6.209
X2.3 Y-6.133
X2.59 Y-6.019 Z31.804
X2.737 Y-5.956
X2.956 Y-5.851
X3.054 Y-5.8
X3.175 Y-5.732
X3.394 Y-5.603 Z31.803
X3.613 Y-5.461
X3.757 Y-5.363
X4.049 Y-5.144
X4.314 Y-4.925
X4.489 Y-4.766
X4.551 Y-4.706
X4.708 Y-4.548
X4.766 Y-4.487
X4.964 Y-4.268
X5.147 Y-4.049
X5.313 Y-3.83
X5.365 Y-3.758
X5.465 Y-3.611
X5.607 Y-3.393 Z31.804
X5.735 Y-3.174
X5.802 Y-3.054
X5.854 Y-2.955
X5.957 Y-2.736
X6.021 Y-2.587
X6.134 Y-2.298 Z31.803
X6.21 Y-2.079
X6.278 Y-1.86
X6.339 Y-1.641
X6.391 Y-1.423
X6.434 Y-1.204
X6.459 Y-1.064
X6.502 Y-0.766
X6.527 Y-0.547
X6.545 Y-0.328 Z31.804
X6.555 Y-0.109 Z31.806
X6.554 Y0.11
X6.544 Y0.328 Z31.804
X6.526 Y0.547 Z31.803
X6.503 Y0.766
X6.473 Y0.985
X6.459 Y1.072
X6.436 Y1.204
X6.392 Y1.423
X6.339 Y1.642
X6.277 Y1.861
X6.21 Y2.08
X6.133 Y2.298
X6.021 Y2.584
X5.956 Y2.736 Z31.804
X5.852 Y2.955
X5.802 Y3.053
X5.734 Y3.174
X5.607 Y3.393
X5.464 Y3.612 Z31.803
X5.365 Y3.757
X5.144 Y4.05
X5.115 Y4.085
X5.021 Y4.187 Z31.802
X4.97 Y4.235 Z31.801
X4.918 Y4.28 Z31.8
X4.808 Y4.365 Z31.797
X4.693 Y4.443 Z31.793
X4.573 Y4.514 Z31.789
X4.449 Y4.58 Z31.784
X4.322 Y4.64 Z31.779
X4.194 Y4.697 Z31.773
X3.93 Y4.807 Z31.763
X3.664 Y4.915 Z31.754
X3.533 Y4.972 Z31.75
X3.404 Y5.032 Z31.747
X3.276 Y5.096 Z31.745
X3.152 Y5.166
X2.956 Y5.283
X2.816 Y5.363
X2.737 Y5.404
X2.518 Y5.508
X2.345 Y5.582
X2.081 Y5.683
X1.862 Y5.757
X1.643 Y5.821 Z31.744
X1.424 Y5.879 Z31.745
X1.205 Y5.928
X0.986 Y5.97
X0.767 Y6.002
X0.548 Y6.028
X0.329 Y6.046
X0.11 Y6.056
X-0.109 Y6.057
X-0.328 Y6.047
X-0.546 Y6.028
X-0.765 Y6.002
X-0.984 Y5.969
X-1.203 Y5.928
X-1.422 Y5.879 Z31.744
X-1.717 Y5.801 Z31.745
X-1.86 Y5.758
X-2.079 Y5.682
X-2.341 Y5.582
X-2.517 Y5.507
X-2.736 Y5.404
X-2.816 Y5.363
X-2.955 Y5.284
X-3.19 Y5.144
X-3.393 Y5.011
X-3.515 Y4.925
X-3.611 Y4.853 Z31.744
X-3.83 Y4.681
X-4.056 Y4.487
X-4.284 Y4.268
X-4.492 Y4.05
X-4.706 Y3.801 Z31.745
X-4.854 Y3.612
X-4.925 Y3.518
X-5.012 Y3.393
X-5.156 Y3.174
X-5.285 Y2.955
X-5.363 Y2.817
X-5.404 Y2.736
X-5.508 Y2.517
X-5.582 Y2.342
X-5.682 Y2.08
X-5.757 Y1.861 Z31.744
X-5.823 Y1.642
X-5.881 Y1.423
X-5.93 Y1.204
X-5.971 Y0.985
X-6.003 Y0.766
X-6.029 Y0.547
X-6.047 Y0.328 Z31.745
X-6.059 Y0.11
X-6.057 Y-0.109
X-6.046 Y-0.328 Z31.744
X-6.029 Y-0.547
X-6.02 Y-0.634
X-6.003 Y-0.766
X-5.971 Y-0.985
X-5.929 Y-1.204
X-5.88 Y-1.423
X-5.801 Y-1.717
X-5.757 Y-1.86
X-5.682 Y-2.079 Z31.743
X-5.582 Y-2.345 Z31.744
X-5.51 Y-2.517
X-5.406 Y-2.736
X-5.363 Y-2.819
X-5.286 Y-2.955
X-5.144 Y-3.193
X-5.013 Y-3.393
X-4.925 Y-3.518 Z31.743
X-4.855 Y-3.611
X-4.682 Y-3.83
X-4.487 Y-4.054
X-4.268 Y-4.284
X-4.049 Y-4.495
X-3.804 Y-4.706
X-3.611 Y-4.854
X-3.517 Y-4.925
X-3.393 Y-5.011
X-3.174 Y-5.154
X-2.955 Y-5.285 Z31.744
X-2.818 Y-5.363
X-2.736 Y-5.405
X-2.517 Y-5.509
X-2.346 Y-5.581 Z31.743
X-2.079 Y-5.684
X-1.86 Y-5.759
X-1.641 Y-5.823
X-1.422 Y-5.881
X-1.203 Y-5.93
X-0.984 Y-5.972
X-0.765 Y-6.004 Z31.744
X-0.546 Y-6.028
X-0.328 Y-6.045
X-0.109 Y-6.057
X0.11
X0.329 Y-6.047
X0.548 Y-6.029
X0.641 Y-6.019
X0.767 Y-6.003
X0.986 Y-5.97
X1.205 Y-5.928 Z31.743
X1.424 Y-5.879 Z31.744
X1.719 Y-5.8
X1.862 Y-5.758
X2.081 Y-5.683
X2.349 Y-5.581
X2.518 Y-5.509 Z31.745
X2.737 Y-5.406
X2.819 Y-5.363
X2.956 Y-5.285
X3.19 Y-5.144 Z31.744
X3.394 Y-5.009
X3.514 Y-4.925
X3.613 Y-4.851
X3.832 Y-4.679
X4.057 Y-4.487
X4.286 Y-4.268
X4.493 Y-4.049
X4.708 Y-3.8 Z31.745
X4.855 Y-3.611
X4.927 Y-3.517
X5.013 Y-3.393
X5.157 Y-3.174
X5.288 Y-2.955
X5.365 Y-2.82 Z31.746
X5.408 Y-2.736
X5.511 Y-2.517 Z31.745
X5.583 Y-2.345
X5.684 Y-2.079
X5.759 Y-1.86
X5.823 Y-1.641
X5.881 Y-1.423
X5.929 Y-1.204
X5.969 Y-0.985
X6.001 Y-0.766
X6.027 Y-0.547
X6.047 Y-0.328
X6.058 Y-0.109
X6.057 Y0.11
X6.046 Y0.328
X6.021 Y0.602
X6.001 Y0.766
X5.971 Y0.985
X5.929 Y1.204
X5.881 Y1.423
X5.802 Y1.715
X5.758 Y1.861
X5.683 Y2.08
X5.583 Y2.342
X5.51 Y2.517
X5.406 Y2.736
X5.365 Y2.818 Z31.746
X5.287 Y2.955 Z31.745
X5.146 Y3.191
X5.012 Y3.393
X4.927 Y3.514
X4.853 Y3.612
X4.708 Y3.797 Z31.744
X4.489 Y4.052
X4.27 Y4.283
X4.051 Y4.492
X3.799 Y4.706
X3.613 Y4.85
X3.513 Y4.925 Z31.745
X3.394 Y5.008
X3.175 Y5.152
X3.152 Y5.166
X3.029 Y5.231 Z31.744
X2.965 Y5.259
X2.901 Y5.284 Z31.743
X2.768 Y5.326 Z31.741
X2.633 Y5.358 Z31.738
X2.495 Y5.382 Z31.735
X2.356 Y5.399 Z31.731
X2.216 Y5.411 Z31.727
X2.076 Y5.417 Z31.723
X1.789 Y5.423 Z31.715
X1.501 Y5.426 Z31.708
X1.357 Y5.431 Z31.705
X1.214 Y5.439 Z31.703
X1.071 Y5.452 Z31.702
X0.929 Y5.472 Z31.701
X0.767 Y5.499 Z31.702
X0.548 Y5.527
X0.329 Y5.546
X0.11 Y5.557
X-0.109 Y5.558
X-0.328 Y5.547
X-0.546 Y5.527 Z31.701
X-0.765 Y5.498
X-0.984 Y5.462
X-1.203 Y5.418
X-1.429 Y5.363
X-1.641 Y5.303
X-1.86 Y5.231
X-2.093 Y5.144
X-2.298 Y5.059
X-2.517 Y4.957
X-2.578 Y4.925
X-2.736 Y4.835
X-2.955 Y4.703 Z31.7
X-3.174 Y4.557
X-3.269 Y4.487
X-3.393 Y4.393 Z31.699
X-3.547 Y4.268
X-3.611 Y4.213
X-3.794 Y4.05 Z31.698
X-4.013 Y3.831 Z31.697
X-4.049 Y3.793
X-4.213 Y3.612
X-4.268 Y3.548
X-4.394 Y3.393 Z31.696
X-4.487 Y3.272
X-4.558 Y3.174 Z31.695
X-4.706 Y2.954 Z31.694
X-4.837 Y2.736 Z31.693
X-4.925 Y2.581
X-4.958 Y2.517
X-5.061 Y2.298 Z31.691
X-5.15 Y2.08 Z31.689
X-5.232 Y1.861 Z31.687
X-5.305 Y1.642 Z31.686
X-5.367 Y1.423 Z31.684
X-5.421 Y1.204 Z31.683
X-5.466 Y0.985 Z31.681
X-5.502 Y0.766 Z31.68
X-5.53 Y0.547 Z31.678
X-5.55 Y0.328 Z31.677
X-5.563 Y0.11 Z31.676
X-5.561 Y-0.109 Z31.674
X-5.55 Y-0.328 Z31.672
X-5.532 Y-0.547 Z31.67
X-5.504 Y-0.766 Z31.667
X-5.468 Y-0.985 Z31.665
X-5.423 Y-1.204 Z31.663
X-5.363 Y-1.45 Z31.661
X-5.309 Y-1.641 Z31.66
X-5.236 Y-1.86 Z31.658
X-5.144 Y-2.111 Z31.657
X-5.068 Y-2.298
X-4.965 Y-2.517 Z31.655
X-4.925 Y-2.594
X-4.844 Y-2.736 Z31.653
X-4.706 Y-2.965 Z31.651
X-4.567 Y-3.174 Z31.649
X-4.487 Y-3.284 Z31.648
X-4.403 Y-3.393 Z31.647
X-4.268 Y-3.559 Z31.646
X-4.223 Y-3.611 Z31.645
X-4.024 Y-3.83 Z31.643
X-3.806 Y-4.049
X-3.611 Y-4.226 Z31.642
X-3.562 Y-4.268 Z31.643
X-3.393 Y-4.405 Z31.642
X-3.285 Y-4.487
X-3.174 Y-4.567
X-2.955 Y-4.713
X-2.736 Y-4.845 Z31.643
X-2.597 Y-4.925 Z31.644
X-2.517 Y-4.966
X-2.298 Y-5.069
X-2.121 Y-5.144
X-1.86 Y-5.241
X-1.641 Y-5.313
X-1.422 Y-5.374 Z31.645
X-1.203 Y-5.428 Z31.646
X-0.984 Y-5.473 Z31.647
X-0.765 Y-5.508 Z31.649
X-0.546 Y-5.534 Z31.65
X-0.328 Y-5.552 Z31.652
X-0.109 Y-5.564 Z31.654
X0.11 Z31.655
X0.329 Y-5.553 Z31.656
X0.548 Y-5.534 Z31.657
X0.767 Y-5.505 Z31.658
X0.986 Y-5.468 Z31.66
X1.205 Y-5.423 Z31.661
X1.448 Y-5.363 Z31.663
X1.643 Y-5.308 Z31.665
X1.862 Y-5.236 Z31.667
X2.11 Y-5.144 Z31.67
X2.3 Y-5.065 Z31.673
X2.518 Y-4.961 Z31.675
X2.588 Y-4.925
X2.737 Y-4.839 Z31.676
X2.956 Y-4.704 Z31.677
X3.175 Y-4.557 Z31.679
X3.272 Y-4.487 Z31.68
X3.394 Y-4.393 Z31.681
X3.55 Y-4.268 Z31.682
X3.613 Y-4.214 Z31.683
X3.797 Y-4.049 Z31.685
X4.017 Y-3.83 Z31.686
X4.051 Y-3.794 Z31.687
X4.215 Y-3.611 Z31.688
X4.27 Y-3.548 Z31.689
X4.396 Y-3.393 Z31.69
X4.489 Y-3.272 Z31.692
X4.56 Y-3.174
X4.708 Y-2.952 Z31.694
X4.839 Y-2.736 Z31.695
X4.927 Y-2.584 Z31.697
X4.961 Y-2.517
X5.063 Y-2.298
X5.152 Y-2.079 Z31.698
X5.233 Y-1.86
X5.305 Y-1.641
X5.366 Y-1.423 Z31.699
X5.419 Y-1.204
X5.463 Y-0.985 Z31.7
X5.498 Y-0.766
X5.526 Y-0.547
X5.547 Y-0.328 Z31.701
X5.56 Y-0.109
X5.559 Y0.11
X5.546 Y0.328
X5.526 Y0.547
X5.499 Y0.766
X5.464 Y0.985
X5.419 Y1.204
X5.365 Y1.428
X5.304 Y1.642
X5.232 Y1.861
X5.146 Y2.093
X5.061 Y2.298 Z31.702
X4.959 Y2.517
X4.927 Y2.581
X4.838 Y2.736
X4.705 Y2.955
X4.557 Y3.174
X4.489 Y3.268 Z31.701
X4.391 Y3.393
X4.27 Y3.543
X4.211 Y3.612
X4.051 Y3.791
X3.832 Y4.012
X3.793 Y4.05
X3.613 Y4.212
X3.547 Y4.268
X3.394 Y4.39 Z31.702
X3.267 Y4.487
X3.175 Y4.553
X2.948 Y4.706
X2.737 Y4.834
X2.578 Y4.925
X2.518 Y4.956
X2.3 Y5.06
X2.081 Y5.15
X1.862 Y5.231
X1.643 Y5.303
X1.424 Y5.364 Z31.701
X1.205 Y5.418
X0.986 Y5.463
X0.929 Y5.472
X0.791 Y5.487
X0.722 Y5.49
X0.653 Y5.489 Z31.7
X0.514 Y5.478 Z31.699
X0.377 Y5.458 Z31.697
X0.24 Y5.428 Z31.694
X0.104 Y5.392 Z31.69
X-0.029 Y5.349 Z31.686
X-0.161 Y5.302 Z31.68
X-0.296 Y5.25 Z31.674
X-0.696 Y5.086 Z31.653
X-0.83 Y5.033 Z31.646
X-0.966 Y4.983 Z31.64
X-1.102 Y4.938 Z31.635
X-1.241 Y4.898 Z31.633
X-1.422 Y4.851 Z31.631
X-1.641 Y4.782 Z31.63
X-1.86 Y4.703 Z31.628
X-2.079 Y4.615 Z31.626
X-2.298 Y4.514 Z31.624
X-2.348 Y4.487
X-2.517 Y4.391 Z31.62
X-2.736 Y4.256 Z31.617
X-2.955 Y4.107 Z31.613
X-3.031 Y4.05 Z31.612
X-3.174 Y3.938 Z31.609
X-3.302 Y3.831 Z31.606
X-3.393 Y3.75 Z31.604
X-3.539 Y3.612 Z31.601
X-3.611 Y3.54 Z31.599
X-3.751 Y3.393 Z31.596
X-3.83 Y3.305 Z31.595
X-3.942 Y3.174 Z31.592
X-4.049 Y3.04 Z31.59
X-4.114 Y2.955 Z31.588
X-4.268 Y2.731 Z31.584
X-4.401 Y2.517 Z31.58
X-4.487 Y2.368 Z31.578
X-4.524 Y2.298 Z31.576
X-4.626 Y2.08 Z31.571
X-4.715 Y1.861 Z31.565
X-4.796 Y1.642 Z31.56
X-4.866 Y1.423 Z31.555
X-4.925 Y1.204 Z31.55
X-4.975 Y0.985 Z31.546
X-5.015 Y0.766 Z31.542
X-5.047 Y0.547 Z31.537
X-5.069 Y0.328 Z31.534
X-5.084 Y0.11 Z31.531
X-5.083 Y-0.109 Z31.526
X-5.071 Y-0.328 Z31.52
X-5.052 Y-0.547 Z31.515
X-5.023 Y-0.766 Z31.51
X-4.984 Y-0.985 Z31.506
X-4.925 Y-1.25 Z31.5
X-4.879 Y-1.423 Z31.497
X-4.812 Y-1.641 Z31.494
X-4.706 Y-1.937 Z31.49
X-4.649 Y-2.079 Z31.489
X-4.548 Y-2.298 Z31.486
X-4.487 Y-2.413 Z31.483
X-4.428 Y-2.517 Z31.481
X-4.295 Y-2.736 Z31.477
X-4.147 Y-2.955 Z31.473
X-4.049 Y-3.086 Z31.471
X-3.979 Y-3.174 Z31.469
X-3.83 Y-3.351 Z31.466
X-3.611 Y-3.585 Z31.463
X-3.393 Y-3.795 Z31.462
X-3.354 Y-3.83 Z31.461
X-3.174 Y-3.983
X-3.09 Y-4.049 Z31.462
X-2.955 Y-4.151 Z31.461
X-2.736 Y-4.298
X-2.517 Y-4.432 Z31.462
X-2.422 Y-4.487 Z31.463
X-2.298 Y-4.554 Z31.465
X-2.079 Y-4.655 Z31.464
X-1.959 Y-4.706
X-1.86 Y-4.743
X-1.641 Y-4.822
X-1.422 Y-4.89 Z31.466
X-1.295 Y-4.925
X-1.203 Y-4.947 Z31.467
X-0.984 Y-4.995 Z31.47
X-0.765 Y-5.034 Z31.472
X-0.546 Y-5.062 Z31.475
X-0.328 Y-5.082 Z31.479
X-0.109 Y-5.094 Z31.483
X0.11 Y-5.093 Z31.486
X0.329 Y-5.081 Z31.488
X0.548 Y-5.059 Z31.491
X0.767 Y-5.027 Z31.493
X0.986 Y-4.986 Z31.497
X1.249 Y-4.925 Z31.501
X1.424 Y-4.877 Z31.505
