%
O00004002
(T2  D=6. CR=0. - ZMIN=28.691 - FLAT END MILL)
G90 G94 G17
G21
G91
G28 Z0.
G90
(??1)
T2 M6
S15000 M3
G54
G0 X-1.828 Y-0.415
G43 Z48.87 H2
G0 Z33.765
G1 Z32.365 F1440.
X-1.835 Y-0.418 Z32.271
X-1.855 Y-0.427 Z32.179
X-1.888 Y-0.442 Z32.092
X-1.932 Y-0.462 Z32.012
X-1.988 Y-0.486 Z31.94
X-2.054 Y-0.516 Z31.879
X-2.127 Y-0.548 Z31.83
X-2.206 Y-0.584 Z31.794
X-2.29 Y-0.621 Z31.772
X-2.376 Y-0.659 Z31.765
X-2.65 Y-0.782
G3 X-2.953 Y-1.574 I0.244 J-0.548
X2.526 Y0.87 Z31.265 I2.74 J1.222
X-2.953 Y-1.574 Z30.765 I-2.74 J-1.222
X2.526 Y0.87 Z30.265 I2.74 J1.222
X-2.953 Y-1.574 Z29.765 I-2.74 J-1.222
X2.526 Y0.87 Z29.265 I2.74 J1.222
X-2.953 Y-1.574 Z28.765 I-2.74 J-1.222
X-2.125 Y-2.664 Z28.691 I2.74 J1.222
X1.698 Y1.961 I1.911 J2.313
X-2.125 Y-2.664 I-1.911 J-2.313
X-1.28 Y-2.584 I0.382 J0.463
G1 X-1.089 Y-2.353
X-1.029 Y-2.28 Z28.699
X-0.971 Y-2.21 Z28.721
X-0.915 Y-2.143 Z28.757
X-0.864 Y-2.081 Z28.806
X-0.819 Y-2.026 Z28.867
X-0.78 Y-1.979 Z28.939
X-0.748 Y-1.941 Z29.019
X-0.725 Y-1.913 Z29.106
X-0.711 Y-1.896 Z29.197
X-0.707 Y-1.89 Z29.291
G0 Z48.87
G91
G28 Z0.
G90
M5
G91
G28 X0. Y0.
G90
M30
%
