%
O00004003
(T23  D=2. CR=1. - ZMIN=21.691 - BALL END MILL)
G90 G94 G17
G21
G91
G28 Z0.
G90
(??4)
T23 M6
S15000 M3
G54
G0 X-0.261 Y-0.383
G43 Z48.87 H23
G0 Z30.491
G1 Z28.691 F1000.
X-0.265 Y-0.348
X-0.283 Y-0.343
X-0.3 Y-0.352
X-0.311 Y-0.377 Z28.602 F2475.
X-0.306 Y-0.405 Z28.512
X-0.288 Y-0.426 Z28.422
X-0.261 Y-0.433 Z28.332
X-0.234 Y-0.426 Z28.243
X-0.216 Y-0.405 Z28.153
X-0.211 Y-0.377 Z28.063
X-0.222 Y-0.352 Z27.973
X-0.245 Y-0.336 Z27.884
X-0.273 Y-0.335 Z27.794
X-0.297 Y-0.349 Z27.704
X-0.31 Y-0.373 Z27.614
X-0.308 Y-0.401 Z27.525
X-0.291 Y-0.423 Z27.435
X-0.265 Y-0.433 Z27.345
X-0.238 Y-0.428 Z27.255
X-0.218 Y-0.408 Z27.166
X-0.211 Y-0.381 Z27.076
X-0.22 Y-0.355 Z26.986
X-0.241 Y-0.337 Z26.896
X-0.269 Y-0.334 Z26.807
X-0.294 Y-0.346 Z26.717
X-0.309 Y-0.37 Z26.627
Y-0.397 Z26.537
X-0.294 Y-0.421 Z26.448
X-0.269 Y-0.433 Z26.358
X-0.241 Y-0.429 Z26.268
X-0.22 Y-0.412 Z26.179
X-0.211 Y-0.385 Z26.089
X-0.218 Y-0.358 Z25.999
X-0.238 Y-0.339 Z25.909
X-0.265 Y-0.334 Z25.82
X-0.291 Y-0.343 Z25.73
X-0.308 Y-0.366 Z25.64
X-0.31 Y-0.393 Z25.55
X-0.297 Y-0.418 Z25.461
X-0.273 Y-0.432 Z25.371
X-0.245 Y-0.431 Z25.281
X-0.222 Y-0.415 Z25.191
X-0.211 Y-0.389 Z25.102
X-0.216 Y-0.362 Z25.012
X-0.234 Y-0.341 Z24.922
X-0.261 Y-0.333 Z24.832
X-0.288 Y-0.341 Z24.743
X-0.306 Y-0.362 Z24.653
X-0.311 Y-0.39 Z24.563
X-0.3 Y-0.415 Z24.473
X-0.277 Y-0.431 Z24.384
X-0.249 Y-0.432 Z24.294
X-0.225 Y-0.418 Z24.204
X-0.212 Y-0.393 Z24.114
X-0.214 Y-0.366 Z24.025
X-0.231 Y-0.343 Z23.935
X-0.257 Y-0.334 Z23.845
X-0.284 Y-0.339 Z23.755
X-0.304 Y-0.358 Z23.666
X-0.311 Y-0.386 Z23.576
X-0.302 Y-0.412 Z23.486
X-0.28 Y-0.429 Z23.396
X-0.253 Y-0.433 Z23.307
X-0.228 Y-0.421 Z23.217
X-0.213 Y-0.397 Z23.127
Y-0.369 Z23.037
X-0.228 Y-0.346 Z22.948
X-0.253 Y-0.334 Z22.858
X-0.281 Y-0.337 Z22.768
X-0.302 Y-0.355 Z22.679
X-0.311 Y-0.381 Z22.589
X-0.304 Y-0.408 Z22.499
X-0.284 Y-0.428 Z22.409
X-0.257 Y-0.433 Z22.32
X-0.231 Y-0.423 Z22.23
X-0.214 Y-0.401 Z22.14
X-0.212 Y-0.373 Z22.05
X-0.225 Y-0.349 Z21.961
X-0.249 Y-0.335 Z21.871
X-0.277 Y-0.336 Z21.781
X-0.3 Y-0.352 Z21.691
G3 X-0.222 Y-0.415 I0.039 J-0.032
X-0.3 Y-0.352 I-0.039 J0.032
G1 X-0.305 Y-0.37 F1000.
X-0.296 Y-0.387
X-0.261 Y-0.383
G0 Z48.87
G91
G28 Z0.
G90
M5
G91
G28 X0. Y0.
G90
M30
%
